P3
24 24
255
97 140 84 97 140 84 97 140 84 97 140 84 97 140 84 97 140 84 97 140 84 97 140 84 97 140 84 97 140 84 97 140 84 97 140 84 97 140 84 97 140 84 97 140 84 97 140 84 97 140 84 97 140 84 97 140 84 97 140 84 97 140 84 97 140 84 97 140 84 97 140 84
97 140 84 97 140 84 97 140 84 97 140 84 97 140 84 97 140 84 97 140 84 97 140 84 97 140 84 97 140 84 97 140 84 97 140 84 97 140 84 97 140 84 97 140 84 97 140 84 97 140 84 97 140 84 97 140 84 97 140 84 97 140 84 97 140 84 97 140 84 97 140 84
97 140 84 97 140 84 97 140 84 97 140 84 97 140 84 97 140 84 97 140 84 97 140 84 97 140 84 97 140 84 97 140 84 97 140 84 97 140 84 97 140 84 97 140 84 97 140 84 97 140 84 97 140 84 97 140 84 97 140 84 97 140 84 97 140 84 97 140 84 97 140 84
97 140 84 97 140 84 97 140 84 97 140 84 97 140 84 97 140 84 97 140 84 97 140 84 97 140 84 97 140 84 97 140 84 97 140 84 97 140 84 97 140 84 97 140 84 97 140 84 97 140 84 97 140 84 97 140 84 97 140 84 97 140 84 97 140 84 97 140 84 97 140 84
97 140 84 97 140 84 97 140 84 97 140 84 97 140 84 97 140 84 97 140 84 97 140 84 97 140 84 97 140 84 97 140 84 97 140 84 97 140 84 97 140 84 97 140 84 97 140 84 97 140 84 97 140 84 97 140 84 97 140 84 97 140 84 97 140 84 97 140 84 97 140 84
97 140 84 97 140 84 97 140 84 97 140 84 97 140 84 97 140 84 97 140 84 97 140 84 97 140 84 97 140 84 97 140 84 97 140 84 97 140 84 97 140 84 97 140 84 97 140 84 97 140 84 97 140 84 97 140 84 97 140 84 97 140 84 97 140 84 97 140 84 97 140 84
97 140 84 97 140 84 97 140 84 97 140 84 97 140 84 97 140 84 97 140 84 97 140 84 97 140 84 97 140 84 97 140 84 97 140 84 97 140 84 97 140 84 97 140 84 97 140 84 97 140 84 97 140 84 97 140 84 97 140 84 97 140 84 97 140 84 97 140 84 97 140 84
97 140 84 97 140 84 97 140 84 97 140 84 97 140 84 97 140 84 97 140 84 97 140 84 97 140 84 97 140 84 97 140 84 97 140 84 97 140 84 97 140 84 97 140 84 97 140 84 97 140 84 97 140 84 97 140 84 97 140 84 97 140 84 97 140 84 97 140 84 97 140 84
97 140 84 97 140 84 97 140 84 97 140 84 97 140 84 97 140 84 97 140 84 97 140 84 97 140 84 97 140 84 97 140 84 97 140 84 97 140 84 97 140 84 97 140 84 97 140 84 97 140 84 97 140 84 97 140 84 97 140 84 97 140 84 97 140 84 97 140 84 97 140 84
97 140 84 97 140 84 97 140 84 97 140 84 97 140 84 97 140 84 97 140 84 97 140 84 97 140 84 97 140 84 97 140 84 97 140 84 97 140 84 97 140 84 97 140 84 97 140 84 97 140 84 97 140 84 97 140 84 97 140 84 97 140 84 97 140 84 97 140 84 97 140 84
97 140 84 97 140 84 97 140 84 97 140 84 97 140 84 97 140 84 97 140 84 97 140 84 97 140 84 97 140 84 97 140 84 97 140 84 97 140 84 97 140 84 97 140 84 97 140 84 97 140 84 97 140 84 97 140 84 97 140 84 97 140 84 97 140 84 97 140 84 97 140 84
97 140 84 97 140 84 97 140 84 97 140 84 97 140 84 97 140 84 97 140 84 97 140 84 97 140 84 97 140 84 97 140 84 97 140 84 97 140 84 97 140 84 97 140 84 97 140 84 97 140 84 97 140 84 97 140 84 97 140 84 97 140 84 97 140 84 97 140 84 97 140 84
97 140 84 97 140 84 97 140 84 97 140 84 97 140 84 97 140 84 97 140 84 97 140 84 97 140 84 97 140 84 97 140 84 97 140 84 97 140 84 97 140 84 97 140 84 97 140 84 97 140 84 97 140 84 97 140 84 97 140 84 97 140 84 97 140 84 97 140 84 97 140 84
97 140 84 97 140 84 97 140 84 97 140 84 97 140 84 97 140 84 97 140 84 97 140 84 97 140 84 97 140 84 97 140 84 97 140 84 97 140 84 97 140 84 97 140 84 97 140 84 97 140 84 97 140 84 97 140 84 97 140 84 97 140 84 97 140 84 97 140 84 97 140 84
97 140 84 97 140 84 97 140 84 97 140 84 97 140 84 97 140 84 97 140 84 97 140 84 97 140 84 97 140 84 97 140 84 97 140 84 97 140 84 97 140 84 97 140 84 97 140 84 97 140 84 97 140 84 97 140 84 97 140 84 97 140 84 97 140 84 97 140 84 97 140 84
97 140 84 97 140 84 97 140 84 97 140 84 97 140 84 97 140 84 97 140 84 97 140 84 97 140 84 97 140 84 97 140 84 97 140 84 97 140 84 97 140 84 97 140 84 97 140 84 97 140 84 97 140 84 97 140 84 97 140 84 97 140 84 97 140 84 97 140 84 97 140 84
97 140 84 97 140 84 97 140 84 97 140 84 97 140 84 97 140 84 97 140 84 97 140 84 97 140 84 97 140 84 97 140 84 97 140 84 97 140 84 97 140 84 97 140 84 97 140 84 97 140 84 97 140 84 97 140 84 97 140 84 97 140 84 97 140 84 97 140 84 97 140 84
97 140 84 97 140 84 97 140 84 97 140 84 97 140 84 97 140 84 97 140 84 97 140 84 97 140 84 97 140 84 97 140 84 97 140 84 97 140 84 97 140 84 97 140 84 97 140 84 97 140 84 97 140 84 97 140 84 97 140 84 97 140 84 97 140 84 97 140 84 97 140 84
97 140 84 97 140 84 97 140 84 97 140 84 97 140 84 97 140 84 97 140 84 97 140 84 97 140 84 97 140 84 97 140 84 97 140 84 97 140 84 97 140 84 97 140 84 97 140 84 97 140 84 97 140 84 97 140 84 97 140 84 97 140 84 97 140 84 97 140 84 97 140 84
97 140 84 97 140 84 97 140 84 97 140 84 97 140 84 97 140 84 97 140 84 97 140 84 97 140 84 97 140 84 97 140 84 97 140 84 97 140 84 97 140 84 97 140 84 97 140 84 97 140 84 97 140 84 97 140 84 97 140 84 97 140 84 97 140 84 97 140 84 97 140 84
97 140 84 97 140 84 97 140 84 97 140 84 97 140 84 97 140 84 97 140 84 97 140 84 97 140 84 97 140 84 97 140 84 97 140 84 97 140 84 97 140 84 97 140 84 97 140 84 97 140 84 97 140 84 97 140 84 97 140 84 97 140 84 97 140 84 97 140 84 97 140 84
97 140 84 97 140 84 97 140 84 97 140 84 97 140 84 97 140 84 97 140 84 97 140 84 97 140 84 97 140 84 97 140 84 97 140 84 97 140 84 97 140 84 97 140 84 97 140 84 97 140 84 97 140 84 97 140 84 97 140 84 97 140 84 97 140 84 97 140 84 97 140 84
97 140 84 97 140 84 97 140 84 97 140 84 97 140 84 97 140 84 97 140 84 97 140 84 97 140 84 97 140 84 97 140 84 97 140 84 97 140 84 97 140 84 97 140 84 97 140 84 97 140 84 97 140 84 97 140 84 97 140 84 97 140 84 97 140 84 97 140 84 97 140 84
97 140 84 97 140 84 97 140 84 97 140 84 97 140 84 97 140 84 97 140 84 97 140 84 97 140 84 97 140 84 97 140 84 97 140 84 97 140 84 97 140 84 97 140 84 97 140 84 97 140 84 97 140 84 97 140 84 97 140 84 97 140 84 97 140 84 97 140 84 97 140 84
