P3
24 24
255
72 95 132 72 95 132 72 95 132 72 95 132 72 95 132 72 95 132 72 95 132 72 95 132 72 95 132 72 95 132 72 95 132 72 95 132 72 95 132 72 95 132 72 95 132 72 95 132 72 95 132 72 95 132 72 95 132 72 95 132 72 95 132 72 95 132 72 95 132 72 95 132
72 95 132 72 95 132 72 95 132 72 95 132 72 95 132 72 95 132 72 95 132 72 95 132 72 95 132 72 95 132 72 95 132 72 95 132 72 95 132 72 95 132 72 95 132 72 95 132 72 95 132 72 95 132 72 95 132 72 95 132 72 95 132 72 95 132 72 95 132 72 95 132
72 95 132 72 95 132 72 95 132 72 95 132 72 95 132 72 95 132 72 95 132 72 95 132 72 95 132 72 95 132 72 95 132 72 95 132 72 95 132 72 95 132 72 95 132 72 95 132 72 95 132 72 95 132 72 95 132 72 95 132 72 95 132 72 95 132 72 95 132 72 95 132
72 95 132 72 95 132 72 95 132 72 95 132 72 95 132 72 95 132 72 95 132 72 95 132 72 95 132 72 95 132 72 95 132 72 95 132 72 95 132 72 95 132 72 95 132 72 95 132 72 95 132 72 95 132 72 95 132 72 95 132 72 95 132 72 95 132 72 95 132 72 95 132
72 95 132 72 95 132 72 95 132 72 95 132 72 95 132 72 95 132 72 95 132 72 95 132 72 95 132 72 95 132 72 95 132 72 95 132 72 95 132 72 95 132 72 95 132 72 95 132 72 95 132 72 95 132 72 95 132 72 95 132 72 95 132 72 95 132 72 95 132 72 95 132
72 95 132 72 95 132 72 95 132 72 95 132 72 95 132 72 95 132 72 95 132 72 95 132 72 95 132 72 95 132 72 95 132 72 95 132 72 95 132 72 95 132 72 95 132 72 95 132 72 95 132 72 95 132 72 95 132 72 95 132 72 95 132 72 95 132 72 95 132 72 95 132
72 95 132 72 95 132 72 95 132 72 95 132 72 95 132 72 95 132 72 95 132 72 95 132 72 95 132 72 95 132 72 95 132 72 95 132 72 95 132 72 95 132 72 95 132 72 95 132 72 95 132 72 95 132 72 95 132 72 95 132 72 95 132 72 95 132 72 95 132 72 95 132
72 95 132 72 95 132 72 95 132 72 95 132 72 95 132 72 95 132 72 95 132 72 95 132 72 95 132 72 95 132 72 95 132 72 95 132 72 95 132 72 95 132 72 95 132 72 95 132 72 95 132 72 95 132 72 95 132 72 95 132 72 95 132 72 95 132 72 95 132 72 95 132
72 95 132 72 95 132 72 95 132 72 95 132 72 95 132 72 95 132 72 95 132 72 95 132 72 95 132 72 95 132 72 95 132 72 95 132 72 95 132 72 95 132 72 95 132 72 95 132 72 95 132 72 95 132 72 95 132 72 95 132 72 95 132 72 95 132 72 95 132 72 95 132
72 95 132 72 95 132 72 95 132 72 95 132 72 95 132 72 95 132 72 95 132 72 95 132 72 95 132 72 95 132 72 95 132 72 95 132 72 95 132 72 95 132 72 95 132 72 95 132 72 95 132 72 95 132 72 95 132 72 95 132 72 95 132 72 95 132 72 95 132 72 95 132
72 95 132 72 95 132 72 95 132 72 95 132 72 95 132 72 95 132 72 95 132 72 95 132 72 95 132 72 95 132 72 95 132 72 95 132 72 95 132 72 95 132 72 95 132 72 95 132 72 95 132 72 95 132 72 95 132 72 95 132 72 95 132 72 95 132 72 95 132 72 95 132
72 95 132 72 95 132 72 95 132 72 95 132 72 95 132 72 95 132 72 95 132 72 95 132 72 95 132 72 95 132 72 95 132 72 95 132 72 95 132 72 95 132 72 95 132 72 95 132 72 95 132 72 95 132 72 95 132 72 95 132 72 95 132 72 95 132 72 95 132 72 95 132
72 95 132 72 95 132 72 95 132 72 95 132 72 95 132 72 95 132 72 95 132 72 95 132 72 95 132 72 95 132 72 95 132 72 95 132 72 95 132 72 95 132 72 95 132 72 95 132 72 95 132 72 95 132 72 95 132 72 95 132 72 95 132 72 95 132 72 95 132 72 95 132
72 95 132 72 95 132 72 95 132 72 95 132 72 95 132 72 95 132 72 95 132 72 95 132 72 95 132 72 95 132 72 95 132 72 95 132 72 95 132 72 95 132 72 95 132 72 95 132 72 95 132 72 95 132 72 95 132 72 95 132 72 95 132 72 95 132 72 95 132 72 95 132
72 95 132 72 95 132 72 95 132 72 95 132 72 95 132 72 95 132 72 95 132 72 95 132 72 95 132 72 95 132 72 95 132 72 95 132 72 95 132 72 95 132 72 95 132 72 95 132 72 95 132 72 95 132 72 95 132 72 95 132 72 95 132 72 95 132 72 95 132 72 95 132
72 95 132 72 95 132 72 95 132 72 95 132 72 95 132 72 95 132 72 95 132 72 95 132 72 95 132 72 95 132 72 95 132 72 95 132 72 95 132 72 95 132 72 95 132 72 95 132 72 95 132 72 95 132 72 95 132 72 95 132 72 95 132 72 95 132 72 95 132 72 95 132
72 95 132 72 95 132 72 95 132 72 95 132 72 95 132 72 95 132 72 95 132 72 95 132 72 95 132 72 95 132 72 95 132 72 95 132 72 95 132 72 95 132 72 95 132 72 95 132 72 95 132 72 95 132 72 95 132 72 95 132 72 95 132 72 95 132 72 95 132 72 95 132
72 95 132 72 95 132 72 95 132 72 95 132 72 95 132 72 95 132 72 95 132 72 95 132 72 95 132 72 95 132 72 95 132 72 95 132 72 95 132 72 95 132 72 95 132 72 95 132 72 95 132 72 95 132 72 95 132 72 95 132 72 95 132 72 95 132 72 95 132 72 95 132
72 95 132 72 95 132 72 95 132 72 95 132 72 95 132 72 95 132 72 95 132 72 95 132 72 95 132 72 95 132 72 95 132 72 95 132 72 95 132 72 95 132 72 95 132 72 95 132 72 95 132 72 95 132 72 95 132 72 95 132 72 95 132 72 95 132 72 95 132 72 95 132
72 95 132 72 95 132 72 95 132 72 95 132 72 95 132 72 95 132 72 95 132 72 95 132 72 95 132 72 95 132 72 95 132 72 95 132 72 95 132 72 95 132 72 95 132 72 95 132 72 95 132 72 95 132 72 95 132 72 95 132 72 95 132 72 95 132 72 95 132 72 95 132
72 95 132 72 95 132 72 95 132 72 95 132 72 95 132 72 95 132 72 95 132 72 95 132 72 95 132 72 95 132 72 95 132 72 95 132 72 95 132 72 95 132 72 95 132 72 95 132 72 95 132 72 95 132 72 95 132 72 95 132 72 95 132 72 95 132 72 95 132 72 95 132
72 95 132 72 95 132 72 95 132 72 95 132 72 95 132 72 95 132 72 95 132 72 95 132 72 95 132 72 95 132 72 95 132 72 95 132 72 95 132 72 95 132 72 95 132 72 95 132 72 95 132 72 95 132 72 95 132 72 95 132 72 95 132 72 95 132 72 95 132 72 95 132
72 95 132 72 95 132 72 95 132 72 95 132 72 95 132 72 95 132 72 95 132 72 95 132 72 95 132 72 95 132 72 95 132 72 95 132 72 95 132 72 95 132 72 95 132 72 95 132 72 95 132 72 95 132 72 95 132 72 95 132 72 95 132 72 95 132 72 95 132 72 95 132
72 95 132 72 95 132 72 95 132 72 95 132 72 95 132 72 95 132 72 95 132 72 95 132 72 95 132 72 95 132 72 95 132 72 95 132 72 95 132 72 95 132 72 95 132 72 95 132 72 95 132 72 95 132 72 95 132 72 95 132 72 95 132 72 95 132 72 95 132 72 95 132
