P3
24 24
255
116 116 74 116 116 74 116 116 74 116 116 74 116 116 74 116 116 74 116 116 74 116 116 74 116 116 74 116 116 74 116 116 74 116 116 74 116 116 74 116 116 74 116 116 74 116 116 74 116 116 74 116 116 74 116 116 74 116 116 74 116 116 74 116 116 74 116 116 74 116 116 74
116 116 74 116 116 74 116 116 74 116 116 74 116 116 74 116 116 74 116 116 74 116 116 74 116 116 74 116 116 74 116 116 74 116 116 74 116 116 74 116 116 74 116 116 74 116 116 74 116 116 74 116 116 74 116 116 74 116 116 74 116 116 74 116 116 74 116 116 74 116 116 74
116 116 74 116 116 74 116 116 74 116 116 74 116 116 74 116 116 74 116 116 74 116 116 74 116 116 74 116 116 74 116 116 74 116 116 74 116 116 74 116 116 74 116 116 74 116 116 74 116 116 74 116 116 74 116 116 74 116 116 74 116 116 74 116 116 74 116 116 74 116 116 74
116 116 74 116 116 74 116 116 74 116 116 74 116 116 74 116 116 74 116 116 74 116 116 74 116 116 74 116 116 74 116 116 74 116 116 74 116 116 74 116 116 74 116 116 74 116 116 74 116 116 74 116 116 74 116 116 74 116 116 74 116 116 74 116 116 74 116 116 74 116 116 74
116 116 74 116 116 74 116 116 74 116 116 74 116 116 74 116 116 74 116 116 74 116 116 74 116 116 74 116 116 74 116 116 74 116 116 74 116 116 74 116 116 74 116 116 74 116 116 74 116 116 74 116 116 74 116 116 74 116 116 74 116 116 74 116 116 74 116 116 74 116 116 74
116 116 74 116 116 74 116 116 74 116 116 74 116 116 74 116 116 74 116 116 74 116 116 74 116 116 74 116 116 74 116 116 74 116 116 74 116 116 74 116 116 74 116 116 74 116 116 74 116 116 74 116 116 74 116 116 74 116 116 74 116 116 74 116 116 74 116 116 74 116 116 74
116 116 74 116 116 74 116 116 74 116 116 74 116 116 74 116 116 74 116 116 74 116 116 74 116 116 74 116 116 74 116 116 74 116 116 74 116 116 74 116 116 74 116 116 74 116 116 74 116 116 74 116 116 74 116 116 74 116 116 74 116 116 74 116 116 74 116 116 74 116 116 74
116 116 74 116 116 74 116 116 74 116 116 74 116 116 74 116 116 74 116 116 74 116 116 74 116 116 74 116 116 74 116 116 74 116 116 74 116 116 74 116 116 74 116 116 74 116 116 74 116 116 74 116 116 74 116 116 74 116 116 74 116 116 74 116 116 74 116 116 74 116 116 74
116 116 74 116 116 74 116 116 74 116 116 74 116 116 74 116 116 74 116 116 74 116 116 74 116 116 74 116 116 74 116 116 74 116 116 74 116 116 74 116 116 74 116 116 74 116 116 74 116 116 74 116 116 74 116 116 74 116 116 74 116 116 74 116 116 74 116 116 74 116 116 74
116 116 74 116 116 74 116 116 74 116 116 74 116 116 74 116 116 74 116 116 74 116 116 74 116 116 74 116 116 74 116 116 74 116 116 74 116 116 74 116 116 74 116 116 74 116 116 74 116 116 74 116 116 74 116 116 74 116 116 74 116 116 74 116 116 74 116 116 74 116 116 74
116 116 74 116 116 74 116 116 74 116 116 74 116 116 74 116 116 74 116 116 74 116 116 74 116 116 74 116 116 74 116 116 74 116 116 74 116 116 74 116 116 74 116 116 74 116 116 74 116 116 74 116 116 74 116 116 74 116 116 74 116 116 74 116 116 74 116 116 74 116 116 74
116 116 74 116 116 74 116 116 74 116 116 74 116 116 74 116 116 74 116 116 74 116 116 74 116 116 74 116 116 74 116 116 74 116 116 74 116 116 74 116 116 74 116 116 74 116 116 74 116 116 74 116 116 74 116 116 74 116 116 74 116 116 74 116 116 74 116 116 74 116 116 74
116 116 74 116 116 74 116 116 74 116 116 74 116 116 74 116 116 74 116 116 74 116 116 74 116 116 74 116 116 74 116 116 74 116 116 74 116 116 74 116 116 74 116 116 74 116 116 74 116 116 74 116 116 74 116 116 74 116 116 74 116 116 74 116 116 74 116 116 74 116 116 74
116 116 74 116 116 74 116 116 74 116 116 74 116 116 74 116 116 74 116 116 74 116 116 74 116 116 74 116 116 74 116 116 74 116 116 74 116 116 74 116 116 74 116 116 74 116 116 74 116 116 74 116 116 74 116 116 74 116 116 74 116 116 74 116 116 74 116 116 74 116 116 74
116 116 74 116 116 74 116 116 74 116 116 74 116 116 74 116 116 74 116 116 74 116 116 74 116 116 74 116 116 74 116 116 74 116 116 74 116 116 74 116 116 74 116 116 74 116 116 74 116 116 74 116 116 74 116 116 74 116 116 74 116 116 74 116 116 74 116 116 74 116 116 74
116 116 74 116 116 74 116 116 74 116 116 74 116 116 74 116 116 74 116 116 74 116 116 74 116 116 74 116 116 74 116 116 74 116 116 74 116 116 74 116 116 74 116 116 74 116 116 74 116 116 74 116 116 74 116 116 74 116 116 74 116 116 74 116 116 74 116 116 74 116 116 74
116 116 74 116 116 74 116 116 74 116 116 74 116 116 74 116 116 74 116 116 74 116 116 74 116 116 74 116 116 74 116 116 74 116 116 74 116 116 74 116 116 74 116 116 74 116 116 74 116 116 74 116 116 74 116 116 74 116 116 74 116 116 74 116 116 74 116 116 74 116 116 74
116 116 74 116 116 74 116 116 74 116 116 74 116 116 74 116 116 74 116 116 74 116 116 74 116 116 74 116 116 74 116 116 74 116 116 74 116 116 74 116 116 74 116 116 74 116 116 74 116 116 74 116 116 74 116 116 74 116 116 74 116 116 74 116 116 74 116 116 74 116 116 74
116 116 74 116 116 74 116 116 74 116 116 74 116 116 74 116 116 74 116 116 74 116 116 74 116 116 74 116 116 74 116 116 74 116 116 74 116 116 74 116 116 74 116 116 74 116 116 74 116 116 74 116 116 74 116 116 74 116 116 74 116 116 74 116 116 74 116 116 74 116 116 74
116 116 74 116 116 74 116 116 74 116 116 74 116 116 74 116 116 74 116 116 74 116 116 74 116 116 74 116 116 74 116 116 74 116 116 74 116 116 74 116 116 74 116 116 74 116 116 74 116 116 74 116 116 74 116 116 74 116 116 74 116 116 74 116 116 74 116 116 74 116 116 74
116 116 74 116 116 74 116 116 74 116 116 74 116 116 74 116 116 74 116 116 74 116 116 74 116 116 74 116 116 74 116 116 74 116 116 74 116 116 74 116 116 74 116 116 74 116 116 74 116 116 74 116 116 74 116 116 74 116 116 74 116 116 74 116 116 74 116 116 74 116 116 74
116 116 74 116 116 74 116 116 74 116 116 74 116 116 74 116 116 74 116 116 74 116 116 74 116 116 74 116 116 74 116 116 74 116 116 74 116 116 74 116 116 74 116 116 74 116 116 74 116 116 74 116 116 74 116 116 74 116 116 74 116 116 74 116 116 74 116 116 74 116 116 74
116 116 74 116 116 74 116 116 74 116 116 74 116 116 74 116 116 74 116 116 74 116 116 74 116 116 74 116 116 74 116 116 74 116 116 74 116 116 74 116 116 74 116 116 74 116 116 74 116 116 74 116 116 74 116 116 74 116 116 74 116 116 74 116 116 74 116 116 74 116 116 74
116 116 74 116 116 74 116 116 74 116 116 74 116 116 74 116 116 74 116 116 74 116 116 74 116 116 74 116 116 74 116 116 74 116 116 74 116 116 74 116 116 74 116 116 74 116 116 74 116 116 74 116 116 74 116 116 74 116 116 74 116 116 74 116 116 74 116 116 74 116 116 74
