P3
24 24
255
110 78 78 110 78 78 110 78 78 110 78 78 110 78 78 110 78 78 110 78 78 110 78 78 110 78 78 110 78 78 110 78 78 110 78 78 110 78 78 110 78 78 110 78 78 110 78 78 110 78 78 110 78 78 110 78 78 110 78 78 110 78 78 110 78 78 110 78 78 110 78 78
110 78 78 110 78 78 110 78 78 110 78 78 110 78 78 110 78 78 110 78 78 110 78 78 110 78 78 110 78 78 110 78 78 110 78 78 110 78 78 110 78 78 110 78 78 110 78 78 110 78 78 110 78 78 110 78 78 110 78 78 110 78 78 110 78 78 110 78 78 110 78 78
110 78 78 110 78 78 110 78 78 110 78 78 110 78 78 110 78 78 110 78 78 110 78 78 110 78 78 110 78 78 110 78 78 110 78 78 110 78 78 110 78 78 110 78 78 110 78 78 110 78 78 110 78 78 110 78 78 110 78 78 110 78 78 110 78 78 110 78 78 110 78 78
110 78 78 110 78 78 110 78 78 110 78 78 110 78 78 110 78 78 110 78 78 110 78 78 110 78 78 110 78 78 110 78 78 110 78 78 110 78 78 110 78 78 110 78 78 110 78 78 110 78 78 110 78 78 110 78 78 110 78 78 110 78 78 110 78 78 110 78 78 110 78 78
110 78 78 110 78 78 110 78 78 110 78 78 110 78 78 110 78 78 110 78 78 110 78 78 110 78 78 110 78 78 110 78 78 110 78 78 110 78 78 110 78 78 110 78 78 110 78 78 110 78 78 110 78 78 110 78 78 110 78 78 110 78 78 110 78 78 110 78 78 110 78 78
110 78 78 110 78 78 110 78 78 110 78 78 110 78 78 110 78 78 110 78 78 110 78 78 110 78 78 110 78 78 110 78 78 110 78 78 110 78 78 110 78 78 110 78 78 110 78 78 110 78 78 110 78 78 110 78 78 110 78 78 110 78 78 110 78 78 110 78 78 110 78 78
110 78 78 110 78 78 110 78 78 110 78 78 110 78 78 110 78 78 110 78 78 110 78 78 110 78 78 110 78 78 110 78 78 110 78 78 110 78 78 110 78 78 110 78 78 110 78 78 110 78 78 110 78 78 110 78 78 110 78 78 110 78 78 110 78 78 110 78 78 110 78 78
110 78 78 110 78 78 110 78 78 110 78 78 110 78 78 110 78 78 110 78 78 110 78 78 110 78 78 110 78 78 110 78 78 110 78 78 110 78 78 110 78 78 110 78 78 110 78 78 110 78 78 110 78 78 110 78 78 110 78 78 110 78 78 110 78 78 110 78 78 110 78 78
110 78 78 110 78 78 110 78 78 110 78 78 110 78 78 110 78 78 110 78 78 110 78 78 110 78 78 110 78 78 110 78 78 110 78 78 110 78 78 110 78 78 110 78 78 110 78 78 110 78 78 110 78 78 110 78 78 110 78 78 110 78 78 110 78 78 110 78 78 110 78 78
110 78 78 110 78 78 110 78 78 110 78 78 110 78 78 110 78 78 110 78 78 110 78 78 110 78 78 110 78 78 110 78 78 110 78 78 110 78 78 110 78 78 110 78 78 110 78 78 110 78 78 110 78 78 110 78 78 110 78 78 110 78 78 110 78 78 110 78 78 110 78 78
110 78 78 110 78 78 110 78 78 110 78 78 110 78 78 110 78 78 110 78 78 110 78 78 110 78 78 110 78 78 110 78 78 110 78 78 110 78 78 110 78 78 110 78 78 110 78 78 110 78 78 110 78 78 110 78 78 110 78 78 110 78 78 110 78 78 110 78 78 110 78 78
110 78 78 110 78 78 110 78 78 110 78 78 110 78 78 110 78 78 110 78 78 110 78 78 110 78 78 110 78 78 110 78 78 110 78 78 110 78 78 110 78 78 110 78 78 110 78 78 110 78 78 110 78 78 110 78 78 110 78 78 110 78 78 110 78 78 110 78 78 110 78 78
110 78 78 110 78 78 110 78 78 110 78 78 110 78 78 110 78 78 110 78 78 110 78 78 110 78 78 110 78 78 110 78 78 110 78 78 110 78 78 110 78 78 110 78 78 110 78 78 110 78 78 110 78 78 110 78 78 110 78 78 110 78 78 110 78 78 110 78 78 110 78 78
110 78 78 110 78 78 110 78 78 110 78 78 110 78 78 110 78 78 110 78 78 110 78 78 110 78 78 110 78 78 110 78 78 110 78 78 110 78 78 110 78 78 110 78 78 110 78 78 110 78 78 110 78 78 110 78 78 110 78 78 110 78 78 110 78 78 110 78 78 110 78 78
110 78 78 110 78 78 110 78 78 110 78 78 110 78 78 110 78 78 110 78 78 110 78 78 110 78 78 110 78 78 110 78 78 110 78 78 110 78 78 110 78 78 110 78 78 110 78 78 110 78 78 110 78 78 110 78 78 110 78 78 110 78 78 110 78 78 110 78 78 110 78 78
110 78 78 110 78 78 110 78 78 110 78 78 110 78 78 110 78 78 110 78 78 110 78 78 110 78 78 110 78 78 110 78 78 110 78 78 110 78 78 110 78 78 110 78 78 110 78 78 110 78 78 110 78 78 110 78 78 110 78 78 110 78 78 110 78 78 110 78 78 110 78 78
110 78 78 110 78 78 110 78 78 110 78 78 110 78 78 110 78 78 110 78 78 110 78 78 110 78 78 110 78 78 110 78 78 110 78 78 110 78 78 110 78 78 110 78 78 110 78 78 110 78 78 110 78 78 110 78 78 110 78 78 110 78 78 110 78 78 110 78 78 110 78 78
110 78 78 110 78 78 110 78 78 110 78 78 110 78 78 110 78 78 110 78 78 110 78 78 110 78 78 110 78 78 110 78 78 110 78 78 110 78 78 110 78 78 110 78 78 110 78 78 110 78 78 110 78 78 110 78 78 110 78 78 110 78 78 110 78 78 110 78 78 110 78 78
110 78 78 110 78 78 110 78 78 110 78 78 110 78 78 110 78 78 110 78 78 110 78 78 110 78 78 110 78 78 110 78 78 110 78 78 110 78 78 110 78 78 110 78 78 110 78 78 110 78 78 110 78 78 110 78 78 110 78 78 110 78 78 110 78 78 110 78 78 110 78 78
110 78 78 110 78 78 110 78 78 110 78 78 110 78 78 110 78 78 110 78 78 110 78 78 110 78 78 110 78 78 110 78 78 110 78 78 110 78 78 110 78 78 110 78 78 110 78 78 110 78 78 110 78 78 110 78 78 110 78 78 110 78 78 110 78 78 110 78 78 110 78 78
110 78 78 110 78 78 110 78 78 110 78 78 110 78 78 110 78 78 110 78 78 110 78 78 110 78 78 110 78 78 110 78 78 110 78 78 110 78 78 110 78 78 110 78 78 110 78 78 110 78 78 110 78 78 110 78 78 110 78 78 110 78 78 110 78 78 110 78 78 110 78 78
110 78 78 110 78 78 110 78 78 110 78 78 110 78 78 110 78 78 110 78 78 110 78 78 110 78 78 110 78 78 110 78 78 110 78 78 110 78 78 110 78 78 110 78 78 110 78 78 110 78 78 110 78 78 110 78 78 110 78 78 110 78 78 110 78 78 110 78 78 110 78 78
110 78 78 110 78 78 110 78 78 110 78 78 110 78 78 110 78 78 110 78 78 110 78 78 110 78 78 110 78 78 110 78 78 110 78 78 110 78 78 110 78 78 110 78 78 110 78 78 110 78 78 110 78 78 110 78 78 110 78 78 110 78 78 110 78 78 110 78 78 110 78 78
110 78 78 110 78 78 110 78 78 110 78 78 110 78 78 110 78 78 110 78 78 110 78 78 110 78 78 110 78 78 110 78 78 110 78 78 110 78 78 110 78 78 110 78 78 110 78 78 110 78 78 110 78 78 110 78 78 110 78 78 110 78 78 110 78 78 110 78 78 110 78 78
