P3
24 24
255
122 64 64 122 64 64 122 64 64 122 64 64 122 64 64 122 64 64 122 64 64 122 64 64 122 64 64 122 64 64 122 64 64 122 64 64 122 64 64 122 64 64 122 64 64 122 64 64 122 64 64 122 64 64 122 64 64 122 64 64 122 64 64 122 64 64 122 64 64 122 64 64
122 64 64 122 64 64 122 64 64 122 64 64 122 64 64 122 64 64 122 64 64 122 64 64 122 64 64 122 64 64 122 64 64 122 64 64 122 64 64 122 64 64 122 64 64 122 64 64 122 64 64 122 64 64 122 64 64 122 64 64 122 64 64 122 64 64 122 64 64 122 64 64
122 64 64 122 64 64 122 64 64 122 64 64 122 64 64 122 64 64 122 64 64 122 64 64 122 64 64 122 64 64 122 64 64 122 64 64 122 64 64 122 64 64 122 64 64 122 64 64 122 64 64 122 64 64 122 64 64 122 64 64 122 64 64 122 64 64 122 64 64 122 64 64
122 64 64 122 64 64 122 64 64 122 64 64 122 64 64 122 64 64 122 64 64 122 64 64 122 64 64 122 64 64 122 64 64 122 64 64 122 64 64 122 64 64 122 64 64 122 64 64 122 64 64 122 64 64 122 64 64 122 64 64 122 64 64 122 64 64 122 64 64 122 64 64
122 64 64 122 64 64 122 64 64 122 64 64 122 64 64 122 64 64 122 64 64 122 64 64 122 64 64 122 64 64 122 64 64 122 64 64 122 64 64 122 64 64 122 64 64 122 64 64 122 64 64 122 64 64 122 64 64 122 64 64 122 64 64 122 64 64 122 64 64 122 64 64
122 64 64 122 64 64 122 64 64 122 64 64 122 64 64 122 64 64 122 64 64 122 64 64 122 64 64 122 64 64 122 64 64 122 64 64 122 64 64 122 64 64 122 64 64 122 64 64 122 64 64 122 64 64 122 64 64 122 64 64 122 64 64 122 64 64 122 64 64 122 64 64
122 64 64 122 64 64 122 64 64 122 64 64 122 64 64 122 64 64 122 64 64 122 64 64 122 64 64 122 64 64 122 64 64 122 64 64 122 64 64 122 64 64 122 64 64 122 64 64 122 64 64 122 64 64 122 64 64 122 64 64 122 64 64 122 64 64 122 64 64 122 64 64
122 64 64 122 64 64 122 64 64 122 64 64 122 64 64 122 64 64 122 64 64 122 64 64 122 64 64 122 64 64 122 64 64 122 64 64 122 64 64 122 64 64 122 64 64 122 64 64 122 64 64 122 64 64 122 64 64 122 64 64 122 64 64 122 64 64 122 64 64 122 64 64
122 64 64 122 64 64 122 64 64 122 64 64 122 64 64 122 64 64 122 64 64 122 64 64 122 64 64 122 64 64 122 64 64 122 64 64 122 64 64 122 64 64 122 64 64 122 64 64 122 64 64 122 64 64 122 64 64 122 64 64 122 64 64 122 64 64 122 64 64 122 64 64
122 64 64 122 64 64 122 64 64 122 64 64 122 64 64 122 64 64 122 64 64 122 64 64 122 64 64 122 64 64 122 64 64 122 64 64 122 64 64 122 64 64 122 64 64 122 64 64 122 64 64 122 64 64 122 64 64 122 64 64 122 64 64 122 64 64 122 64 64 122 64 64
122 64 64 122 64 64 122 64 64 122 64 64 122 64 64 122 64 64 122 64 64 122 64 64 122 64 64 122 64 64 122 64 64 122 64 64 122 64 64 122 64 64 122 64 64 122 64 64 122 64 64 122 64 64 122 64 64 122 64 64 122 64 64 122 64 64 122 64 64 122 64 64
122 64 64 122 64 64 122 64 64 122 64 64 122 64 64 122 64 64 122 64 64 122 64 64 122 64 64 122 64 64 122 64 64 122 64 64 122 64 64 122 64 64 122 64 64 122 64 64 122 64 64 122 64 64 122 64 64 122 64 64 122 64 64 122 64 64 122 64 64 122 64 64
122 64 64 122 64 64 122 64 64 122 64 64 122 64 64 122 64 64 122 64 64 122 64 64 122 64 64 122 64 64 122 64 64 122 64 64 122 64 64 122 64 64 122 64 64 122 64 64 122 64 64 122 64 64 122 64 64 122 64 64 122 64 64 122 64 64 122 64 64 122 64 64
122 64 64 122 64 64 122 64 64 122 64 64 122 64 64 122 64 64 122 64 64 122 64 64 122 64 64 122 64 64 122 64 64 122 64 64 122 64 64 122 64 64 122 64 64 122 64 64 122 64 64 122 64 64 122 64 64 122 64 64 122 64 64 122 64 64 122 64 64 122 64 64
122 64 64 122 64 64 122 64 64 122 64 64 122 64 64 122 64 64 122 64 64 122 64 64 122 64 64 122 64 64 122 64 64 122 64 64 122 64 64 122 64 64 122 64 64 122 64 64 122 64 64 122 64 64 122 64 64 122 64 64 122 64 64 122 64 64 122 64 64 122 64 64
122 64 64 122 64 64 122 64 64 122 64 64 122 64 64 122 64 64 122 64 64 122 64 64 122 64 64 122 64 64 122 64 64 122 64 64 122 64 64 122 64 64 122 64 64 122 64 64 122 64 64 122 64 64 122 64 64 122 64 64 122 64 64 122 64 64 122 64 64 122 64 64
122 64 64 122 64 64 122 64 64 122 64 64 122 64 64 122 64 64 122 64 64 122 64 64 122 64 64 122 64 64 122 64 64 122 64 64 122 64 64 122 64 64 122 64 64 122 64 64 122 64 64 122 64 64 122 64 64 122 64 64 122 64 64 122 64 64 122 64 64 122 64 64
122 64 64 122 64 64 122 64 64 122 64 64 122 64 64 122 64 64 122 64 64 122 64 64 122 64 64 122 64 64 122 64 64 122 64 64 122 64 64 122 64 64 122 64 64 122 64 64 122 64 64 122 64 64 122 64 64 122 64 64 122 64 64 122 64 64 122 64 64 122 64 64
122 64 64 122 64 64 122 64 64 122 64 64 122 64 64 122 64 64 122 64 64 122 64 64 122 64 64 122 64 64 122 64 64 122 64 64 122 64 64 122 64 64 122 64 64 122 64 64 122 64 64 122 64 64 122 64 64 122 64 64 122 64 64 122 64 64 122 64 64 122 64 64
122 64 64 122 64 64 122 64 64 122 64 64 122 64 64 122 64 64 122 64 64 122 64 64 122 64 64 122 64 64 122 64 64 122 64 64 122 64 64 122 64 64 122 64 64 122 64 64 122 64 64 122 64 64 122 64 64 122 64 64 122 64 64 122 64 64 122 64 64 122 64 64
122 64 64 122 64 64 122 64 64 122 64 64 122 64 64 122 64 64 122 64 64 122 64 64 122 64 64 122 64 64 122 64 64 122 64 64 122 64 64 122 64 64 122 64 64 122 64 64 122 64 64 122 64 64 122 64 64 122 64 64 122 64 64 122 64 64 122 64 64 122 64 64
122 64 64 122 64 64 122 64 64 122 64 64 122 64 64 122 64 64 122 64 64 122 64 64 122 64 64 122 64 64 122 64 64 122 64 64 122 64 64 122 64 64 122 64 64 122 64 64 122 64 64 122 64 64 122 64 64 122 64 64 122 64 64 122 64 64 122 64 64 122 64 64
122 64 64 122 64 64 122 64 64 122 64 64 122 64 64 122 64 64 122 64 64 122 64 64 122 64 64 122 64 64 122 64 64 122 64 64 122 64 64 122 64 64 122 64 64 122 64 64 122 64 64 122 64 64 122 64 64 122 64 64 122 64 64 122 64 64 122 64 64 122 64 64
122 64 64 122 64 64 122 64 64 122 64 64 122 64 64 122 64 64 122 64 64 122 64 64 122 64 64 122 64 64 122 64 64 122 64 64 122 64 64 122 64 64 122 64 64 122 64 64 122 64 64 122 64 64 122 64 64 122 64 64 122 64 64 122 64 64 122 64 64 122 64 64
