P3
24 24
255
92 92 110 92 92 110 92 92 110 92 92 110 92 92 110 92 92 110 92 92 110 92 92 110 92 92 110 92 92 110 92 92 110 92 92 110 92 92 110 92 92 110 92 92 110 92 92 110 92 92 110 92 92 110 92 92 110 92 92 110 92 92 110 92 92 110 92 92 110 92 92 110
92 92 110 92 92 110 92 92 110 92 92 110 92 92 110 92 92 110 92 92 110 92 92 110 92 92 110 92 92 110 92 92 110 92 92 110 92 92 110 92 92 110 92 92 110 92 92 110 92 92 110 92 92 110 92 92 110 92 92 110 92 92 110 92 92 110 92 92 110 92 92 110
92 92 110 92 92 110 92 92 110 92 92 110 92 92 110 92 92 110 92 92 110 92 92 110 92 92 110 92 92 110 92 92 110 92 92 110 92 92 110 92 92 110 92 92 110 92 92 110 92 92 110 92 92 110 92 92 110 92 92 110 92 92 110 92 92 110 92 92 110 92 92 110
92 92 110 92 92 110 92 92 110 92 92 110 92 92 110 92 92 110 92 92 110 92 92 110 92 92 110 92 92 110 92 92 110 92 92 110 92 92 110 92 92 110 92 92 110 92 92 110 92 92 110 92 92 110 92 92 110 92 92 110 92 92 110 92 92 110 92 92 110 92 92 110
92 92 110 92 92 110 92 92 110 92 92 110 92 92 110 92 92 110 92 92 110 92 92 110 92 92 110 92 92 110 92 92 110 92 92 110 92 92 110 92 92 110 92 92 110 92 92 110 92 92 110 92 92 110 92 92 110 92 92 110 92 92 110 92 92 110 92 92 110 92 92 110
92 92 110 92 92 110 92 92 110 92 92 110 92 92 110 92 92 110 92 92 110 92 92 110 92 92 110 92 92 110 92 92 110 92 92 110 92 92 110 92 92 110 92 92 110 92 92 110 92 92 110 92 92 110 92 92 110 92 92 110 92 92 110 92 92 110 92 92 110 92 92 110
92 92 110 92 92 110 92 92 110 92 92 110 92 92 110 92 92 110 92 92 110 92 92 110 92 92 110 92 92 110 92 92 110 92 92 110 92 92 110 92 92 110 92 92 110 92 92 110 92 92 110 92 92 110 92 92 110 92 92 110 92 92 110 92 92 110 92 92 110 92 92 110
92 92 110 92 92 110 92 92 110 92 92 110 92 92 110 92 92 110 92 92 110 92 92 110 92 92 110 92 92 110 92 92 110 92 92 110 92 92 110 92 92 110 92 92 110 92 92 110 92 92 110 92 92 110 92 92 110 92 92 110 92 92 110 92 92 110 92 92 110 92 92 110
92 92 110 92 92 110 92 92 110 92 92 110 92 92 110 92 92 110 92 92 110 92 92 110 92 92 110 92 92 110 92 92 110 92 92 110 92 92 110 92 92 110 92 92 110 92 92 110 92 92 110 92 92 110 92 92 110 92 92 110 92 92 110 92 92 110 92 92 110 92 92 110
92 92 110 92 92 110 92 92 110 92 92 110 92 92 110 92 92 110 92 92 110 92 92 110 92 92 110 92 92 110 92 92 110 92 92 110 92 92 110 92 92 110 92 92 110 92 92 110 92 92 110 92 92 110 92 92 110 92 92 110 92 92 110 92 92 110 92 92 110 92 92 110
92 92 110 92 92 110 92 92 110 92 92 110 92 92 110 92 92 110 92 92 110 92 92 110 92 92 110 92 92 110 92 92 110 92 92 110 92 92 110 92 92 110 92 92 110 92 92 110 92 92 110 92 92 110 92 92 110 92 92 110 92 92 110 92 92 110 92 92 110 92 92 110
92 92 110 92 92 110 92 92 110 92 92 110 92 92 110 92 92 110 92 92 110 92 92 110 92 92 110 92 92 110 92 92 110 92 92 110 92 92 110 92 92 110 92 92 110 92 92 110 92 92 110 92 92 110 92 92 110 92 92 110 92 92 110 92 92 110 92 92 110 92 92 110
92 92 110 92 92 110 92 92 110 92 92 110 92 92 110 92 92 110 92 92 110 92 92 110 92 92 110 92 92 110 92 92 110 92 92 110 92 92 110 92 92 110 92 92 110 92 92 110 92 92 110 92 92 110 92 92 110 92 92 110 92 92 110 92 92 110 92 92 110 92 92 110
92 92 110 92 92 110 92 92 110 92 92 110 92 92 110 92 92 110 92 92 110 92 92 110 92 92 110 92 92 110 92 92 110 92 92 110 92 92 110 92 92 110 92 92 110 92 92 110 92 92 110 92 92 110 92 92 110 92 92 110 92 92 110 92 92 110 92 92 110 92 92 110
92 92 110 92 92 110 92 92 110 92 92 110 92 92 110 92 92 110 92 92 110 92 92 110 92 92 110 92 92 110 92 92 110 92 92 110 92 92 110 92 92 110 92 92 110 92 92 110 92 92 110 92 92 110 92 92 110 92 92 110 92 92 110 92 92 110 92 92 110 92 92 110
92 92 110 92 92 110 92 92 110 92 92 110 92 92 110 92 92 110 92 92 110 92 92 110 92 92 110 92 92 110 92 92 110 92 92 110 92 92 110 92 92 110 92 92 110 92 92 110 92 92 110 92 92 110 92 92 110 92 92 110 92 92 110 92 92 110 92 92 110 92 92 110
92 92 110 92 92 110 92 92 110 92 92 110 92 92 110 92 92 110 92 92 110 92 92 110 92 92 110 92 92 110 92 92 110 92 92 110 92 92 110 92 92 110 92 92 110 92 92 110 92 92 110 92 92 110 92 92 110 92 92 110 92 92 110 92 92 110 92 92 110 92 92 110
92 92 110 92 92 110 92 92 110 92 92 110 92 92 110 92 92 110 92 92 110 92 92 110 92 92 110 92 92 110 92 92 110 92 92 110 92 92 110 92 92 110 92 92 110 92 92 110 92 92 110 92 92 110 92 92 110 92 92 110 92 92 110 92 92 110 92 92 110 92 92 110
92 92 110 92 92 110 92 92 110 92 92 110 92 92 110 92 92 110 92 92 110 92 92 110 92 92 110 92 92 110 92 92 110 92 92 110 92 92 110 92 92 110 92 92 110 92 92 110 92 92 110 92 92 110 92 92 110 92 92 110 92 92 110 92 92 110 92 92 110 92 92 110
92 92 110 92 92 110 92 92 110 92 92 110 92 92 110 92 92 110 92 92 110 92 92 110 92 92 110 92 92 110 92 92 110 92 92 110 92 92 110 92 92 110 92 92 110 92 92 110 92 92 110 92 92 110 92 92 110 92 92 110 92 92 110 92 92 110 92 92 110 92 92 110
92 92 110 92 92 110 92 92 110 92 92 110 92 92 110 92 92 110 92 92 110 92 92 110 92 92 110 92 92 110 92 92 110 92 92 110 92 92 110 92 92 110 92 92 110 92 92 110 92 92 110 92 92 110 92 92 110 92 92 110 92 92 110 92 92 110 92 92 110 92 92 110
92 92 110 92 92 110 92 92 110 92 92 110 92 92 110 92 92 110 92 92 110 92 92 110 92 92 110 92 92 110 92 92 110 92 92 110 92 92 110 92 92 110 92 92 110 92 92 110 92 92 110 92 92 110 92 92 110 92 92 110 92 92 110 92 92 110 92 92 110 92 92 110
92 92 110 92 92 110 92 92 110 92 92 110 92 92 110 92 92 110 92 92 110 92 92 110 92 92 110 92 92 110 92 92 110 92 92 110 92 92 110 92 92 110 92 92 110 92 92 110 92 92 110 92 92 110 92 92 110 92 92 110 92 92 110 92 92 110 92 92 110 92 92 110
92 92 110 92 92 110 92 92 110 92 92 110 92 92 110 92 92 110 92 92 110 92 92 110 92 92 110 92 92 110 92 92 110 92 92 110 92 92 110 92 92 110 92 92 110 92 92 110 92 92 110 92 92 110 92 92 110 92 92 110 92 92 110 92 92 110 92 92 110 92 92 110
