P3
24 24
255
132 95 72 132 95 72 132 95 72 132 95 72 132 95 72 132 95 72 132 95 72 132 95 72 132 95 72 132 95 72 132 95 72 132 95 72 132 95 72 132 95 72 132 95 72 132 95 72 132 95 72 132 95 72 132 95 72 132 95 72 132 95 72 132 95 72 132 95 72 132 95 72
132 95 72 132 95 72 132 95 72 132 95 72 132 95 72 132 95 72 132 95 72 132 95 72 132 95 72 132 95 72 132 95 72 132 95 72 132 95 72 132 95 72 132 95 72 132 95 72 132 95 72 132 95 72 132 95 72 132 95 72 132 95 72 132 95 72 132 95 72 132 95 72
132 95 72 132 95 72 132 95 72 132 95 72 132 95 72 132 95 72 132 95 72 132 95 72 132 95 72 132 95 72 132 95 72 132 95 72 132 95 72 132 95 72 132 95 72 132 95 72 132 95 72 132 95 72 132 95 72 132 95 72 132 95 72 132 95 72 132 95 72 132 95 72
132 95 72 132 95 72 132 95 72 132 95 72 132 95 72 132 95 72 132 95 72 132 95 72 132 95 72 132 95 72 132 95 72 132 95 72 132 95 72 132 95 72 132 95 72 132 95 72 132 95 72 132 95 72 132 95 72 132 95 72 132 95 72 132 95 72 132 95 72 132 95 72
132 95 72 132 95 72 132 95 72 132 95 72 132 95 72 132 95 72 132 95 72 132 95 72 132 95 72 132 95 72 132 95 72 132 95 72 132 95 72 132 95 72 132 95 72 132 95 72 132 95 72 132 95 72 132 95 72 132 95 72 132 95 72 132 95 72 132 95 72 132 95 72
132 95 72 132 95 72 132 95 72 132 95 72 132 95 72 132 95 72 132 95 72 132 95 72 132 95 72 132 95 72 132 95 72 132 95 72 132 95 72 132 95 72 132 95 72 132 95 72 132 95 72 132 95 72 132 95 72 132 95 72 132 95 72 132 95 72 132 95 72 132 95 72
132 95 72 132 95 72 132 95 72 132 95 72 132 95 72 132 95 72 132 95 72 132 95 72 132 95 72 132 95 72 132 95 72 132 95 72 132 95 72 132 95 72 132 95 72 132 95 72 132 95 72 132 95 72 132 95 72 132 95 72 132 95 72 132 95 72 132 95 72 132 95 72
132 95 72 132 95 72 132 95 72 132 95 72 132 95 72 132 95 72 132 95 72 132 95 72 132 95 72 132 95 72 132 95 72 132 95 72 132 95 72 132 95 72 132 95 72 132 95 72 132 95 72 132 95 72 132 95 72 132 95 72 132 95 72 132 95 72 132 95 72 132 95 72
132 95 72 132 95 72 132 95 72 132 95 72 132 95 72 132 95 72 132 95 72 132 95 72 132 95 72 132 95 72 132 95 72 132 95 72 132 95 72 132 95 72 132 95 72 132 95 72 132 95 72 132 95 72 132 95 72 132 95 72 132 95 72 132 95 72 132 95 72 132 95 72
132 95 72 132 95 72 132 95 72 132 95 72 132 95 72 132 95 72 132 95 72 132 95 72 132 95 72 132 95 72 132 95 72 132 95 72 132 95 72 132 95 72 132 95 72 132 95 72 132 95 72 132 95 72 132 95 72 132 95 72 132 95 72 132 95 72 132 95 72 132 95 72
132 95 72 132 95 72 132 95 72 132 95 72 132 95 72 132 95 72 132 95 72 132 95 72 132 95 72 132 95 72 132 95 72 132 95 72 132 95 72 132 95 72 132 95 72 132 95 72 132 95 72 132 95 72 132 95 72 132 95 72 132 95 72 132 95 72 132 95 72 132 95 72
132 95 72 132 95 72 132 95 72 132 95 72 132 95 72 132 95 72 132 95 72 132 95 72 132 95 72 132 95 72 132 95 72 132 95 72 132 95 72 132 95 72 132 95 72 132 95 72 132 95 72 132 95 72 132 95 72 132 95 72 132 95 72 132 95 72 132 95 72 132 95 72
132 95 72 132 95 72 132 95 72 132 95 72 132 95 72 132 95 72 132 95 72 132 95 72 132 95 72 132 95 72 132 95 72 132 95 72 132 95 72 132 95 72 132 95 72 132 95 72 132 95 72 132 95 72 132 95 72 132 95 72 132 95 72 132 95 72 132 95 72 132 95 72
132 95 72 132 95 72 132 95 72 132 95 72 132 95 72 132 95 72 132 95 72 132 95 72 132 95 72 132 95 72 132 95 72 132 95 72 132 95 72 132 95 72 132 95 72 132 95 72 132 95 72 132 95 72 132 95 72 132 95 72 132 95 72 132 95 72 132 95 72 132 95 72
132 95 72 132 95 72 132 95 72 132 95 72 132 95 72 132 95 72 132 95 72 132 95 72 132 95 72 132 95 72 132 95 72 132 95 72 132 95 72 132 95 72 132 95 72 132 95 72 132 95 72 132 95 72 132 95 72 132 95 72 132 95 72 132 95 72 132 95 72 132 95 72
132 95 72 132 95 72 132 95 72 132 95 72 132 95 72 132 95 72 132 95 72 132 95 72 132 95 72 132 95 72 132 95 72 132 95 72 132 95 72 132 95 72 132 95 72 132 95 72 132 95 72 132 95 72 132 95 72 132 95 72 132 95 72 132 95 72 132 95 72 132 95 72
132 95 72 132 95 72 132 95 72 132 95 72 132 95 72 132 95 72 132 95 72 132 95 72 132 95 72 132 95 72 132 95 72 132 95 72 132 95 72 132 95 72 132 95 72 132 95 72 132 95 72 132 95 72 132 95 72 132 95 72 132 95 72 132 95 72 132 95 72 132 95 72
132 95 72 132 95 72 132 95 72 132 95 72 132 95 72 132 95 72 132 95 72 132 95 72 132 95 72 132 95 72 132 95 72 132 95 72 132 95 72 132 95 72 132 95 72 132 95 72 132 95 72 132 95 72 132 95 72 132 95 72 132 95 72 132 95 72 132 95 72 132 95 72
132 95 72 132 95 72 132 95 72 132 95 72 132 95 72 132 95 72 132 95 72 132 95 72 132 95 72 132 95 72 132 95 72 132 95 72 132 95 72 132 95 72 132 95 72 132 95 72 132 95 72 132 95 72 132 95 72 132 95 72 132 95 72 132 95 72 132 95 72 132 95 72
132 95 72 132 95 72 132 95 72 132 95 72 132 95 72 132 95 72 132 95 72 132 95 72 132 95 72 132 95 72 132 95 72 132 95 72 132 95 72 132 95 72 132 95 72 132 95 72 132 95 72 132 95 72 132 95 72 132 95 72 132 95 72 132 95 72 132 95 72 132 95 72
132 95 72 132 95 72 132 95 72 132 95 72 132 95 72 132 95 72 132 95 72 132 95 72 132 95 72 132 95 72 132 95 72 132 95 72 132 95 72 132 95 72 132 95 72 132 95 72 132 95 72 132 95 72 132 95 72 132 95 72 132 95 72 132 95 72 132 95 72 132 95 72
132 95 72 132 95 72 132 95 72 132 95 72 132 95 72 132 95 72 132 95 72 132 95 72 132 95 72 132 95 72 132 95 72 132 95 72 132 95 72 132 95 72 132 95 72 132 95 72 132 95 72 132 95 72 132 95 72 132 95 72 132 95 72 132 95 72 132 95 72 132 95 72
132 95 72 132 95 72 132 95 72 132 95 72 132 95 72 132 95 72 132 95 72 132 95 72 132 95 72 132 95 72 132 95 72 132 95 72 132 95 72 132 95 72 132 95 72 132 95 72 132 95 72 132 95 72 132 95 72 132 95 72 132 95 72 132 95 72 132 95 72 132 95 72
132 95 72 132 95 72 132 95 72 132 95 72 132 95 72 132 95 72 132 95 72 132 95 72 132 95 72 132 95 72 132 95 72 132 95 72 132 95 72 132 95 72 132 95 72 132 95 72 132 95 72 132 95 72 132 95 72 132 95 72 132 95 72 132 95 72 132 95 72 132 95 72
