P3
24 24
255
112 139 145 112 139 145 112 139 145 112 139 145 112 139 145 112 139 145 112 139 145 112 139 145 112 139 145 112 139 145 112 139 145 112 139 145 112 139 145 112 139 145 112 139 145 112 139 145 112 139 145 112 139 145 112 139 145 112 139 145 112 139 145 112 139 145 112 139 145 112 139 145
112 139 145 112 139 145 112 139 145 112 139 145 112 139 145 112 139 145 112 139 145 112 139 145 112 139 145 112 139 145 112 139 145 112 139 145 112 139 145 112 139 145 112 139 145 112 139 145 112 139 145 112 139 145 112 139 145 112 139 145 112 139 145 112 139 145 112 139 145 112 139 145
112 139 145 112 139 145 112 139 145 112 139 145 112 139 145 112 139 145 112 139 145 112 139 145 112 139 145 112 139 145 112 139 145 112 139 145 112 139 145 112 139 145 112 139 145 112 139 145 112 139 145 112 139 145 112 139 145 112 139 145 112 139 145 112 139 145 112 139 145 112 139 145
112 139 145 112 139 145 112 139 145 112 139 145 112 139 145 112 139 145 112 139 145 112 139 145 112 139 145 112 139 145 112 139 145 112 139 145 112 139 145 112 139 145 112 139 145 112 139 145 112 139 145 112 139 145 112 139 145 112 139 145 112 139 145 112 139 145 112 139 145 112 139 145
112 139 145 112 139 145 112 139 145 112 139 145 112 139 145 112 139 145 112 139 145 112 139 145 112 139 145 112 139 145 112 139 145 112 139 145 112 139 145 112 139 145 112 139 145 112 139 145 112 139 145 112 139 145 112 139 145 112 139 145 112 139 145 112 139 145 112 139 145 112 139 145
112 139 145 112 139 145 112 139 145 112 139 145 112 139 145 112 139 145 112 139 145 112 139 145 112 139 145 112 139 145 112 139 145 112 139 145 112 139 145 112 139 145 112 139 145 112 139 145 112 139 145 112 139 145 112 139 145 112 139 145 112 139 145 112 139 145 112 139 145 112 139 145
112 139 145 112 139 145 112 139 145 112 139 145 112 139 145 112 139 145 112 139 145 112 139 145 112 139 145 112 139 145 112 139 145 112 139 145 112 139 145 112 139 145 112 139 145 112 139 145 112 139 145 112 139 145 112 139 145 112 139 145 112 139 145 112 139 145 112 139 145 112 139 145
112 139 145 112 139 145 112 139 145 112 139 145 112 139 145 112 139 145 112 139 145 112 139 145 112 139 145 112 139 145 112 139 145 112 139 145 112 139 145 112 139 145 112 139 145 112 139 145 112 139 145 112 139 145 112 139 145 112 139 145 112 139 145 112 139 145 112 139 145 112 139 145
112 139 145 112 139 145 112 139 145 112 139 145 112 139 145 112 139 145 112 139 145 112 139 145 112 139 145 112 139 145 112 139 145 112 139 145 112 139 145 112 139 145 112 139 145 112 139 145 112 139 145 112 139 145 112 139 145 112 139 145 112 139 145 112 139 145 112 139 145 112 139 145
112 139 145 112 139 145 112 139 145 112 139 145 112 139 145 112 139 145 112 139 145 112 139 145 112 139 145 112 139 145 112 139 145 112 139 145 112 139 145 112 139 145 112 139 145 112 139 145 112 139 145 112 139 145 112 139 145 112 139 145 112 139 145 112 139 145 112 139 145 112 139 145
112 139 145 112 139 145 112 139 145 112 139 145 112 139 145 112 139 145 112 139 145 112 139 145 112 139 145 112 139 145 112 139 145 112 139 145 112 139 145 112 139 145 112 139 145 112 139 145 112 139 145 112 139 145 112 139 145 112 139 145 112 139 145 112 139 145 112 139 145 112 139 145
112 139 145 112 139 145 112 139 145 112 139 145 112 139 145 112 139 145 112 139 145 112 139 145 112 139 145 112 139 145 112 139 145 112 139 145 112 139 145 112 139 145 112 139 145 112 139 145 112 139 145 112 139 145 112 139 145 112 139 145 112 139 145 112 139 145 112 139 145 112 139 145
112 139 145 112 139 145 112 139 145 112 139 145 112 139 145 112 139 145 112 139 145 112 139 145 112 139 145 112 139 145 112 139 145 112 139 145 112 139 145 112 139 145 112 139 145 112 139 145 112 139 145 112 139 145 112 139 145 112 139 145 112 139 145 112 139 145 112 139 145 112 139 145
112 139 145 112 139 145 112 139 145 112 139 145 112 139 145 112 139 145 112 139 145 112 139 145 112 139 145 112 139 145 112 139 145 112 139 145 112 139 145 112 139 145 112 139 145 112 139 145 112 139 145 112 139 145 112 139 145 112 139 145 112 139 145 112 139 145 112 139 145 112 139 145
112 139 145 112 139 145 112 139 145 112 139 145 112 139 145 112 139 145 112 139 145 112 139 145 112 139 145 112 139 145 112 139 145 112 139 145 112 139 145 112 139 145 112 139 145 112 139 145 112 139 145 112 139 145 112 139 145 112 139 145 112 139 145 112 139 145 112 139 145 112 139 145
112 139 145 112 139 145 112 139 145 112 139 145 112 139 145 112 139 145 112 139 145 112 139 145 112 139 145 112 139 145 112 139 145 112 139 145 112 139 145 112 139 145 112 139 145 112 139 145 112 139 145 112 139 145 112 139 145 112 139 145 112 139 145 112 139 145 112 139 145 112 139 145
112 139 145 112 139 145 112 139 145 112 139 145 112 139 145 112 139 145 112 139 145 112 139 145 112 139 145 112 139 145 112 139 145 112 139 145 112 139 145 112 139 145 112 139 145 112 139 145 112 139 145 112 139 145 112 139 145 112 139 145 112 139 145 112 139 145 112 139 145 112 139 145
112 139 145 112 139 145 112 139 145 112 139 145 112 139 145 112 139 145 112 139 145 112 139 145 112 139 145 112 139 145 112 139 145 112 139 145 112 139 145 112 139 145 112 139 145 112 139 145 112 139 145 112 139 145 112 139 145 112 139 145 112 139 145 112 139 145 112 139 145 112 139 145
112 139 145 112 139 145 112 139 145 112 139 145 112 139 145 112 139 145 112 139 145 112 139 145 112 139 145 112 139 145 112 139 145 112 139 145 112 139 145 112 139 145 112 139 145 112 139 145 112 139 145 112 139 145 112 139 145 112 139 145 112 139 145 112 139 145 112 139 145 112 139 145
112 139 145 112 139 145 112 139 145 112 139 145 112 139 145 112 139 145 112 139 145 112 139 145 112 139 145 112 139 145 112 139 145 112 139 145 112 139 145 112 139 145 112 139 145 112 139 145 112 139 145 112 139 145 112 139 145 112 139 145 112 139 145 112 139 145 112 139 145 112 139 145
112 139 145 112 139 145 112 139 145 112 139 145 112 139 145 112 139 145 112 139 145 112 139 145 112 139 145 112 139 145 112 139 145 112 139 145 112 139 145 112 139 145 112 139 145 112 139 145 112 139 145 112 139 145 112 139 145 112 139 145 112 139 145 112 139 145 112 139 145 112 139 145
112 139 145 112 139 145 112 139 145 112 139 145 112 139 145 112 139 145 112 139 145 112 139 145 112 139 145 112 139 145 112 139 145 112 139 145 112 139 145 112 139 145 112 139 145 112 139 145 112 139 145 112 139 145 112 139 145 112 139 145 112 139 145 112 139 145 112 139 145 112 139 145
112 139 145 112 139 145 112 139 145 112 139 145 112 139 145 112 139 145 112 139 145 112 139 145 112 139 145 112 139 145 112 139 145 112 139 145 112 139 145 112 139 145 112 139 145 112 139 145 112 139 145 112 139 145 112 139 145 112 139 145 112 139 145 112 139 145 112 139 145 112 139 145
112 139 145 112 139 145 112 139 145 112 139 145 112 139 145 112 139 145 112 139 145 112 139 145 112 139 145 112 139 145 112 139 145 112 139 145 112 139 145 112 139 145 112 139 145 112 139 145 112 139 145 112 139 145 112 139 145 112 139 145 112 139 145 112 139 145 112 139 145 112 139 145
