P3
24 24
255
161 125 79 161 125 79 161 125 79 161 125 79 161 125 79 161 125 79 161 125 79 161 125 79 161 125 79 161 125 79 161 125 79 161 125 79 161 125 79 161 125 79 161 125 79 161 125 79 161 125 79 161 125 79 161 125 79 161 125 79 161 125 79 161 125 79 161 125 79 161 125 79
161 125 79 161 125 79 161 125 79 161 125 79 161 125 79 161 125 79 161 125 79 161 125 79 161 125 79 161 125 79 161 125 79 161 125 79 161 125 79 161 125 79 161 125 79 161 125 79 161 125 79 161 125 79 161 125 79 161 125 79 161 125 79 161 125 79 161 125 79 161 125 79
161 125 79 161 125 79 161 125 79 161 125 79 161 125 79 161 125 79 161 125 79 161 125 79 161 125 79 161 125 79 161 125 79 161 125 79 161 125 79 161 125 79 161 125 79 161 125 79 161 125 79 161 125 79 161 125 79 161 125 79 161 125 79 161 125 79 161 125 79 161 125 79
161 125 79 161 125 79 161 125 79 161 125 79 161 125 79 161 125 79 161 125 79 161 125 79 161 125 79 161 125 79 161 125 79 161 125 79 161 125 79 161 125 79 161 125 79 161 125 79 161 125 79 161 125 79 161 125 79 161 125 79 161 125 79 161 125 79 161 125 79 161 125 79
161 125 79 161 125 79 161 125 79 161 125 79 161 125 79 161 125 79 161 125 79 161 125 79 161 125 79 161 125 79 161 125 79 161 125 79 161 125 79 161 125 79 161 125 79 161 125 79 161 125 79 161 125 79 161 125 79 161 125 79 161 125 79 161 125 79 161 125 79 161 125 79
161 125 79 161 125 79 161 125 79 161 125 79 161 125 79 161 125 79 161 125 79 161 125 79 161 125 79 161 125 79 161 125 79 161 125 79 161 125 79 161 125 79 161 125 79 161 125 79 161 125 79 161 125 79 161 125 79 161 125 79 161 125 79 161 125 79 161 125 79 161 125 79
161 125 79 161 125 79 161 125 79 161 125 79 161 125 79 161 125 79 161 125 79 161 125 79 161 125 79 161 125 79 161 125 79 161 125 79 161 125 79 161 125 79 161 125 79 161 125 79 161 125 79 161 125 79 161 125 79 161 125 79 161 125 79 161 125 79 161 125 79 161 125 79
161 125 79 161 125 79 161 125 79 161 125 79 161 125 79 161 125 79 161 125 79 161 125 79 161 125 79 161 125 79 161 125 79 161 125 79 161 125 79 161 125 79 161 125 79 161 125 79 161 125 79 161 125 79 161 125 79 161 125 79 161 125 79 161 125 79 161 125 79 161 125 79
161 125 79 161 125 79 161 125 79 161 125 79 161 125 79 161 125 79 161 125 79 161 125 79 161 125 79 161 125 79 161 125 79 161 125 79 161 125 79 161 125 79 161 125 79 161 125 79 161 125 79 161 125 79 161 125 79 161 125 79 161 125 79 161 125 79 161 125 79 161 125 79
161 125 79 161 125 79 161 125 79 161 125 79 161 125 79 161 125 79 161 125 79 161 125 79 161 125 79 161 125 79 161 125 79 161 125 79 161 125 79 161 125 79 161 125 79 161 125 79 161 125 79 161 125 79 161 125 79 161 125 79 161 125 79 161 125 79 161 125 79 161 125 79
161 125 79 161 125 79 161 125 79 161 125 79 161 125 79 161 125 79 161 125 79 161 125 79 161 125 79 161 125 79 161 125 79 161 125 79 161 125 79 161 125 79 161 125 79 161 125 79 161 125 79 161 125 79 161 125 79 161 125 79 161 125 79 161 125 79 161 125 79 161 125 79
161 125 79 161 125 79 161 125 79 161 125 79 161 125 79 161 125 79 161 125 79 161 125 79 161 125 79 161 125 79 161 125 79 161 125 79 161 125 79 161 125 79 161 125 79 161 125 79 161 125 79 161 125 79 161 125 79 161 125 79 161 125 79 161 125 79 161 125 79 161 125 79
161 125 79 161 125 79 161 125 79 161 125 79 161 125 79 161 125 79 161 125 79 161 125 79 161 125 79 161 125 79 161 125 79 161 125 79 161 125 79 161 125 79 161 125 79 161 125 79 161 125 79 161 125 79 161 125 79 161 125 79 161 125 79 161 125 79 161 125 79 161 125 79
161 125 79 161 125 79 161 125 79 161 125 79 161 125 79 161 125 79 161 125 79 161 125 79 161 125 79 161 125 79 161 125 79 161 125 79 161 125 79 161 125 79 161 125 79 161 125 79 161 125 79 161 125 79 161 125 79 161 125 79 161 125 79 161 125 79 161 125 79 161 125 79
161 125 79 161 125 79 161 125 79 161 125 79 161 125 79 161 125 79 161 125 79 161 125 79 161 125 79 161 125 79 161 125 79 161 125 79 161 125 79 161 125 79 161 125 79 161 125 79 161 125 79 161 125 79 161 125 79 161 125 79 161 125 79 161 125 79 161 125 79 161 125 79
161 125 79 161 125 79 161 125 79 161 125 79 161 125 79 161 125 79 161 125 79 161 125 79 161 125 79 161 125 79 161 125 79 161 125 79 161 125 79 161 125 79 161 125 79 161 125 79 161 125 79 161 125 79 161 125 79 161 125 79 161 125 79 161 125 79 161 125 79 161 125 79
161 125 79 161 125 79 161 125 79 161 125 79 161 125 79 161 125 79 161 125 79 161 125 79 161 125 79 161 125 79 161 125 79 161 125 79 161 125 79 161 125 79 161 125 79 161 125 79 161 125 79 161 125 79 161 125 79 161 125 79 161 125 79 161 125 79 161 125 79 161 125 79
161 125 79 161 125 79 161 125 79 161 125 79 161 125 79 161 125 79 161 125 79 161 125 79 161 125 79 161 125 79 161 125 79 161 125 79 161 125 79 161 125 79 161 125 79 161 125 79 161 125 79 161 125 79 161 125 79 161 125 79 161 125 79 161 125 79 161 125 79 161 125 79
161 125 79 161 125 79 161 125 79 161 125 79 161 125 79 161 125 79 161 125 79 161 125 79 161 125 79 161 125 79 161 125 79 161 125 79 161 125 79 161 125 79 161 125 79 161 125 79 161 125 79 161 125 79 161 125 79 161 125 79 161 125 79 161 125 79 161 125 79 161 125 79
161 125 79 161 125 79 161 125 79 161 125 79 161 125 79 161 125 79 161 125 79 161 125 79 161 125 79 161 125 79 161 125 79 161 125 79 161 125 79 161 125 79 161 125 79 161 125 79 161 125 79 161 125 79 161 125 79 161 125 79 161 125 79 161 125 79 161 125 79 161 125 79
161 125 79 161 125 79 161 125 79 161 125 79 161 125 79 161 125 79 161 125 79 161 125 79 161 125 79 161 125 79 161 125 79 161 125 79 161 125 79 161 125 79 161 125 79 161 125 79 161 125 79 161 125 79 161 125 79 161 125 79 161 125 79 161 125 79 161 125 79 161 125 79
161 125 79 161 125 79 161 125 79 161 125 79 161 125 79 161 125 79 161 125 79 161 125 79 161 125 79 161 125 79 161 125 79 161 125 79 161 125 79 161 125 79 161 125 79 161 125 79 161 125 79 161 125 79 161 125 79 161 125 79 161 125 79 161 125 79 161 125 79 161 125 79
161 125 79 161 125 79 161 125 79 161 125 79 161 125 79 161 125 79 161 125 79 161 125 79 161 125 79 161 125 79 161 125 79 161 125 79 161 125 79 161 125 79 161 125 79 161 125 79 161 125 79 161 125 79 161 125 79 161 125 79 161 125 79 161 125 79 161 125 79 161 125 79
161 125 79 161 125 79 161 125 79 161 125 79 161 125 79 161 125 79 161 125 79 161 125 79 161 125 79 161 125 79 161 125 79 161 125 79 161 125 79 161 125 79 161 125 79 161 125 79 161 125 79 161 125 79 161 125 79 161 125 79 161 125 79 161 125 79 161 125 79 161 125 79
