P3
300 100
255
52 50 50 52 50 50 52 50 50 52 50 50 52 50 50 52 50 50 52 50 50 52 50 50 52 50 50 52 50 50 52 50 50 52 50 50 52 50 50 52 50 50 52 50 50 52 50 50 52 50 50 52 50 50 52 50 50 52 50 50 52 50 50 52 50 50 52 50 50 52 50 50 52 50 50 52 50 50 52 50 50 52 50 50 52 50 50 52 50 50 52 50 50 52 50 50 52 50 50 52 50 50 52 50 50 52 50 50 52 50 50 52 50 50 52 50 50 52 50 50 52 50 50 52 50 50 52 50 50 52 50 50 52 50 50 52 50 50 52 50 50 52 50 50 52 50 50 52 50 50 52 50 50 52 50 50 52 50 50 52 50 50 52 50 50 52 50 50 52 50 50 52 50 50 52 50 50 52 50 50 52 50 50 52 50 50 52 50 50 52 50 50 52 50 50 52 50 50 52 50 50 52 50 50 52 50 50 52 50 50 52 50 50 52 50 50 52 50 50 52 50 50 52 50 50 52 50 50 52 50 50 52 50 50 52 50 50 52 50 50 52 50 50 52 50 50 52 50 50 52 50 50 52 50 50 52 50 50 52 50 50 52 50 50 52 50 50 52 50 50 52 50 50 52 50 50 52 50 50 52 50 50 52 50 50 52 50 50 52 50 50 52 50 50 52 50 50 52 50 50 52 50 50 52 50 50 52 50 50 52 50 50 52 50 50 52 50 50 52 50 50 52 50 50 52 50 50 52 50 50 52 50 50 52 50 50 52 50 50 52 50 50 52 50 50 52 50 50 52 50 50 52 50 50 52 50 50 52 50 50 52 50 50 52 50 50 52 50 50 52 50 50 52 50 50 52 50 50 52 50 50 52 50 50 52 50 50 52 50 50 52 50 50 52 50 50 52 50 50 52 50 50 52 50 50 52 50 50 52 50 50 52 50 50 52 50 50 52 50 50 52 50 50 52 50 50 52 50 50 52 50 50 52 50 50 52 50 50 52 50 50 52 50 50 52 50 50 52 50 50 52 50 50 52 50 50 52 50 50 52 50 50 52 50 50 52 50 50 52 50 50 52 50 50 52 50 50 52 50 50 52 50 50 52 50 50 52 50 50 52 50 50 52 50 50 52 50 50 52 50 50 52 50 50 52 50 50 52 50 50 52 50 50 52 50 50 52 50 50 52 50 50 52 50 50 52 50 50 52 50 50 52 50 50 52 50 50 52 50 50 52 50 50 52 50 50 52 50 50 52 50 50 52 50 50 52 50 50 52 50 50 52 50 50 52 50 50 52 50 50 52 50 50 52 50 50 52 50 50 52 50 50 52 50 50 52 50 50 52 50 50 52 50 50 52 50 50 52 50 50 52 50 50 52 50 50 52 50 50 52 50 50 52 50 50 52 50 50 52 50 50 52 50 50 52 50 50 52 50 50 52 50 50 52 50 50 52 50 50 52 50 50 52 50 50 52 50 50 52 50 50 52 50 50 52 50 50 52 50 50 52 50 50 52 50 50 52 50 50 52 50 50 52 50 50 52 50 50 52 50 50 52 50 50 52 50 50 52 50 50 52 50 50 52 50 50 52 50 50 52 50 50 52 50 50 52 50 50 52 50 50 52 50 50 52 50 50 52 50 50 52 50 50 52 50 50 52 50 50 52 50 50 52 50 50 52 50 50 52 50 50 52 50 50 52 50 50 52 50 50 52 50 50 52 50 50 52 50 50 52 50 50 52 50 50 52 50 50 52 50 50 52 50 50 52 50 50 52 50 50 52 50 50 52 50 50 52 50 50 52 50 50 52 50 50 52 50 50 52 50 50 52 50 50 52 50 50 52 50 50 52 50 50 52 50 50 52 50 50 52 50 50 52 50 50 52 50 50 52 50 50 52 50 50 52 50 50 52 50 50 52 50 50 52 50 50 52 50 50 52 50 50 52 50 50 52 50 50 52 50 50 52 50 50 52 50 50 52 50 50 52 50 50 52 50 50 52 50 50 52 50 50 52 50 50 52 50 50 52 50 50 52 50 50 52 50 50 52 50 50
52 50 50 52 50 50 52 50 50 52 50 50 52 50 50 52 50 50 52 50 50 52 50 50 52 50 50 52 50 50 52 50 50 52 50 50 52 50 50 52 50 50 52 50 50 52 50 50 52 50 50 52 50 50 52 50 50 52 50 50 52 50 50 52 50 50 52 50 50 52 50 50 52 50 50 52 50 50 52 50 50 52 50 50 52 50 50 52 50 50 52 50 50 52 50 50 52 50 50 52 50 50 52 50 50 52 50 50 52 50 50 52 50 50 52 50 50 52 50 50 52 50 50 52 50 50 52 50 50 52 50 50 52 50 50 52 50 50 52 50 50 52 50 50 52 50 50 52 50 50 52 50 50 52 50 50 52 50 50 52 50 50 52 50 50 52 50 50 52 50 50 52 50 50 52 50 50 52 50 50 52 50 50 52 50 50 52 50 50 52 50 50 52 50 50 52 50 50 52 50 50 52 50 50 52 50 50 52 50 50 52 50 50 52 50 50 52 50 50 52 50 50 52 50 50 52 50 50 52 50 50 52 50 50 52 50 50 52 50 50 52 50 50 52 50 50 52 50 50 52 50 50 52 50 50 52 50 50 52 50 50 52 50 50 52 50 50 52 50 50 52 50 50 52 50 50 52 50 50 52 50 50 52 50 50 52 50 50 52 50 50 52 50 50 52 50 50 52 50 50 52 50 50 52 50 50 52 50 50 52 50 50 52 50 50 52 50 50 52 50 50 52 50 50 52 50 50 52 50 50 52 50 50 52 50 50 52 50 50 52 50 50 52 50 50 52 50 50 52 50 50 52 50 50 52 50 50 52 50 50 52 50 50 52 50 50 52 50 50 52 50 50 52 50 50 52 50 50 52 50 50 52 50 50 52 50 50 52 50 50 52 50 50 52 50 50 52 50 50 52 50 50 52 50 50 52 50 50 52 50 50 52 50 50 52 50 50 52 50 50 52 50 50 52 50 50 52 50 50 52 50 50 52 50 50 52 50 50 52 50 50 52 50 50 52 50 50 52 50 50 52 50 50 52 50 50 52 50 50 52 50 50 52 50 50 52 50 50 52 50 50 52 50 50 52 50 50 52 50 50 52 50 50 52 50 50 52 50 50 52 50 50 52 50 50 52 50 50 52 50 50 52 50 50 52 50 50 52 50 50 52 50 50 52 50 50 52 50 50 52 50 50 52 50 50 52 50 50 52 50 50 52 50 50 52 50 50 52 50 50 52 50 50 52 50 50 52 50 50 52 50 50 52 50 50 52 50 50 52 50 50 52 50 50 52 50 50 52 50 50 52 50 50 52 50 50 52 50 50 52 50 50 52 50 50 52 50 50 52 50 50 52 50 50 52 50 50 52 50 50 52 50 50 52 50 50 52 50 50 52 50 50 52 50 50 52 50 50 52 50 50 52 50 50 52 50 50 52 50 50 52 50 50 52 50 50 52 50 50 52 50 50 52 50 50 52 50 50 52 50 50 52 50 50 52 50 50 52 50 50 52 50 50 52 50 50 52 50 50 52 50 50 52 50 50 52 50 50 52 50 50 52 50 50 52 50 50 52 50 50 52 50 50 52 50 50 52 50 50 52 50 50 52 50 50 52 50 50 52 50 50 52 50 50 52 50 50 52 50 50 52 50 50 52 50 50 52 50 50 52 50 50 52 50 50 52 50 50 52 50 50 52 50 50 52 50 50 52 50 50 52 50 50 52 50 50 52 50 50 52 50 50 52 50 50 52 50 50 52 50 50 52 50 50 52 50 50 52 50 50 52 50 50 52 50 50 52 50 50 52 50 50 52 50 50 52 50 50 52 50 50 52 50 50 52 50 50 52 50 50 52 50 50 52 50 50 52 50 50 52 50 50 52 50 50 52 50 50 52 50 50 52 50 50 52 50 50 52 50 50 52 50 50 52 50 50 52 50 50 52 50 50 52 50 50 52 50 50 52 50 50 52 50 50 52 50 50 52 50 50 52 50 50 52 50 50 52 50 50 52 50 50 52 50 50 52 50 50 52 50 50 52 50 50 52 50 50 52 50 50
52 50 50 52 50 50 52 50 50 52 50 50 52 50 50 52 50 50 52 50 50 52 50 50 52 50 50 52 50 50 52 50 50 52 50 50 52 50 50 52 50 50 52 50 50 52 50 50 52 50 50 52 50 50 52 50 50 52 50 50 52 50 50 52 50 50 52 50 50 52 50 50 52 50 50 52 50 50 52 50 50 52 50 50 52 50 50 52 50 50 52 50 50 52 50 50 52 50 50 52 50 50 52 50 50 52 50 50 52 50 50 52 50 50 52 50 50 52 50 50 52 50 50 52 50 50 52 50 50 52 50 50 52 50 50 52 50 50 52 50 50 52 50 50 52 50 50 52 50 50 52 50 50 52 50 50 52 50 50 52 50 50 52 50 50 52 50 50 52 50 50 52 50 50 52 50 50 52 50 50 52 50 50 52 50 50 52 50 50 52 50 50 52 50 50 52 50 50 52 50 50 52 50 50 52 50 50 52 50 50 52 50 50 52 50 50 52 50 50 52 50 50 52 50 50 52 50 50 52 50 50 52 50 50 52 50 50 52 50 50 52 50 50 52 50 50 52 50 50 52 50 50 52 50 50 52 50 50 52 50 50 52 50 50 52 50 50 52 50 50 52 50 50 52 50 50 52 50 50 52 50 50 52 50 50 52 50 50 52 50 50 52 50 50 52 50 50 52 50 50 52 50 50 52 50 50 52 50 50 52 50 50 52 50 50 52 50 50 52 50 50 52 50 50 52 50 50 52 50 50 52 50 50 52 50 50 52 50 50 52 50 50 52 50 50 52 50 50 52 50 50 52 50 50 52 50 50 52 50 50 52 50 50 52 50 50 52 50 50 52 50 50 52 50 50 52 50 50 52 50 50 52 50 50 52 50 50 52 50 50 52 50 50 52 50 50 52 50 50 52 50 50 52 50 50 52 50 50 52 50 50 52 50 50 52 50 50 52 50 50 52 50 50 52 50 50 52 50 50 52 50 50 52 50 50 52 50 50 52 50 50 52 50 50 52 50 50 52 50 50 52 50 50 52 50 50 52 50 50 52 50 50 52 50 50 52 50 50 52 50 50 52 50 50 52 50 50 52 50 50 52 50 50 52 50 50 52 50 50 52 50 50 52 50 50 52 50 50 52 50 50 52 50 50 52 50 50 52 50 50 52 50 50 52 50 50 52 50 50 52 50 50 52 50 50 52 50 50 52 50 50 52 50 50 52 50 50 52 50 50 52 50 50 52 50 50 52 50 50 52 50 50 52 50 50 52 50 50 52 50 50 52 50 50 52 50 50 52 50 50 52 50 50 52 50 50 52 50 50 52 50 50 52 50 50 52 50 50 52 50 50 52 50 50 52 50 50 52 50 50 52 50 50 52 50 50 52 50 50 52 50 50 52 50 50 52 50 50 52 50 50 52 50 50 52 50 50 52 50 50 52 50 50 52 50 50 52 50 50 52 50 50 52 50 50 52 50 50 52 50 50 52 50 50 52 50 50 52 50 50 52 50 50 52 50 50 52 50 50 52 50 50 52 50 50 52 50 50 52 50 50 52 50 50 52 50 50 52 50 50 52 50 50 52 50 50 52 50 50 52 50 50 52 50 50 52 50 50 52 50 50 52 50 50 52 50 50 52 50 50 52 50 50 52 50 50 52 50 50 52 50 50 52 50 50 52 50 50 52 50 50 52 50 50 52 50 50 52 50 50 52 50 50 52 50 50 52 50 50 52 50 50 52 50 50 52 50 50 52 50 50 52 50 50 52 50 50 52 50 50 52 50 50 52 50 50 52 50 50 52 50 50 52 50 50 52 50 50 52 50 50 52 50 50 52 50 50 52 50 50 52 50 50 52 50 50 52 50 50 52 50 50 52 50 50 52 50 50 52 50 50 52 50 50 52 50 50 52 50 50 52 50 50 52 50 50 52 50 50 52 50 50 52 50 50 52 50 50 52 50 50 52 50 50 52 50 50 52 50 50 52 50 50 52 50 50 52 50 50 52 50 50 52 50 50 52 50 50 52 50 50 52 50 50 52 50 50 52 50 50
52 50 50 52 50 50 52 50 50 52 50 50 52 50 50 52 50 50 52 50 50 52 50 50 52 50 50 52 50 50 52 50 50 52 50 50 52 50 50 52 50 50 52 50 50 52 50 50 52 50 50 52 50 50 52 50 50 52 50 50 52 50 50 52 50 50 52 50 50 52 50 50 52 50 50 52 50 50 52 50 50 52 50 50 52 50 50 52 50 50 52 50 50 52 50 50 52 50 50 52 50 50 52 50 50 52 50 50 52 50 50 52 50 50 52 50 50 52 50 50 52 50 50 52 50 50 52 50 50 52 50 50 52 50 50 52 50 50 52 50 50 52 50 50 52 50 50 52 50 50 52 50 50 52 50 50 52 50 50 52 50 50 52 50 50 52 50 50 52 50 50 52 50 50 52 50 50 52 50 50 52 50 50 52 50 50 52 50 50 52 50 50 52 50 50 52 50 50 52 50 50 52 50 50 52 50 50 52 50 50 52 50 50 52 50 50 52 50 50 52 50 50 52 50 50 52 50 50 52 50 50 52 50 50 52 50 50 52 50 50 52 50 50 52 50 50 52 50 50 52 50 50 52 50 50 52 50 50 52 50 50 52 50 50 52 50 50 52 50 50 52 50 50 52 50 50 52 50 50 52 50 50 52 50 50 52 50 50 52 50 50 52 50 50 52 50 50 52 50 50 52 50 50 52 50 50 52 50 50 52 50 50 52 50 50 52 50 50 52 50 50 52 50 50 52 50 50 52 50 50 52 50 50 52 50 50 52 50 50 52 50 50 52 50 50 52 50 50 52 50 50 52 50 50 52 50 50 52 50 50 52 50 50 52 50 50 52 50 50 52 50 50 52 50 50 52 50 50 52 50 50 52 50 50 52 50 50 52 50 50 52 50 50 52 50 50 52 50 50 52 50 50 52 50 50 52 50 50 52 50 50 52 50 50 52 50 50 52 50 50 52 50 50 52 50 50 52 50 50 52 50 50 52 50 50 52 50 50 52 50 50 52 50 50 52 50 50 52 50 50 52 50 50 52 50 50 52 50 50 52 50 50 52 50 50 52 50 50 52 50 50 52 50 50 52 50 50 52 50 50 52 50 50 52 50 50 52 50 50 52 50 50 52 50 50 52 50 50 52 50 50 52 50 50 52 50 50 52 50 50 52 50 50 52 50 50 52 50 50 52 50 50 52 50 50 52 50 50 52 50 50 52 50 50 52 50 50 52 50 50 52 50 50 52 50 50 52 50 50 52 50 50 52 50 50 52 50 50 52 50 50 52 50 50 52 50 50 52 50 50 52 50 50 52 50 50 52 50 50 52 50 50 52 50 50 52 50 50 52 50 50 52 50 50 52 50 50 52 50 50 52 50 50 52 50 50 52 50 50 52 50 50 52 50 50 52 50 50 52 50 50 52 50 50 52 50 50 52 50 50 52 50 50 52 50 50 52 50 50 52 50 50 52 50 50 52 50 50 52 50 50 52 50 50 52 50 50 52 50 50 52 50 50 52 50 50 52 50 50 52 50 50 52 50 50 52 50 50 52 50 50 52 50 50 52 50 50 52 50 50 52 50 50 52 50 50 52 50 50 52 50 50 52 50 50 52 50 50 52 50 50 52 50 50 52 50 50 52 50 50 52 50 50 52 50 50 52 50 50 52 50 50 52 50 50 52 50 50 52 50 50 52 50 50 52 50 50 52 50 50 52 50 50 52 50 50 52 50 50 52 50 50 52 50 50 52 50 50 52 50 50 52 50 50 52 50 50 52 50 50 52 50 50 52 50 50 52 50 50 52 50 50 52 50 50 52 50 50 52 50 50 52 50 50 52 50 50 52 50 50 52 50 50 52 50 50 52 50 50 52 50 50 52 50 50 52 50 50 52 50 50 52 50 50 52 50 50 52 50 50 52 50 50 52 50 50 52 50 50 52 50 50 52 50 50 52 50 50 52 50 50 52 50 50 52 50 50 52 50 50 52 50 50 52 50 50 52 50 50 52 50 50 52 50 50 52 50 50 52 50 50 52 50 50 52 50 50 52 50 50
52 50 50 52 50 50 52 50 50 52 50 50 52 50 50 52 50 50 52 50 50 52 50 50 52 50 50 52 50 50 52 50 50 52 50 50 52 50 50 52 50 50 52 50 50 52 50 50 52 50 50 52 50 50 52 50 50 52 50 50 52 50 50 52 50 50 52 50 50 52 50 50 52 50 50 52 50 50 52 50 50 52 50 50 52 50 50 52 50 50 52 50 50 52 50 50 52 50 50 52 50 50 52 50 50 52 50 50 52 50 50 52 50 50 52 50 50 52 50 50 52 50 50 52 50 50 52 50 50 52 50 50 52 50 50 52 50 50 52 50 50 52 50 50 52 50 50 52 50 50 52 50 50 52 50 50 52 50 50 52 50 50 52 50 50 52 50 50 52 50 50 52 50 50 52 50 50 52 50 50 52 50 50 52 50 50 52 50 50 52 50 50 52 50 50 52 50 50 52 50 50 52 50 50 52 50 50 52 50 50 52 50 50 52 50 50 52 50 50 52 50 50 52 50 50 52 50 50 52 50 50 52 50 50 52 50 50 52 50 50 52 50 50 52 50 50 52 50 50 52 50 50 52 50 50 52 50 50 52 50 50 52 50 50 52 50 50 52 50 50 52 50 50 52 50 50 52 50 50 52 50 50 52 50 50 52 50 50 52 50 50 52 50 50 52 50 50 52 50 50 52 50 50 52 50 50 52 50 50 52 50 50 52 50 50 52 50 50 52 50 50 52 50 50 52 50 50 52 50 50 52 50 50 52 50 50 52 50 50 52 50 50 52 50 50 52 50 50 52 50 50 52 50 50 52 50 50 52 50 50 52 50 50 52 50 50 52 50 50 52 50 50 52 50 50 52 50 50 52 50 50 52 50 50 52 50 50 52 50 50 52 50 50 52 50 50 52 50 50 52 50 50 52 50 50 52 50 50 52 50 50 52 50 50 52 50 50 52 50 50 52 50 50 52 50 50 52 50 50 52 50 50 52 50 50 52 50 50 52 50 50 52 50 50 52 50 50 52 50 50 52 50 50 52 50 50 52 50 50 52 50 50 52 50 50 52 50 50 52 50 50 52 50 50 52 50 50 52 50 50 52 50 50 52 50 50 52 50 50 52 50 50 52 50 50 52 50 50 52 50 50 52 50 50 52 50 50 52 50 50 52 50 50 52 50 50 52 50 50 52 50 50 52 50 50 52 50 50 52 50 50 52 50 50 52 50 50 52 50 50 52 50 50 52 50 50 52 50 50 52 50 50 52 50 50 52 50 50 52 50 50 52 50 50 52 50 50 52 50 50 52 50 50 52 50 50 52 50 50 52 50 50 52 50 50 52 50 50 52 50 50 52 50 50 52 50 50 52 50 50 52 50 50 52 50 50 52 50 50 52 50 50 52 50 50 52 50 50 52 50 50 52 50 50 52 50 50 52 50 50 52 50 50 52 50 50 52 50 50 52 50 50 52 50 50 52 50 50 52 50 50 52 50 50 52 50 50 52 50 50 52 50 50 52 50 50 52 50 50 52 50 50 52 50 50 52 50 50 52 50 50 52 50 50 52 50 50 52 50 50 52 50 50 52 50 50 52 50 50 52 50 50 52 50 50 52 50 50 52 50 50 52 50 50 52 50 50 52 50 50 52 50 50 52 50 50 52 50 50 52 50 50 52 50 50 52 50 50 52 50 50 52 50 50 52 50 50 52 50 50 52 50 50 52 50 50 52 50 50 52 50 50 52 50 50 52 50 50 52 50 50 52 50 50 52 50 50 52 50 50 52 50 50 52 50 50 52 50 50 52 50 50 52 50 50 52 50 50 52 50 50 52 50 50 52 50 50 52 50 50 52 50 50 52 50 50 52 50 50 52 50 50 52 50 50 52 50 50 52 50 50 52 50 50 52 50 50 52 50 50 52 50 50 52 50 50 52 50 50 52 50 50 52 50 50 52 50 50 52 50 50 52 50 50 52 50 50 52 50 50 52 50 50 52 50 50 52 50 50 52 50 50 52 50 50 52 50 50 52 50 50 52 50 50 52 50 50 52 50 50
52 50 50 52 50 50 52 50 50 52 50 50 52 50 50 52 50 50 52 50 50 52 50 50 52 50 50 52 50 50 52 50 50 52 50 50 52 50 50 52 50 50 52 50 50 52 50 50 52 50 50 52 50 50 52 50 50 52 50 50 52 50 50 52 50 50 52 50 50 52 50 50 52 50 50 52 50 50 52 50 50 52 50 50 52 50 50 52 50 50 52 50 50 52 50 50 52 50 50 52 50 50 52 50 50 52 50 50 52 50 50 52 50 50 52 50 50 52 50 50 52 50 50 52 50 50 52 50 50 52 50 50 52 50 50 52 50 50 52 50 50 52 50 50 52 50 50 52 50 50 52 50 50 52 50 50 52 50 50 52 50 50 52 50 50 52 50 50 52 50 50 52 50 50 52 50 50 52 50 50 52 50 50 52 50 50 52 50 50 52 50 50 52 50 50 52 50 50 52 50 50 52 50 50 52 50 50 52 50 50 52 50 50 52 50 50 52 50 50 52 50 50 52 50 50 52 50 50 52 50 50 52 50 50 52 50 50 52 50 50 52 50 50 52 50 50 52 50 50 52 50 50 52 50 50 52 50 50 52 50 50 52 50 50 52 50 50 52 50 50 52 50 50 52 50 50 52 50 50 52 50 50 52 50 50 52 50 50 52 50 50 52 50 50 52 50 50 52 50 50 52 50 50 52 50 50 52 50 50 52 50 50 52 50 50 52 50 50 52 50 50 52 50 50 52 50 50 52 50 50 52 50 50 52 50 50 52 50 50 52 50 50 52 50 50 52 50 50 52 50 50 52 50 50 52 50 50 52 50 50 52 50 50 52 50 50 52 50 50 52 50 50 52 50 50 52 50 50 52 50 50 52 50 50 52 50 50 52 50 50 52 50 50 52 50 50 52 50 50 52 50 50 52 50 50 52 50 50 52 50 50 52 50 50 52 50 50 52 50 50 52 50 50 52 50 50 52 50 50 52 50 50 52 50 50 52 50 50 52 50 50 52 50 50 52 50 50 52 50 50 52 50 50 52 50 50 52 50 50 52 50 50 52 50 50 52 50 50 52 50 50 52 50 50 52 50 50 52 50 50 52 50 50 52 50 50 52 50 50 52 50 50 52 50 50 52 50 50 52 50 50 52 50 50 52 50 50 52 50 50 52 50 50 52 50 50 52 50 50 52 50 50 52 50 50 52 50 50 52 50 50 52 50 50 52 50 50 52 50 50 52 50 50 52 50 50 52 50 50 52 50 50 52 50 50 52 50 50 52 50 50 52 50 50 52 50 50 52 50 50 52 50 50 52 50 50 52 50 50 52 50 50 52 50 50 52 50 50 52 50 50 52 50 50 52 50 50 52 50 50 52 50 50 52 50 50 52 50 50 52 50 50 52 50 50 52 50 50 52 50 50 52 50 50 52 50 50 52 50 50 52 50 50 52 50 50 52 50 50 52 50 50 52 50 50 52 50 50 52 50 50 52 50 50 52 50 50 52 50 50 52 50 50 52 50 50 52 50 50 52 50 50 52 50 50 52 50 50 52 50 50 52 50 50 52 50 50 52 50 50 52 50 50 52 50 50 52 50 50 52 50 50 52 50 50 52 50 50 52 50 50 52 50 50 52 50 50 52 50 50 52 50 50 52 50 50 52 50 50 52 50 50 52 50 50 52 50 50 52 50 50 52 50 50 52 50 50 52 50 50 52 50 50 52 50 50 52 50 50 52 50 50 52 50 50 52 50 50 52 50 50 52 50 50 52 50 50 52 50 50 52 50 50 52 50 50 52 50 50 52 50 50 52 50 50 52 50 50 52 50 50 52 50 50 52 50 50 52 50 50 52 50 50 52 50 50 52 50 50 52 50 50 52 50 50 52 50 50 52 50 50 52 50 50 52 50 50 52 50 50 52 50 50 52 50 50 52 50 50 52 50 50 52 50 50 52 50 50 52 50 50 52 50 50 52 50 50 52 50 50 52 50 50 52 50 50 52 50 50 52 50 50 52 50 50 52 50 50 52 50 50 52 50 50 52 50 50 52 50 50
52 50 50 52 50 50 52 50 50 52 50 50 52 50 50 52 50 50 52 50 50 52 50 50 52 50 50 52 50 50 52 50 50 52 50 50 52 50 50 52 50 50 52 50 50 52 50 50 52 50 50 52 50 50 52 50 50 52 50 50 52 50 50 52 50 50 52 50 50 52 50 50 52 50 50 52 50 50 52 50 50 52 50 50 52 50 50 52 50 50 52 50 50 52 50 50 52 50 50 52 50 50 52 50 50 52 50 50 52 50 50 52 50 50 52 50 50 52 50 50 52 50 50 52 50 50 52 50 50 52 50 50 52 50 50 52 50 50 52 50 50 52 50 50 52 50 50 52 50 50 52 50 50 52 50 50 52 50 50 52 50 50 52 50 50 52 50 50 52 50 50 52 50 50 52 50 50 52 50 50 52 50 50 52 50 50 52 50 50 52 50 50 52 50 50 52 50 50 52 50 50 52 50 50 52 50 50 52 50 50 52 50 50 52 50 50 52 50 50 52 50 50 52 50 50 52 50 50 52 50 50 52 50 50 52 50 50 52 50 50 52 50 50 52 50 50 52 50 50 52 50 50 52 50 50 52 50 50 52 50 50 52 50 50 52 50 50 52 50 50 52 50 50 52 50 50 52 50 50 52 50 50 52 50 50 52 50 50 52 50 50 52 50 50 52 50 50 52 50 50 52 50 50 52 50 50 52 50 50 52 50 50 52 50 50 52 50 50 52 50 50 52 50 50 52 50 50 52 50 50 52 50 50 52 50 50 52 50 50 52 50 50 52 50 50 52 50 50 52 50 50 52 50 50 52 50 50 52 50 50 52 50 50 52 50 50 52 50 50 52 50 50 52 50 50 52 50 50 52 50 50 52 50 50 52 50 50 52 50 50 52 50 50 52 50 50 52 50 50 52 50 50 52 50 50 52 50 50 52 50 50 52 50 50 52 50 50 52 50 50 52 50 50 52 50 50 52 50 50 52 50 50 52 50 50 52 50 50 52 50 50 52 50 50 52 50 50 52 50 50 52 50 50 52 50 50 52 50 50 52 50 50 52 50 50 52 50 50 52 50 50 52 50 50 52 50 50 52 50 50 52 50 50 52 50 50 52 50 50 52 50 50 52 50 50 52 50 50 52 50 50 52 50 50 52 50 50 52 50 50 52 50 50 52 50 50 52 50 50 52 50 50 52 50 50 52 50 50 52 50 50 52 50 50 52 50 50 52 50 50 52 50 50 52 50 50 52 50 50 52 50 50 52 50 50 52 50 50 52 50 50 52 50 50 52 50 50 52 50 50 52 50 50 52 50 50 52 50 50 52 50 50 52 50 50 52 50 50 52 50 50 52 50 50 52 50 50 52 50 50 52 50 50 52 50 50 52 50 50 52 50 50 52 50 50 52 50 50 52 50 50 52 50 50 52 50 50 52 50 50 52 50 50 52 50 50 52 50 50 52 50 50 52 50 50 52 50 50 52 50 50 52 50 50 52 50 50 52 50 50 52 50 50 52 50 50 52 50 50 52 50 50 52 50 50 52 50 50 52 50 50 52 50 50 52 50 50 52 50 50 52 50 50 52 50 50 52 50 50 52 50 50 52 50 50 52 50 50 52 50 50 52 50 50 52 50 50 52 50 50 52 50 50 52 50 50 52 50 50 52 50 50 52 50 50 52 50 50 52 50 50 52 50 50 52 50 50 52 50 50 52 50 50 52 50 50 52 50 50 52 50 50 52 50 50 52 50 50 52 50 50 52 50 50 52 50 50 52 50 50 52 50 50 52 50 50 52 50 50 52 50 50 52 50 50 52 50 50 52 50 50 52 50 50 52 50 50 52 50 50 52 50 50 52 50 50 52 50 50 52 50 50 52 50 50 52 50 50 52 50 50 52 50 50 52 50 50 52 50 50 52 50 50 52 50 50 52 50 50 52 50 50 52 50 50 52 50 50 52 50 50 52 50 50 52 50 50 52 50 50 52 50 50 52 50 50 52 50 50 52 50 50 52 50 50 52 50 50 52 50 50 52 50 50 52 50 50 52 50 50
52 50 50 52 50 50 52 50 50 52 50 50 52 50 50 52 50 50 52 50 50 52 50 50 52 50 50 52 50 50 52 50 50 52 50 50 52 50 50 52 50 50 52 50 50 52 50 50 52 50 50 52 50 50 52 50 50 52 50 50 52 50 50 52 50 50 52 50 50 52 50 50 52 50 50 52 50 50 52 50 50 52 50 50 52 50 50 52 50 50 52 50 50 52 50 50 52 50 50 52 50 50 52 50 50 52 50 50 52 50 50 52 50 50 52 50 50 52 50 50 52 50 50 52 50 50 52 50 50 52 50 50 52 50 50 52 50 50 52 50 50 52 50 50 52 50 50 52 50 50 52 50 50 52 50 50 52 50 50 52 50 50 52 50 50 52 50 50 52 50 50 52 50 50 52 50 50 52 50 50 52 50 50 52 50 50 52 50 50 52 50 50 52 50 50 52 50 50 52 50 50 52 50 50 52 50 50 52 50 50 52 50 50 52 50 50 52 50 50 52 50 50 52 50 50 52 50 50 52 50 50 52 50 50 52 50 50 52 50 50 52 50 50 52 50 50 52 50 50 52 50 50 52 50 50 52 50 50 52 50 50 52 50 50 52 50 50 52 50 50 52 50 50 52 50 50 52 50 50 52 50 50 52 50 50 52 50 50 52 50 50 52 50 50 52 50 50 52 50 50 52 50 50 52 50 50 52 50 50 52 50 50 52 50 50 52 50 50 52 50 50 52 50 50 52 50 50 52 50 50 52 50 50 52 50 50 52 50 50 52 50 50 52 50 50 52 50 50 52 50 50 52 50 50 52 50 50 52 50 50 52 50 50 52 50 50 52 50 50 52 50 50 52 50 50 52 50 50 52 50 50 52 50 50 52 50 50 52 50 50 52 50 50 52 50 50 52 50 50 52 50 50 52 50 50 52 50 50 52 50 50 52 50 50 52 50 50 52 50 50 52 50 50 52 50 50 52 50 50 52 50 50 52 50 50 52 50 50 52 50 50 52 50 50 52 50 50 52 50 50 52 50 50 52 50 50 52 50 50 52 50 50 52 50 50 52 50 50 52 50 50 52 50 50 52 50 50 52 50 50 52 50 50 52 50 50 52 50 50 52 50 50 52 50 50 52 50 50 52 50 50 52 50 50 52 50 50 52 50 50 52 50 50 52 50 50 52 50 50 52 50 50 52 50 50 52 50 50 52 50 50 52 50 50 52 50 50 52 50 50 52 50 50 52 50 50 52 50 50 52 50 50 52 50 50 52 50 50 52 50 50 52 50 50 52 50 50 52 50 50 52 50 50 52 50 50 52 50 50 52 50 50 52 50 50 52 50 50 52 50 50 52 50 50 52 50 50 52 50 50 52 50 50 52 50 50 52 50 50 52 50 50 52 50 50 52 50 50 52 50 50 52 50 50 52 50 50 52 50 50 52 50 50 52 50 50 52 50 50 52 50 50 52 50 50 52 50 50 52 50 50 52 50 50 52 50 50 52 50 50 52 50 50 52 50 50 52 50 50 52 50 50 52 50 50 52 50 50 52 50 50 52 50 50 52 50 50 52 50 50 52 50 50 52 50 50 52 50 50 52 50 50 52 50 50 52 50 50 52 50 50 52 50 50 52 50 50 52 50 50 52 50 50 52 50 50 52 50 50 52 50 50 52 50 50 52 50 50 52 50 50 52 50 50 52 50 50 52 50 50 52 50 50 52 50 50 52 50 50 52 50 50 52 50 50 52 50 50 52 50 50 52 50 50 52 50 50 52 50 50 52 50 50 52 50 50 52 50 50 52 50 50 52 50 50 52 50 50 52 50 50 52 50 50 52 50 50 52 50 50 52 50 50 52 50 50 52 50 50 52 50 50 52 50 50 52 50 50 52 50 50 52 50 50 52 50 50 52 50 50 52 50 50 52 50 50 52 50 50 52 50 50 52 50 50 52 50 50 52 50 50 52 50 50 52 50 50 52 50 50 52 50 50 52 50 50 52 50 50 52 50 50 52 50 50 52 50 50 52 50 50 52 50 50 52 50 50 52 50 50
52 50 50 52 50 50 52 50 50 52 50 50 52 50 50 52 50 50 52 50 50 52 50 50 52 50 50 52 50 50 52 50 50 52 50 50 52 50 50 52 50 50 52 50 50 52 50 50 52 50 50 52 50 50 52 50 50 52 50 50 52 50 50 52 50 50 52 50 50 52 50 50 52 50 50 52 50 50 52 50 50 52 50 50 52 50 50 52 50 50 52 50 50 52 50 50 52 50 50 52 50 50 52 50 50 52 50 50 52 50 50 52 50 50 52 50 50 52 50 50 52 50 50 52 50 50 52 50 50 52 50 50 52 50 50 52 50 50 52 50 50 52 50 50 52 50 50 52 50 50 52 50 50 52 50 50 52 50 50 52 50 50 52 50 50 52 50 50 52 50 50 52 50 50 52 50 50 52 50 50 52 50 50 52 50 50 52 50 50 52 50 50 52 50 50 52 50 50 52 50 50 52 50 50 52 50 50 52 50 50 52 50 50 52 50 50 52 50 50 52 50 50 52 50 50 52 50 50 52 50 50 52 50 50 52 50 50 52 50 50 52 50 50 52 50 50 52 50 50 52 50 50 52 50 50 52 50 50 52 50 50 52 50 50 52 50 50 52 50 50 52 50 50 52 50 50 52 50 50 52 50 50 52 50 50 52 50 50 52 50 50 52 50 50 52 50 50 52 50 50 52 50 50 52 50 50 52 50 50 52 50 50 52 50 50 52 50 50 52 50 50 52 50 50 52 50 50 52 50 50 52 50 50 52 50 50 52 50 50 52 50 50 52 50 50 52 50 50 52 50 50 52 50 50 52 50 50 52 50 50 52 50 50 52 50 50 52 50 50 52 50 50 52 50 50 52 50 50 52 50 50 52 50 50 52 50 50 52 50 50 52 50 50 52 50 50 52 50 50 52 50 50 52 50 50 52 50 50 52 50 50 52 50 50 52 50 50 52 50 50 52 50 50 52 50 50 52 50 50 52 50 50 52 50 50 52 50 50 52 50 50 52 50 50 52 50 50 52 50 50 52 50 50 52 50 50 52 50 50 52 50 50 52 50 50 52 50 50 52 50 50 52 50 50 52 50 50 52 50 50 52 50 50 52 50 50 52 50 50 52 50 50 52 50 50 52 50 50 52 50 50 52 50 50 52 50 50 52 50 50 52 50 50 52 50 50 52 50 50 52 50 50 52 50 50 52 50 50 52 50 50 52 50 50 52 50 50 52 50 50 52 50 50 52 50 50 52 50 50 52 50 50 52 50 50 52 50 50 52 50 50 52 50 50 52 50 50 52 50 50 52 50 50 52 50 50 52 50 50 52 50 50 52 50 50 52 50 50 52 50 50 52 50 50 52 50 50 52 50 50 52 50 50 52 50 50 52 50 50 52 50 50 52 50 50 52 50 50 52 50 50 52 50 50 52 50 50 52 50 50 52 50 50 52 50 50 52 50 50 52 50 50 52 50 50 52 50 50 52 50 50 52 50 50 52 50 50 52 50 50 52 50 50 52 50 50 52 50 50 52 50 50 52 50 50 52 50 50 52 50 50 52 50 50 52 50 50 52 50 50 52 50 50 52 50 50 52 50 50 52 50 50 52 50 50 52 50 50 52 50 50 52 50 50 52 50 50 52 50 50 52 50 50 52 50 50 52 50 50 52 50 50 52 50 50 52 50 50 52 50 50 52 50 50 52 50 50 52 50 50 52 50 50 52 50 50 52 50 50 52 50 50 52 50 50 52 50 50 52 50 50 52 50 50 52 50 50 52 50 50 52 50 50 52 50 50 52 50 50 52 50 50 52 50 50 52 50 50 52 50 50 52 50 50 52 50 50 52 50 50 52 50 50 52 50 50 52 50 50 52 50 50 52 50 50 52 50 50 52 50 50 52 50 50 52 50 50 52 50 50 52 50 50 52 50 50 52 50 50 52 50 50 52 50 50 52 50 50 52 50 50 52 50 50 52 50 50 52 50 50 52 50 50 52 50 50 52 50 50 52 50 50 52 50 50 52 50 50 52 50 50 52 50 50 52 50 50 52 50 50
52 50 50 52 50 50 52 50 50 52 50 50 52 50 50 52 50 50 52 50 50 52 50 50 52 50 50 52 50 50 52 50 50 52 50 50 52 50 50 52 50 50 52 50 50 52 50 50 52 50 50 52 50 50 52 50 50 52 50 50 52 50 50 52 50 50 52 50 50 52 50 50 52 50 50 52 50 50 52 50 50 52 50 50 52 50 50 52 50 50 52 50 50 52 50 50 52 50 50 52 50 50 52 50 50 52 50 50 52 50 50 52 50 50 52 50 50 52 50 50 52 50 50 52 50 50 52 50 50 52 50 50 52 50 50 52 50 50 52 50 50 52 50 50 52 50 50 52 50 50 52 50 50 52 50 50 52 50 50 52 50 50 52 50 50 52 50 50 52 50 50 52 50 50 52 50 50 52 50 50 52 50 50 52 50 50 52 50 50 52 50 50 52 50 50 52 50 50 52 50 50 52 50 50 52 50 50 52 50 50 52 50 50 52 50 50 52 50 50 52 50 50 52 50 50 52 50 50 52 50 50 52 50 50 52 50 50 52 50 50 52 50 50 52 50 50 52 50 50 52 50 50 52 50 50 52 50 50 52 50 50 52 50 50 52 50 50 52 50 50 52 50 50 52 50 50 52 50 50 52 50 50 52 50 50 52 50 50 52 50 50 52 50 50 52 50 50 52 50 50 52 50 50 52 50 50 52 50 50 52 50 50 52 50 50 52 50 50 52 50 50 52 50 50 52 50 50 52 50 50 52 50 50 52 50 50 52 50 50 52 50 50 52 50 50 52 50 50 52 50 50 52 50 50 52 50 50 52 50 50 52 50 50 52 50 50 52 50 50 52 50 50 52 50 50 52 50 50 52 50 50 52 50 50 52 50 50 52 50 50 52 50 50 52 50 50 52 50 50 52 50 50 52 50 50 52 50 50 52 50 50 52 50 50 52 50 50 52 50 50 52 50 50 52 50 50 52 50 50 52 50 50 52 50 50 52 50 50 52 50 50 52 50 50 52 50 50 52 50 50 52 50 50 52 50 50 52 50 50 52 50 50 52 50 50 52 50 50 52 50 50 52 50 50 52 50 50 52 50 50 52 50 50 52 50 50 52 50 50 52 50 50 52 50 50 52 50 50 52 50 50 52 50 50 52 50 50 52 50 50 52 50 50 52 50 50 52 50 50 52 50 50 52 50 50 52 50 50 52 50 50 52 50 50 52 50 50 52 50 50 52 50 50 52 50 50 52 50 50 52 50 50 52 50 50 52 50 50 52 50 50 52 50 50 52 50 50 52 50 50 52 50 50 52 50 50 52 50 50 52 50 50 52 50 50 52 50 50 52 50 50 52 50 50 52 50 50 52 50 50 52 50 50 52 50 50 52 50 50 52 50 50 52 50 50 52 50 50 52 50 50 52 50 50 52 50 50 52 50 50 52 50 50 52 50 50 52 50 50 52 50 50 52 50 50 52 50 50 52 50 50 52 50 50 52 50 50 52 50 50 52 50 50 52 50 50 52 50 50 52 50 50 52 50 50 52 50 50 52 50 50 52 50 50 52 50 50 52 50 50 52 50 50 52 50 50 52 50 50 52 50 50 52 50 50 52 50 50 52 50 50 52 50 50 52 50 50 52 50 50 52 50 50 52 50 50 52 50 50 52 50 50 52 50 50 52 50 50 52 50 50 52 50 50 52 50 50 52 50 50 52 50 50 52 50 50 52 50 50 52 50 50 52 50 50 52 50 50 52 50 50 52 50 50 52 50 50 52 50 50 52 50 50 52 50 50 52 50 50 52 50 50 52 50 50 52 50 50 52 50 50 52 50 50 52 50 50 52 50 50 52 50 50 52 50 50 52 50 50 52 50 50 52 50 50 52 50 50 52 50 50 52 50 50 52 50 50 52 50 50 52 50 50 52 50 50 52 50 50 52 50 50 52 50 50 52 50 50 52 50 50 52 50 50 52 50 50 52 50 50 52 50 50 52 50 50 52 50 50 52 50 50 52 50 50 52 50 50 52 50 50 52 50 50 52 50 50 52 50 50
52 50 50 52 50 50 52 50 50 52 50 50 52 50 50 52 50 50 52 50 50 52 50 50 52 50 50 52 50 50 52 50 50 52 50 50 52 50 50 52 50 50 52 50 50 52 50 50 52 50 50 52 50 50 52 50 50 52 50 50 52 50 50 52 50 50 52 50 50 52 50 50 52 50 50 52 50 50 52 50 50 52 50 50 52 50 50 52 50 50 52 50 50 52 50 50 52 50 50 52 50 50 52 50 50 52 50 50 52 50 50 52 50 50 52 50 50 52 50 50 52 50 50 52 50 50 52 50 50 52 50 50 52 50 50 52 50 50 52 50 50 52 50 50 52 50 50 52 50 50 52 50 50 52 50 50 52 50 50 52 50 50 52 50 50 52 50 50 52 50 50 52 50 50 52 50 50 52 50 50 52 50 50 52 50 50 52 50 50 52 50 50 52 50 50 52 50 50 52 50 50 52 50 50 52 50 50 52 50 50 52 50 50 52 50 50 52 50 50 52 50 50 52 50 50 52 50 50 52 50 50 52 50 50 52 50 50 52 50 50 52 50 50 52 50 50 52 50 50 52 50 50 52 50 50 52 50 50 52 50 50 52 50 50 52 50 50 52 50 50 52 50 50 52 50 50 52 50 50 52 50 50 52 50 50 52 50 50 52 50 50 52 50 50 52 50 50 52 50 50 52 50 50 52 50 50 52 50 50 52 50 50 52 50 50 52 50 50 52 50 50 52 50 50 52 50 50 52 50 50 52 50 50 52 50 50 52 50 50 52 50 50 52 50 50 52 50 50 52 50 50 52 50 50 52 50 50 52 50 50 52 50 50 52 50 50 52 50 50 52 50 50 52 50 50 52 50 50 52 50 50 52 50 50 52 50 50 52 50 50 52 50 50 52 50 50 52 50 50 52 50 50 52 50 50 52 50 50 52 50 50 52 50 50 52 50 50 52 50 50 52 50 50 52 50 50 52 50 50 52 50 50 52 50 50 52 50 50 52 50 50 52 50 50 52 50 50 52 50 50 52 50 50 52 50 50 52 50 50 52 50 50 52 50 50 52 50 50 52 50 50 52 50 50 52 50 50 52 50 50 52 50 50 52 50 50 52 50 50 52 50 50 52 50 50 52 50 50 52 50 50 52 50 50 52 50 50 52 50 50 52 50 50 52 50 50 52 50 50 52 50 50 52 50 50 52 50 50 52 50 50 52 50 50 52 50 50 52 50 50 52 50 50 52 50 50 52 50 50 52 50 50 52 50 50 52 50 50 52 50 50 52 50 50 52 50 50 52 50 50 52 50 50 52 50 50 52 50 50 52 50 50 52 50 50 52 50 50 52 50 50 52 50 50 52 50 50 52 50 50 52 50 50 52 50 50 52 50 50 52 50 50 52 50 50 52 50 50 52 50 50 52 50 50 52 50 50 52 50 50 52 50 50 52 50 50 52 50 50 52 50 50 52 50 50 52 50 50 52 50 50 52 50 50 52 50 50 52 50 50 52 50 50 52 50 50 52 50 50 52 50 50 52 50 50 52 50 50 52 50 50 52 50 50 52 50 50 52 50 50 52 50 50 52 50 50 52 50 50 52 50 50 52 50 50 52 50 50 52 50 50 52 50 50 52 50 50 52 50 50 52 50 50 52 50 50 52 50 50 52 50 50 52 50 50 52 50 50 52 50 50 52 50 50 52 50 50 52 50 50 52 50 50 52 50 50 52 50 50 52 50 50 52 50 50 52 50 50 52 50 50 52 50 50 52 50 50 52 50 50 52 50 50 52 50 50 52 50 50 52 50 50 52 50 50 52 50 50 52 50 50 52 50 50 52 50 50 52 50 50 52 50 50 52 50 50 52 50 50 52 50 50 52 50 50 52 50 50 52 50 50 52 50 50 52 50 50 52 50 50 52 50 50 52 50 50 52 50 50 52 50 50 52 50 50 52 50 50 52 50 50 52 50 50 52 50 50 52 50 50 52 50 50 52 50 50 52 50 50 52 50 50 52 50 50 52 50 50 52 50 50 52 50 50 52 50 50 52 50 50
52 50 50 52 50 50 52 50 50 52 50 50 52 50 50 52 50 50 52 50 50 52 50 50 52 50 50 52 50 50 52 50 50 52 50 50 52 50 50 52 50 50 52 50 50 52 50 50 52 50 50 52 50 50 52 50 50 52 50 50 52 50 50 52 50 50 52 50 50 52 50 50 52 50 50 52 50 50 52 50 50 52 50 50 52 50 50 52 50 50 52 50 50 52 50 50 52 50 50 52 50 50 52 50 50 52 50 50 52 50 50 52 50 50 52 50 50 52 50 50 52 50 50 52 50 50 52 50 50 52 50 50 52 50 50 52 50 50 52 50 50 52 50 50 52 50 50 52 50 50 52 50 50 52 50 50 52 50 50 52 50 50 52 50 50 52 50 50 52 50 50 52 50 50 52 50 50 52 50 50 52 50 50 52 50 50 52 50 50 52 50 50 52 50 50 52 50 50 52 50 50 52 50 50 52 50 50 52 50 50 52 50 50 52 50 50 52 50 50 52 50 50 52 50 50 52 50 50 52 50 50 52 50 50 52 50 50 52 50 50 52 50 50 52 50 50 52 50 50 52 50 50 52 50 50 52 50 50 52 50 50 52 50 50 52 50 50 52 50 50 52 50 50 52 50 50 52 50 50 52 50 50 52 50 50 52 50 50 52 50 50 52 50 50 52 50 50 52 50 50 52 50 50 52 50 50 52 50 50 52 50 50 52 50 50 52 50 50 52 50 50 52 50 50 52 50 50 52 50 50 52 50 50 52 50 50 52 50 50 52 50 50 52 50 50 52 50 50 52 50 50 52 50 50 52 50 50 52 50 50 52 50 50 52 50 50 52 50 50 52 50 50 52 50 50 52 50 50 52 50 50 52 50 50 52 50 50 52 50 50 52 50 50 52 50 50 52 50 50 52 50 50 52 50 50 52 50 50 52 50 50 52 50 50 52 50 50 52 50 50 52 50 50 52 50 50 52 50 50 52 50 50 52 50 50 52 50 50 52 50 50 52 50 50 52 50 50 52 50 50 52 50 50 52 50 50 52 50 50 52 50 50 52 50 50 52 50 50 52 50 50 52 50 50 52 50 50 52 50 50 52 50 50 52 50 50 52 50 50 52 50 50 52 50 50 52 50 50 52 50 50 52 50 50 52 50 50 52 50 50 52 50 50 52 50 50 52 50 50 52 50 50 52 50 50 52 50 50 52 50 50 52 50 50 52 50 50 52 50 50 52 50 50 52 50 50 52 50 50 52 50 50 52 50 50 52 50 50 52 50 50 52 50 50 52 50 50 52 50 50 52 50 50 52 50 50 52 50 50 52 50 50 52 50 50 52 50 50 52 50 50 52 50 50 52 50 50 52 50 50 52 50 50 52 50 50 52 50 50 52 50 50 52 50 50 52 50 50 52 50 50 52 50 50 52 50 50 52 50 50 52 50 50 52 50 50 52 50 50 52 50 50 52 50 50 52 50 50 52 50 50 52 50 50 52 50 50 52 50 50 52 50 50 52 50 50 52 50 50 52 50 50 52 50 50 52 50 50 52 50 50 52 50 50 52 50 50 52 50 50 52 50 50 52 50 50 52 50 50 52 50 50 52 50 50 52 50 50 52 50 50 52 50 50 52 50 50 52 50 50 52 50 50 52 50 50 52 50 50 52 50 50 52 50 50 52 50 50 52 50 50 52 50 50 52 50 50 52 50 50 52 50 50 52 50 50 52 50 50 52 50 50 52 50 50 52 50 50 52 50 50 52 50 50 52 50 50 52 50 50 52 50 50 52 50 50 52 50 50 52 50 50 52 50 50 52 50 50 52 50 50 52 50 50 52 50 50 52 50 50 52 50 50 52 50 50 52 50 50 52 50 50 52 50 50 52 50 50 52 50 50 52 50 50 52 50 50 52 50 50 52 50 50 52 50 50 52 50 50 52 50 50 52 50 50 52 50 50 52 50 50 52 50 50 52 50 50 52 50 50 52 50 50 52 50 50 52 50 50 52 50 50 52 50 50 52 50 50 52 50 50 52 50 50 52 50 50 52 50 50
52 50 50 52 50 50 52 50 50 52 50 50 52 50 50 52 50 50 52 50 50 52 50 50 52 50 50 52 50 50 52 50 50 52 50 50 52 50 50 52 50 50 52 50 50 52 50 50 52 50 50 52 50 50 52 50 50 52 50 50 52 50 50 52 50 50 52 50 50 52 50 50 52 50 50 52 50 50 52 50 50 52 50 50 52 50 50 52 50 50 52 50 50 52 50 50 52 50 50 52 50 50 52 50 50 52 50 50 52 50 50 52 50 50 52 50 50 52 50 50 52 50 50 52 50 50 52 50 50 52 50 50 52 50 50 52 50 50 52 50 50 52 50 50 52 50 50 52 50 50 52 50 50 52 50 50 52 50 50 52 50 50 52 50 50 52 50 50 52 50 50 52 50 50 52 50 50 52 50 50 52 50 50 52 50 50 52 50 50 52 50 50 52 50 50 52 50 50 52 50 50 52 50 50 52 50 50 52 50 50 52 50 50 52 50 50 52 50 50 52 50 50 52 50 50 52 50 50 52 50 50 52 50 50 52 50 50 52 50 50 52 50 50 52 50 50 52 50 50 52 50 50 52 50 50 52 50 50 52 50 50 52 50 50 52 50 50 52 50 50 52 50 50 52 50 50 52 50 50 52 50 50 52 50 50 52 50 50 52 50 50 52 50 50 52 50 50 52 50 50 52 50 50 52 50 50 52 50 50 52 50 50 52 50 50 52 50 50 52 50 50 52 50 50 52 50 50 52 50 50 52 50 50 52 50 50 52 50 50 52 50 50 52 50 50 52 50 50 52 50 50 52 50 50 52 50 50 52 50 50 52 50 50 52 50 50 52 50 50 52 50 50 52 50 50 52 50 50 52 50 50 52 50 50 52 50 50 52 50 50 52 50 50 52 50 50 52 50 50 52 50 50 52 50 50 52 50 50 52 50 50 52 50 50 52 50 50 52 50 50 52 50 50 52 50 50 52 50 50 52 50 50 52 50 50 52 50 50 52 50 50 52 50 50 52 50 50 52 50 50 52 50 50 52 50 50 52 50 50 52 50 50 52 50 50 52 50 50 52 50 50 52 50 50 52 50 50 52 50 50 52 50 50 52 50 50 52 50 50 52 50 50 52 50 50 52 50 50 52 50 50 52 50 50 52 50 50 52 50 50 52 50 50 52 50 50 52 50 50 52 50 50 52 50 50 52 50 50 52 50 50 52 50 50 52 50 50 52 50 50 52 50 50 52 50 50 52 50 50 52 50 50 52 50 50 52 50 50 52 50 50 52 50 50 52 50 50 52 50 50 52 50 50 52 50 50 52 50 50 52 50 50 52 50 50 52 50 50 52 50 50 52 50 50 52 50 50 52 50 50 52 50 50 52 50 50 52 50 50 52 50 50 52 50 50 52 50 50 52 50 50 52 50 50 52 50 50 52 50 50 52 50 50 52 50 50 52 50 50 52 50 50 52 50 50 52 50 50 52 50 50 52 50 50 52 50 50 52 50 50 52 50 50 52 50 50 52 50 50 52 50 50 52 50 50 52 50 50 52 50 50 52 50 50 52 50 50 52 50 50 52 50 50 52 50 50 52 50 50 52 50 50 52 50 50 52 50 50 52 50 50 52 50 50 52 50 50 52 50 50 52 50 50 52 50 50 52 50 50 52 50 50 52 50 50 52 50 50 52 50 50 52 50 50 52 50 50 52 50 50 52 50 50 52 50 50 52 50 50 52 50 50 52 50 50 52 50 50 52 50 50 52 50 50 52 50 50 52 50 50 52 50 50 52 50 50 52 50 50 52 50 50 52 50 50 52 50 50 52 50 50 52 50 50 52 50 50 52 50 50 52 50 50 52 50 50 52 50 50 52 50 50 52 50 50 52 50 50 52 50 50 52 50 50 52 50 50 52 50 50 52 50 50 52 50 50 52 50 50 52 50 50 52 50 50 52 50 50 52 50 50 52 50 50 52 50 50 52 50 50 52 50 50 52 50 50 52 50 50 52 50 50 52 50 50 52 50 50 52 50 50 52 50 50 52 50 50 52 50 50
52 50 50 52 50 50 52 50 50 52 50 50 52 50 50 52 50 50 52 50 50 52 50 50 52 50 50 52 50 50 52 50 50 52 50 50 52 50 50 52 50 50 52 50 50 52 50 50 52 50 50 52 50 50 52 50 50 52 50 50 52 50 50 52 50 50 52 50 50 52 50 50 52 50 50 52 50 50 52 50 50 52 50 50 52 50 50 52 50 50 52 50 50 52 50 50 52 50 50 52 50 50 52 50 50 52 50 50 52 50 50 52 50 50 52 50 50 52 50 50 52 50 50 52 50 50 52 50 50 52 50 50 52 50 50 52 50 50 52 50 50 52 50 50 52 50 50 52 50 50 52 50 50 52 50 50 52 50 50 52 50 50 52 50 50 52 50 50 52 50 50 52 50 50 52 50 50 52 50 50 52 50 50 52 50 50 52 50 50 52 50 50 52 50 50 52 50 50 52 50 50 52 50 50 52 50 50 52 50 50 52 50 50 52 50 50 52 50 50 52 50 50 52 50 50 52 50 50 52 50 50 52 50 50 52 50 50 52 50 50 52 50 50 52 50 50 52 50 50 52 50 50 52 50 50 52 50 50 52 50 50 52 50 50 52 50 50 52 50 50 52 50 50 52 50 50 52 50 50 52 50 50 52 50 50 52 50 50 52 50 50 52 50 50 52 50 50 52 50 50 52 50 50 52 50 50 52 50 50 52 50 50 52 50 50 52 50 50 52 50 50 52 50 50 52 50 50 52 50 50 52 50 50 52 50 50 52 50 50 52 50 50 52 50 50 52 50 50 52 50 50 52 50 50 52 50 50 52 50 50 52 50 50 52 50 50 52 50 50 52 50 50 52 50 50 52 50 50 52 50 50 52 50 50 52 50 50 52 50 50 52 50 50 52 50 50 52 50 50 52 50 50 52 50 50 52 50 50 52 50 50 52 50 50 52 50 50 52 50 50 52 50 50 52 50 50 52 50 50 52 50 50 52 50 50 52 50 50 52 50 50 52 50 50 52 50 50 52 50 50 52 50 50 52 50 50 52 50 50 52 50 50 52 50 50 52 50 50 52 50 50 52 50 50 52 50 50 52 50 50 52 50 50 52 50 50 52 50 50 52 50 50 52 50 50 52 50 50 52 50 50 52 50 50 52 50 50 52 50 50 52 50 50 52 50 50 52 50 50 52 50 50 52 50 50 52 50 50 52 50 50 52 50 50 52 50 50 52 50 50 52 50 50 52 50 50 52 50 50 52 50 50 52 50 50 52 50 50 52 50 50 52 50 50 52 50 50 52 50 50 52 50 50 52 50 50 52 50 50 52 50 50 52 50 50 52 50 50 52 50 50 52 50 50 52 50 50 52 50 50 52 50 50 52 50 50 52 50 50 52 50 50 52 50 50 52 50 50 52 50 50 52 50 50 52 50 50 52 50 50 52 50 50 52 50 50 52 50 50 52 50 50 52 50 50 52 50 50 52 50 50 52 50 50 52 50 50 52 50 50 52 50 50 52 50 50 52 50 50 52 50 50 52 50 50 52 50 50 52 50 50 52 50 50 52 50 50 52 50 50 52 50 50 52 50 50 52 50 50 52 50 50 52 50 50 52 50 50 52 50 50 52 50 50 52 50 50 52 50 50 52 50 50 52 50 50 52 50 50 52 50 50 52 50 50 52 50 50 52 50 50 52 50 50 52 50 50 52 50 50 52 50 50 52 50 50 52 50 50 52 50 50 52 50 50 52 50 50 52 50 50 52 50 50 52 50 50 52 50 50 52 50 50 52 50 50 52 50 50 52 50 50 52 50 50 52 50 50 52 50 50 52 50 50 52 50 50 52 50 50 52 50 50 52 50 50 52 50 50 52 50 50 52 50 50 52 50 50 52 50 50 52 50 50 52 50 50 52 50 50 52 50 50 52 50 50 52 50 50 52 50 50 52 50 50 52 50 50 52 50 50 52 50 50 52 50 50 52 50 50 52 50 50 52 50 50 52 50 50 52 50 50 52 50 50 52 50 50 52 50 50 52 50 50 52 50 50 52 50 50
52 50 50 52 50 50 52 50 50 52 50 50 52 50 50 52 50 50 52 50 50 52 50 50 52 50 50 52 50 50 52 50 50 52 50 50 52 50 50 52 50 50 52 50 50 52 50 50 52 50 50 52 50 50 52 50 50 52 50 50 52 50 50 52 50 50 52 50 50 52 50 50 52 50 50 52 50 50 52 50 50 52 50 50 52 50 50 52 50 50 52 50 50 52 50 50 52 50 50 52 50 50 52 50 50 52 50 50 52 50 50 52 50 50 52 50 50 52 50 50 52 50 50 52 50 50 52 50 50 52 50 50 52 50 50 52 50 50 52 50 50 52 50 50 52 50 50 52 50 50 52 50 50 52 50 50 52 50 50 52 50 50 52 50 50 52 50 50 52 50 50 52 50 50 52 50 50 52 50 50 52 50 50 52 50 50 52 50 50 52 50 50 52 50 50 52 50 50 52 50 50 52 50 50 52 50 50 52 50 50 52 50 50 52 50 50 52 50 50 52 50 50 52 50 50 52 50 50 52 50 50 52 50 50 52 50 50 52 50 50 52 50 50 52 50 50 52 50 50 52 50 50 52 50 50 52 50 50 52 50 50 52 50 50 52 50 50 52 50 50 52 50 50 52 50 50 52 50 50 52 50 50 52 50 50 52 50 50 52 50 50 52 50 50 52 50 50 52 50 50 52 50 50 52 50 50 52 50 50 52 50 50 52 50 50 52 50 50 52 50 50 52 50 50 52 50 50 52 50 50 52 50 50 52 50 50 52 50 50 52 50 50 52 50 50 52 50 50 52 50 50 52 50 50 52 50 50 52 50 50 52 50 50 52 50 50 52 50 50 52 50 50 52 50 50 52 50 50 52 50 50 52 50 50 52 50 50 52 50 50 52 50 50 52 50 50 52 50 50 52 50 50 52 50 50 52 50 50 52 50 50 52 50 50 52 50 50 52 50 50 52 50 50 52 50 50 52 50 50 52 50 50 52 50 50 52 50 50 52 50 50 52 50 50 52 50 50 52 50 50 52 50 50 52 50 50 52 50 50 52 50 50 52 50 50 52 50 50 52 50 50 52 50 50 52 50 50 52 50 50 52 50 50 52 50 50 52 50 50 52 50 50 52 50 50 52 50 50 52 50 50 52 50 50 52 50 50 52 50 50 52 50 50 52 50 50 52 50 50 52 50 50 52 50 50 52 50 50 52 50 50 52 50 50 52 50 50 52 50 50 52 50 50 52 50 50 52 50 50 52 50 50 52 50 50 52 50 50 52 50 50 52 50 50 52 50 50 52 50 50 52 50 50 52 50 50 52 50 50 52 50 50 52 50 50 52 50 50 52 50 50 52 50 50 52 50 50 52 50 50 52 50 50 52 50 50 52 50 50 52 50 50 52 50 50 52 50 50 52 50 50 52 50 50 52 50 50 52 50 50 52 50 50 52 50 50 52 50 50 52 50 50 52 50 50 52 50 50 52 50 50 52 50 50 52 50 50 52 50 50 52 50 50 52 50 50 52 50 50 52 50 50 52 50 50 52 50 50 52 50 50 52 50 50 52 50 50 52 50 50 52 50 50 52 50 50 52 50 50 52 50 50 52 50 50 52 50 50 52 50 50 52 50 50 52 50 50 52 50 50 52 50 50 52 50 50 52 50 50 52 50 50 52 50 50 52 50 50 52 50 50 52 50 50 52 50 50 52 50 50 52 50 50 52 50 50 52 50 50 52 50 50 52 50 50 52 50 50 52 50 50 52 50 50 52 50 50 52 50 50 52 50 50 52 50 50 52 50 50 52 50 50 52 50 50 52 50 50 52 50 50 52 50 50 52 50 50 52 50 50 52 50 50 52 50 50 52 50 50 52 50 50 52 50 50 52 50 50 52 50 50 52 50 50 52 50 50 52 50 50 52 50 50 52 50 50 52 50 50 52 50 50 52 50 50 52 50 50 52 50 50 52 50 50 52 50 50 52 50 50 52 50 50 52 50 50 52 50 50 52 50 50 52 50 50 52 50 50 52 50 50 52 50 50 52 50 50 52 50 50
52 50 50 52 50 50 52 50 50 52 50 50 52 50 50 52 50 50 52 50 50 52 50 50 52 50 50 52 50 50 52 50 50 52 50 50 52 50 50 52 50 50 52 50 50 52 50 50 52 50 50 52 50 50 52 50 50 52 50 50 52 50 50 52 50 50 52 50 50 52 50 50 52 50 50 52 50 50 52 50 50 52 50 50 52 50 50 52 50 50 52 50 50 52 50 50 52 50 50 52 50 50 52 50 50 52 50 50 52 50 50 52 50 50 52 50 50 52 50 50 52 50 50 52 50 50 52 50 50 52 50 50 52 50 50 52 50 50 52 50 50 52 50 50 52 50 50 52 50 50 52 50 50 52 50 50 52 50 50 52 50 50 52 50 50 52 50 50 52 50 50 52 50 50 52 50 50 52 50 50 52 50 50 52 50 50 52 50 50 52 50 50 52 50 50 52 50 50 52 50 50 52 50 50 52 50 50 52 50 50 52 50 50 52 50 50 52 50 50 52 50 50 52 50 50 52 50 50 52 50 50 52 50 50 52 50 50 52 50 50 52 50 50 52 50 50 52 50 50 52 50 50 52 50 50 52 50 50 52 50 50 52 50 50 52 50 50 52 50 50 52 50 50 52 50 50 52 50 50 52 50 50 52 50 50 52 50 50 52 50 50 52 50 50 52 50 50 52 50 50 52 50 50 52 50 50 52 50 50 52 50 50 52 50 50 52 50 50 52 50 50 52 50 50 52 50 50 52 50 50 52 50 50 52 50 50 52 50 50 52 50 50 52 50 50 52 50 50 52 50 50 52 50 50 52 50 50 52 50 50 52 50 50 52 50 50 52 50 50 52 50 50 52 50 50 52 50 50 52 50 50 52 50 50 52 50 50 52 50 50 52 50 50 52 50 50 52 50 50 52 50 50 52 50 50 52 50 50 52 50 50 52 50 50 52 50 50 52 50 50 52 50 50 52 50 50 52 50 50 52 50 50 52 50 50 52 50 50 52 50 50 52 50 50 52 50 50 52 50 50 52 50 50 52 50 50 52 50 50 52 50 50 52 50 50 52 50 50 52 50 50 52 50 50 52 50 50 52 50 50 52 50 50 52 50 50 52 50 50 52 50 50 52 50 50 52 50 50 52 50 50 52 50 50 52 50 50 52 50 50 52 50 50 52 50 50 52 50 50 52 50 50 52 50 50 52 50 50 52 50 50 52 50 50 52 50 50 52 50 50 52 50 50 52 50 50 52 50 50 52 50 50 52 50 50 52 50 50 52 50 50 52 50 50 52 50 50 52 50 50 52 50 50 52 50 50 52 50 50 52 50 50 52 50 50 52 50 50 52 50 50 52 50 50 52 50 50 52 50 50 52 50 50 52 50 50 52 50 50 52 50 50 52 50 50 52 50 50 52 50 50 52 50 50 52 50 50 52 50 50 52 50 50 52 50 50 52 50 50 52 50 50 52 50 50 52 50 50 52 50 50 52 50 50 52 50 50 52 50 50 52 50 50 52 50 50 52 50 50 52 50 50 52 50 50 52 50 50 52 50 50 52 50 50 52 50 50 52 50 50 52 50 50 52 50 50 52 50 50 52 50 50 52 50 50 52 50 50 52 50 50 52 50 50 52 50 50 52 50 50 52 50 50 52 50 50 52 50 50 52 50 50 52 50 50 52 50 50 52 50 50 52 50 50 52 50 50 52 50 50 52 50 50 52 50 50 52 50 50 52 50 50 52 50 50 52 50 50 52 50 50 52 50 50 52 50 50 52 50 50 52 50 50 52 50 50 52 50 50 52 50 50 52 50 50 52 50 50 52 50 50 52 50 50 52 50 50 52 50 50 52 50 50 52 50 50 52 50 50 52 50 50 52 50 50 52 50 50 52 50 50 52 50 50 52 50 50 52 50 50 52 50 50 52 50 50 52 50 50 52 50 50 52 50 50 52 50 50 52 50 50 52 50 50 52 50 50 52 50 50 52 50 50 52 50 50 52 50 50 52 50 50 52 50 50 52 50 50 52 50 50 52 50 50 52 50 50 52 50 50
52 50 50 52 50 50 52 50 50 52 50 50 52 50 50 52 50 50 52 50 50 52 50 50 52 50 50 52 50 50 52 50 50 52 50 50 52 50 50 52 50 50 52 50 50 52 50 50 52 50 50 52 50 50 52 50 50 52 50 50 52 50 50 52 50 50 52 50 50 52 50 50 52 50 50 52 50 50 52 50 50 52 50 50 52 50 50 52 50 50 52 50 50 52 50 50 52 50 50 52 50 50 52 50 50 52 50 50 52 50 50 52 50 50 52 50 50 52 50 50 52 50 50 52 50 50 52 50 50 52 50 50 52 50 50 52 50 50 52 50 50 52 50 50 52 50 50 52 50 50 52 50 50 52 50 50 52 50 50 52 50 50 52 50 50 52 50 50 52 50 50 52 50 50 52 50 50 52 50 50 52 50 50 52 50 50 52 50 50 52 50 50 52 50 50 52 50 50 52 50 50 52 50 50 52 50 50 52 50 50 52 50 50 52 50 50 52 50 50 52 50 50 52 50 50 52 50 50 52 50 50 52 50 50 52 50 50 52 50 50 52 50 50 52 50 50 52 50 50 52 50 50 52 50 50 52 50 50 52 50 50 52 50 50 52 50 50 52 50 50 52 50 50 52 50 50 52 50 50 52 50 50 52 50 50 52 50 50 52 50 50 52 50 50 52 50 50 52 50 50 52 50 50 52 50 50 52 50 50 52 50 50 52 50 50 52 50 50 52 50 50 52 50 50 52 50 50 52 50 50 52 50 50 52 50 50 52 50 50 52 50 50 52 50 50 52 50 50 52 50 50 52 50 50 52 50 50 52 50 50 52 50 50 52 50 50 52 50 50 52 50 50 52 50 50 52 50 50 52 50 50 52 50 50 52 50 50 52 50 50 52 50 50 52 50 50 52 50 50 52 50 50 52 50 50 52 50 50 52 50 50 52 50 50 52 50 50 52 50 50 52 50 50 52 50 50 52 50 50 52 50 50 52 50 50 52 50 50 52 50 50 52 50 50 52 50 50 52 50 50 52 50 50 52 50 50 52 50 50 52 50 50 52 50 50 52 50 50 52 50 50 52 50 50 52 50 50 52 50 50 52 50 50 52 50 50 52 50 50 52 50 50 52 50 50 52 50 50 52 50 50 52 50 50 52 50 50 52 50 50 52 50 50 52 50 50 52 50 50 52 50 50 52 50 50 52 50 50 52 50 50 52 50 50 52 50 50 52 50 50 52 50 50 52 50 50 52 50 50 52 50 50 52 50 50 52 50 50 52 50 50 52 50 50 52 50 50 52 50 50 52 50 50 52 50 50 52 50 50 52 50 50 52 50 50 52 50 50 52 50 50 52 50 50 52 50 50 52 50 50 52 50 50 52 50 50 52 50 50 52 50 50 52 50 50 52 50 50 52 50 50 52 50 50 52 50 50 52 50 50 52 50 50 52 50 50 52 50 50 52 50 50 52 50 50 52 50 50 52 50 50 52 50 50 52 50 50 52 50 50 52 50 50 52 50 50 52 50 50 52 50 50 52 50 50 52 50 50 52 50 50 52 50 50 52 50 50 52 50 50 52 50 50 52 50 50 52 50 50 52 50 50 52 50 50 52 50 50 52 50 50 52 50 50 52 50 50 52 50 50 52 50 50 52 50 50 52 50 50 52 50 50 52 50 50 52 50 50 52 50 50 52 50 50 52 50 50 52 50 50 52 50 50 52 50 50 52 50 50 52 50 50 52 50 50 52 50 50 52 50 50 52 50 50 52 50 50 52 50 50 52 50 50 52 50 50 52 50 50 52 50 50 52 50 50 52 50 50 52 50 50 52 50 50 52 50 50 52 50 50 52 50 50 52 50 50 52 50 50 52 50 50 52 50 50 52 50 50 52 50 50 52 50 50 52 50 50 52 50 50 52 50 50 52 50 50 52 50 50 52 50 50 52 50 50 52 50 50 52 50 50 52 50 50 52 50 50 52 50 50 52 50 50 52 50 50 52 50 50 52 50 50 52 50 50 52 50 50 52 50 50 52 50 50 52 50 50 52 50 50
52 50 50 52 50 50 52 50 50 52 50 50 52 50 50 52 50 50 52 50 50 52 50 50 52 50 50 52 50 50 52 50 50 52 50 50 52 50 50 52 50 50 52 50 50 52 50 50 52 50 50 52 50 50 52 50 50 52 50 50 52 50 50 52 50 50 52 50 50 52 50 50 52 50 50 52 50 50 52 50 50 52 50 50 52 50 50 52 50 50 52 50 50 52 50 50 52 50 50 52 50 50 52 50 50 52 50 50 52 50 50 52 50 50 52 50 50 52 50 50 52 50 50 52 50 50 52 50 50 52 50 50 52 50 50 52 50 50 52 50 50 52 50 50 52 50 50 52 50 50 52 50 50 52 50 50 52 50 50 52 50 50 52 50 50 52 50 50 52 50 50 52 50 50 52 50 50 52 50 50 52 50 50 52 50 50 52 50 50 52 50 50 52 50 50 52 50 50 52 50 50 52 50 50 52 50 50 52 50 50 52 50 50 52 50 50 52 50 50 52 50 50 52 50 50 52 50 50 52 50 50 52 50 50 52 50 50 52 50 50 52 50 50 52 50 50 52 50 50 52 50 50 52 50 50 52 50 50 52 50 50 52 50 50 52 50 50 52 50 50 52 50 50 52 50 50 52 50 50 52 50 50 52 50 50 52 50 50 52 50 50 52 50 50 52 50 50 52 50 50 52 50 50 52 50 50 52 50 50 52 50 50 52 50 50 52 50 50 52 50 50 52 50 50 52 50 50 52 50 50 52 50 50 52 50 50 52 50 50 52 50 50 52 50 50 52 50 50 52 50 50 52 50 50 52 50 50 52 50 50 52 50 50 52 50 50 52 50 50 52 50 50 52 50 50 52 50 50 52 50 50 52 50 50 52 50 50 52 50 50 52 50 50 52 50 50 52 50 50 52 50 50 52 50 50 52 50 50 52 50 50 52 50 50 52 50 50 52 50 50 52 50 50 52 50 50 52 50 50 52 50 50 52 50 50 52 50 50 52 50 50 52 50 50 52 50 50 52 50 50 52 50 50 52 50 50 52 50 50 52 50 50 52 50 50 52 50 50 52 50 50 52 50 50 52 50 50 52 50 50 52 50 50 52 50 50 52 50 50 52 50 50 52 50 50 52 50 50 52 50 50 52 50 50 52 50 50 52 50 50 52 50 50 52 50 50 52 50 50 52 50 50 52 50 50 52 50 50 52 50 50 52 50 50 52 50 50 52 50 50 52 50 50 52 50 50 52 50 50 52 50 50 52 50 50 52 50 50 52 50 50 52 50 50 52 50 50 52 50 50 52 50 50 52 50 50 52 50 50 52 50 50 52 50 50 52 50 50 52 50 50 52 50 50 52 50 50 52 50 50 52 50 50 52 50 50 52 50 50 52 50 50 52 50 50 52 50 50 52 50 50 52 50 50 52 50 50 52 50 50 52 50 50 52 50 50 52 50 50 52 50 50 52 50 50 52 50 50 52 50 50 52 50 50 52 50 50 52 50 50 52 50 50 52 50 50 52 50 50 52 50 50 52 50 50 52 50 50 52 50 50 52 50 50 52 50 50 52 50 50 52 50 50 52 50 50 52 50 50 52 50 50 52 50 50 52 50 50 52 50 50 52 50 50 52 50 50 52 50 50 52 50 50 52 50 50 52 50 50 52 50 50 52 50 50 52 50 50 52 50 50 52 50 50 52 50 50 52 50 50 52 50 50 52 50 50 52 50 50 52 50 50 52 50 50 52 50 50 52 50 50 52 50 50 52 50 50 52 50 50 52 50 50 52 50 50 52 50 50 52 50 50 52 50 50 52 50 50 52 50 50 52 50 50 52 50 50 52 50 50 52 50 50 52 50 50 52 50 50 52 50 50 52 50 50 52 50 50 52 50 50 52 50 50 52 50 50 52 50 50 52 50 50 52 50 50 52 50 50 52 50 50 52 50 50 52 50 50 52 50 50 52 50 50 52 50 50 52 50 50 52 50 50 52 50 50 52 50 50 52 50 50 52 50 50 52 50 50 52 50 50 52 50 50 52 50 50 52 50 50
52 50 50 52 50 50 52 50 50 52 50 50 52 50 50 52 50 50 52 50 50 52 50 50 52 50 50 52 50 50 52 50 50 52 50 50 52 50 50 52 50 50 52 50 50 52 50 50 52 50 50 52 50 50 52 50 50 52 50 50 52 50 50 52 50 50 52 50 50 52 50 50 52 50 50 52 50 50 52 50 50 52 50 50 52 50 50 52 50 50 52 50 50 52 50 50 52 50 50 52 50 50 52 50 50 52 50 50 52 50 50 52 50 50 52 50 50 52 50 50 52 50 50 52 50 50 52 50 50 52 50 50 52 50 50 52 50 50 52 50 50 52 50 50 52 50 50 52 50 50 52 50 50 52 50 50 52 50 50 52 50 50 52 50 50 52 50 50 52 50 50 52 50 50 52 50 50 52 50 50 52 50 50 52 50 50 52 50 50 52 50 50 52 50 50 52 50 50 52 50 50 52 50 50 52 50 50 52 50 50 52 50 50 52 50 50 52 50 50 52 50 50 52 50 50 52 50 50 52 50 50 52 50 50 52 50 50 52 50 50 52 50 50 52 50 50 52 50 50 52 50 50 52 50 50 52 50 50 52 50 50 52 50 50 52 50 50 52 50 50 52 50 50 52 50 50 52 50 50 52 50 50 52 50 50 52 50 50 52 50 50 52 50 50 52 50 50 52 50 50 52 50 50 52 50 50 52 50 50 52 50 50 52 50 50 52 50 50 52 50 50 52 50 50 52 50 50 52 50 50 52 50 50 52 50 50 52 50 50 52 50 50 52 50 50 52 50 50 52 50 50 52 50 50 52 50 50 52 50 50 52 50 50 52 50 50 52 50 50 52 50 50 52 50 50 52 50 50 52 50 50 52 50 50 52 50 50 52 50 50 52 50 50 52 50 50 52 50 50 52 50 50 52 50 50 52 50 50 52 50 50 52 50 50 52 50 50 52 50 50 52 50 50 52 50 50 52 50 50 52 50 50 52 50 50 52 50 50 52 50 50 52 50 50 52 50 50 52 50 50 52 50 50 52 50 50 52 50 50 52 50 50 52 50 50 52 50 50 52 50 50 52 50 50 52 50 50 52 50 50 52 50 50 52 50 50 52 50 50 52 50 50 52 50 50 52 50 50 52 50 50 52 50 50 52 50 50 52 50 50 52 50 50 52 50 50 52 50 50 52 50 50 52 50 50 52 50 50 52 50 50 52 50 50 52 50 50 52 50 50 52 50 50 52 50 50 52 50 50 52 50 50 52 50 50 52 50 50 52 50 50 52 50 50 52 50 50 52 50 50 52 50 50 52 50 50 52 50 50 52 50 50 52 50 50 52 50 50 52 50 50 52 50 50 52 50 50 52 50 50 52 50 50 52 50 50 52 50 50 52 50 50 52 50 50 52 50 50 52 50 50 52 50 50 52 50 50 52 50 50 52 50 50 52 50 50 52 50 50 52 50 50 52 50 50 52 50 50 52 50 50 52 50 50 52 50 50 52 50 50 52 50 50 52 50 50 52 50 50 52 50 50 52 50 50 52 50 50 52 50 50 52 50 50 52 50 50 52 50 50 52 50 50 52 50 50 52 50 50 52 50 50 52 50 50 52 50 50 52 50 50 52 50 50 52 50 50 52 50 50 52 50 50 52 50 50 52 50 50 52 50 50 52 50 50 52 50 50 52 50 50 52 50 50 52 50 50 52 50 50 52 50 50 52 50 50 52 50 50 52 50 50 52 50 50 52 50 50 52 50 50 52 50 50 52 50 50 52 50 50 52 50 50 52 50 50 52 50 50 52 50 50 52 50 50 52 50 50 52 50 50 52 50 50 52 50 50 52 50 50 52 50 50 52 50 50 52 50 50 52 50 50 52 50 50 52 50 50 52 50 50 52 50 50 52 50 50 52 50 50 52 50 50 52 50 50 52 50 50 52 50 50 52 50 50 52 50 50 52 50 50 52 50 50 52 50 50 52 50 50 52 50 50 52 50 50 52 50 50 52 50 50 52 50 50 52 50 50 52 50 50 52 50 50 52 50 50 52 50 50
52 50 50 52 50 50 52 50 50 52 50 50 52 50 50 52 50 50 52 50 50 52 50 50 52 50 50 52 50 50 52 50 50 52 50 50 52 50 50 52 50 50 52 50 50 52 50 50 52 50 50 52 50 50 52 50 50 52 50 50 52 50 50 52 50 50 52 50 50 52 50 50 52 50 50 52 50 50 52 50 50 52 50 50 52 50 50 52 50 50 52 50 50 52 50 50 52 50 50 52 50 50 52 50 50 52 50 50 52 50 50 52 50 50 52 50 50 52 50 50 52 50 50 52 50 50 52 50 50 52 50 50 52 50 50 52 50 50 52 50 50 52 50 50 52 50 50 52 50 50 52 50 50 52 50 50 52 50 50 52 50 50 52 50 50 52 50 50 52 50 50 52 50 50 52 50 50 52 50 50 52 50 50 52 50 50 52 50 50 52 50 50 52 50 50 52 50 50 52 50 50 52 50 50 52 50 50 52 50 50 52 50 50 52 50 50 52 50 50 52 50 50 52 50 50 52 50 50 52 50 50 52 50 50 52 50 50 52 50 50 52 50 50 52 50 50 52 50 50 52 50 50 52 50 50 52 50 50 52 50 50 52 50 50 52 50 50 52 50 50 52 50 50 52 50 50 52 50 50 52 50 50 52 50 50 52 50 50 52 50 50 52 50 50 52 50 50 52 50 50 52 50 50 52 50 50 52 50 50 52 50 50 52 50 50 52 50 50 52 50 50 52 50 50 52 50 50 52 50 50 52 50 50 52 50 50 52 50 50 52 50 50 52 50 50 52 50 50 52 50 50 52 50 50 52 50 50 52 50 50 52 50 50 52 50 50 52 50 50 52 50 50 52 50 50 52 50 50 52 50 50 52 50 50 52 50 50 52 50 50 52 50 50 52 50 50 52 50 50 52 50 50 52 50 50 52 50 50 52 50 50 52 50 50 52 50 50 52 50 50 52 50 50 52 50 50 52 50 50 52 50 50 52 50 50 52 50 50 52 50 50 52 50 50 52 50 50 52 50 50 52 50 50 52 50 50 52 50 50 52 50 50 52 50 50 52 50 50 52 50 50 52 50 50 52 50 50 52 50 50 52 50 50 52 50 50 52 50 50 52 50 50 52 50 50 52 50 50 52 50 50 52 50 50 52 50 50 52 50 50 52 50 50 52 50 50 52 50 50 52 50 50 52 50 50 52 50 50 52 50 50 52 50 50 52 50 50 52 50 50 52 50 50 52 50 50 52 50 50 52 50 50 52 50 50 52 50 50 52 50 50 52 50 50 52 50 50 52 50 50 52 50 50 52 50 50 52 50 50 52 50 50 52 50 50 52 50 50 52 50 50 52 50 50 52 50 50 52 50 50 52 50 50 52 50 50 52 50 50 52 50 50 52 50 50 52 50 50 52 50 50 52 50 50 52 50 50 52 50 50 52 50 50 52 50 50 52 50 50 52 50 50 52 50 50 52 50 50 52 50 50 52 50 50 52 50 50 52 50 50 52 50 50 52 50 50 52 50 50 52 50 50 52 50 50 52 50 50 52 50 50 52 50 50 52 50 50 52 50 50 52 50 50 52 50 50 52 50 50 52 50 50 52 50 50 52 50 50 52 50 50 52 50 50 52 50 50 52 50 50 52 50 50 52 50 50 52 50 50 52 50 50 52 50 50 52 50 50 52 50 50 52 50 50 52 50 50 52 50 50 52 50 50 52 50 50 52 50 50 52 50 50 52 50 50 52 50 50 52 50 50 52 50 50 52 50 50 52 50 50 52 50 50 52 50 50 52 50 50 52 50 50 52 50 50 52 50 50 52 50 50 52 50 50 52 50 50 52 50 50 52 50 50 52 50 50 52 50 50 52 50 50 52 50 50 52 50 50 52 50 50 52 50 50 52 50 50 52 50 50 52 50 50 52 50 50 52 50 50 52 50 50 52 50 50 52 50 50 52 50 50 52 50 50 52 50 50 52 50 50 52 50 50 52 50 50 52 50 50 52 50 50 52 50 50 52 50 50 52 50 50 52 50 50 52 50 50 52 50 50
52 50 50 52 50 50 52 50 50 52 50 50 52 50 50 52 50 50 52 50 50 52 50 50 52 50 50 52 50 50 52 50 50 52 50 50 52 50 50 52 50 50 52 50 50 52 50 50 52 50 50 52 50 50 52 50 50 52 50 50 52 50 50 52 50 50 52 50 50 52 50 50 52 50 50 52 50 50 52 50 50 52 50 50 52 50 50 52 50 50 52 50 50 52 50 50 52 50 50 52 50 50 52 50 50 52 50 50 52 50 50 52 50 50 52 50 50 52 50 50 52 50 50 52 50 50 52 50 50 52 50 50 52 50 50 52 50 50 52 50 50 52 50 50 52 50 50 52 50 50 52 50 50 52 50 50 52 50 50 52 50 50 52 50 50 52 50 50 52 50 50 52 50 50 52 50 50 52 50 50 52 50 50 52 50 50 52 50 50 52 50 50 52 50 50 52 50 50 52 50 50 52 50 50 52 50 50 52 50 50 52 50 50 52 50 50 52 50 50 52 50 50 52 50 50 52 50 50 52 50 50 52 50 50 52 50 50 52 50 50 52 50 50 52 50 50 52 50 50 52 50 50 52 50 50 52 50 50 52 50 50 52 50 50 52 50 50 52 50 50 52 50 50 52 50 50 52 50 50 52 50 50 52 50 50 52 50 50 52 50 50 52 50 50 52 50 50 52 50 50 52 50 50 52 50 50 52 50 50 52 50 50 52 50 50 52 50 50 52 50 50 52 50 50 52 50 50 52 50 50 52 50 50 52 50 50 52 50 50 52 50 50 52 50 50 52 50 50 52 50 50 52 50 50 52 50 50 52 50 50 52 50 50 52 50 50 52 50 50 52 50 50 52 50 50 52 50 50 52 50 50 52 50 50 52 50 50 52 50 50 52 50 50 52 50 50 52 50 50 52 50 50 52 50 50 52 50 50 52 50 50 52 50 50 52 50 50 52 50 50 52 50 50 52 50 50 52 50 50 52 50 50 52 50 50 52 50 50 52 50 50 52 50 50 52 50 50 52 50 50 52 50 50 52 50 50 52 50 50 52 50 50 52 50 50 52 50 50 52 50 50 52 50 50 52 50 50 52 50 50 52 50 50 52 50 50 52 50 50 52 50 50 52 50 50 52 50 50 52 50 50 52 50 50 52 50 50 52 50 50 52 50 50 52 50 50 52 50 50 52 50 50 52 50 50 52 50 50 52 50 50 52 50 50 52 50 50 52 50 50 52 50 50 52 50 50 52 50 50 52 50 50 52 50 50 52 50 50 52 50 50 52 50 50 52 50 50 52 50 50 52 50 50 52 50 50 52 50 50 52 50 50 52 50 50 52 50 50 52 50 50 52 50 50 52 50 50 52 50 50 52 50 50 52 50 50 52 50 50 52 50 50 52 50 50 52 50 50 52 50 50 52 50 50 52 50 50 52 50 50 52 50 50 52 50 50 52 50 50 52 50 50 52 50 50 52 50 50 52 50 50 52 50 50 52 50 50 52 50 50 52 50 50 52 50 50 52 50 50 52 50 50 52 50 50 52 50 50 52 50 50 52 50 50 52 50 50 52 50 50 52 50 50 52 50 50 52 50 50 52 50 50 52 50 50 52 50 50 52 50 50 52 50 50 52 50 50 52 50 50 52 50 50 52 50 50 52 50 50 52 50 50 52 50 50 52 50 50 52 50 50 52 50 50 52 50 50 52 50 50 52 50 50 52 50 50 52 50 50 52 50 50 52 50 50 52 50 50 52 50 50 52 50 50 52 50 50 52 50 50 52 50 50 52 50 50 52 50 50 52 50 50 52 50 50 52 50 50 52 50 50 52 50 50 52 50 50 52 50 50 52 50 50 52 50 50 52 50 50 52 50 50 52 50 50 52 50 50 52 50 50 52 50 50 52 50 50 52 50 50 52 50 50 52 50 50 52 50 50 52 50 50 52 50 50 52 50 50 52 50 50 52 50 50 52 50 50 52 50 50 52 50 50 52 50 50 52 50 50 52 50 50 52 50 50 52 50 50 52 50 50 52 50 50 52 50 50 52 50 50
52 50 50 52 50 50 52 50 50 52 50 50 52 50 50 52 50 50 52 50 50 52 50 50 52 50 50 52 50 50 52 50 50 52 50 50 52 50 50 52 50 50 52 50 50 52 50 50 52 50 50 52 50 50 52 50 50 52 50 50 52 50 50 52 50 50 52 50 50 52 50 50 52 50 50 52 50 50 52 50 50 52 50 50 52 50 50 52 50 50 52 50 50 52 50 50 52 50 50 52 50 50 52 50 50 52 50 50 52 50 50 52 50 50 52 50 50 52 50 50 52 50 50 52 50 50 52 50 50 52 50 50 52 50 50 52 50 50 52 50 50 52 50 50 52 50 50 52 50 50 52 50 50 52 50 50 52 50 50 52 50 50 52 50 50 52 50 50 52 50 50 52 50 50 52 50 50 52 50 50 52 50 50 52 50 50 52 50 50 52 50 50 52 50 50 52 50 50 52 50 50 52 50 50 52 50 50 52 50 50 52 50 50 52 50 50 52 50 50 52 50 50 52 50 50 52 50 50 52 50 50 52 50 50 52 50 50 52 50 50 52 50 50 52 50 50 52 50 50 52 50 50 52 50 50 52 50 50 52 50 50 52 50 50 52 50 50 52 50 50 52 50 50 52 50 50 52 50 50 52 50 50 52 50 50 52 50 50 52 50 50 52 50 50 52 50 50 52 50 50 52 50 50 52 50 50 52 50 50 52 50 50 52 50 50 52 50 50 52 50 50 52 50 50 52 50 50 52 50 50 52 50 50 52 50 50 52 50 50 52 50 50 52 50 50 52 50 50 52 50 50 52 50 50 52 50 50 52 50 50 52 50 50 52 50 50 52 50 50 52 50 50 52 50 50 52 50 50 52 50 50 52 50 50 52 50 50 52 50 50 52 50 50 52 50 50 52 50 50 52 50 50 52 50 50 52 50 50 52 50 50 52 50 50 52 50 50 52 50 50 52 50 50 52 50 50 52 50 50 52 50 50 52 50 50 52 50 50 52 50 50 52 50 50 52 50 50 52 50 50 52 50 50 52 50 50 52 50 50 52 50 50 52 50 50 52 50 50 52 50 50 52 50 50 52 50 50 52 50 50 52 50 50 52 50 50 52 50 50 52 50 50 52 50 50 52 50 50 52 50 50 52 50 50 52 50 50 52 50 50 52 50 50 52 50 50 52 50 50 52 50 50 52 50 50 52 50 50 52 50 50 52 50 50 52 50 50 52 50 50 52 50 50 52 50 50 52 50 50 52 50 50 52 50 50 52 50 50 52 50 50 52 50 50 52 50 50 52 50 50 52 50 50 52 50 50 52 50 50 52 50 50 52 50 50 52 50 50 52 50 50 52 50 50 52 50 50 52 50 50 52 50 50 52 50 50 52 50 50 52 50 50 52 50 50 52 50 50 52 50 50 52 50 50 52 50 50 52 50 50 52 50 50 52 50 50 52 50 50 52 50 50 52 50 50 52 50 50 52 50 50 52 50 50 52 50 50 52 50 50 52 50 50 52 50 50 52 50 50 52 50 50 52 50 50 52 50 50 52 50 50 52 50 50 52 50 50 52 50 50 52 50 50 52 50 50 52 50 50 52 50 50 52 50 50 52 50 50 52 50 50 52 50 50 52 50 50 52 50 50 52 50 50 52 50 50 52 50 50 52 50 50 52 50 50 52 50 50 52 50 50 52 50 50 52 50 50 52 50 50 52 50 50 52 50 50 52 50 50 52 50 50 52 50 50 52 50 50 52 50 50 52 50 50 52 50 50 52 50 50 52 50 50 52 50 50 52 50 50 52 50 50 52 50 50 52 50 50 52 50 50 52 50 50 52 50 50 52 50 50 52 50 50 52 50 50 52 50 50 52 50 50 52 50 50 52 50 50 52 50 50 52 50 50 52 50 50 52 50 50 52 50 50 52 50 50 52 50 50 52 50 50 52 50 50 52 50 50 52 50 50 52 50 50 52 50 50 52 50 50 52 50 50 52 50 50 52 50 50 52 50 50 52 50 50 52 50 50 52 50 50 52 50 50 52 50 50 52 50 50
52 50 50 52 50 50 52 50 50 52 50 50 52 50 50 52 50 50 52 50 50 52 50 50 52 50 50 52 50 50 52 50 50 52 50 50 52 50 50 52 50 50 52 50 50 52 50 50 52 50 50 52 50 50 52 50 50 52 50 50 52 50 50 52 50 50 52 50 50 52 50 50 52 50 50 52 50 50 52 50 50 52 50 50 52 50 50 52 50 50 52 50 50 52 50 50 52 50 50 52 50 50 52 50 50 52 50 50 52 50 50 52 50 50 52 50 50 52 50 50 52 50 50 52 50 50 52 50 50 52 50 50 52 50 50 52 50 50 52 50 50 52 50 50 52 50 50 52 50 50 52 50 50 52 50 50 52 50 50 52 50 50 52 50 50 52 50 50 52 50 50 52 50 50 52 50 50 52 50 50 52 50 50 52 50 50 52 50 50 52 50 50 52 50 50 52 50 50 52 50 50 52 50 50 52 50 50 52 50 50 52 50 50 52 50 50 52 50 50 52 50 50 52 50 50 52 50 50 52 50 50 52 50 50 52 50 50 52 50 50 52 50 50 52 50 50 52 50 50 52 50 50 52 50 50 52 50 50 52 50 50 52 50 50 52 50 50 52 50 50 52 50 50 52 50 50 52 50 50 52 50 50 52 50 50 52 50 50 52 50 50 52 50 50 52 50 50 52 50 50 52 50 50 52 50 50 52 50 50 52 50 50 52 50 50 52 50 50 52 50 50 52 50 50 52 50 50 52 50 50 52 50 50 52 50 50 52 50 50 52 50 50 52 50 50 52 50 50 52 50 50 52 50 50 52 50 50 52 50 50 52 50 50 52 50 50 52 50 50 52 50 50 52 50 50 52 50 50 52 50 50 52 50 50 52 50 50 52 50 50 52 50 50 52 50 50 52 50 50 52 50 50 52 50 50 52 50 50 52 50 50 52 50 50 52 50 50 52 50 50 52 50 50 52 50 50 52 50 50 52 50 50 52 50 50 52 50 50 52 50 50 52 50 50 52 50 50 52 50 50 52 50 50 52 50 50 52 50 50 52 50 50 52 50 50 52 50 50 52 50 50 52 50 50 52 50 50 52 50 50 52 50 50 52 50 50 52 50 50 52 50 50 52 50 50 52 50 50 52 50 50 52 50 50 52 50 50 52 50 50 52 50 50 52 50 50 52 50 50 52 50 50 52 50 50 52 50 50 52 50 50 52 50 50 52 50 50 52 50 50 52 50 50 52 50 50 52 50 50 52 50 50 52 50 50 52 50 50 52 50 50 52 50 50 52 50 50 52 50 50 52 50 50 52 50 50 52 50 50 52 50 50 52 50 50 52 50 50 52 50 50 52 50 50 52 50 50 52 50 50 52 50 50 52 50 50 52 50 50 52 50 50 52 50 50 52 50 50 52 50 50 52 50 50 52 50 50 52 50 50 52 50 50 52 50 50 52 50 50 52 50 50 52 50 50 52 50 50 52 50 50 52 50 50 52 50 50 52 50 50 52 50 50 52 50 50 52 50 50 52 50 50 52 50 50 52 50 50 52 50 50 52 50 50 52 50 50 52 50 50 52 50 50 52 50 50 52 50 50 52 50 50 52 50 50 52 50 50 52 50 50 52 50 50 52 50 50 52 50 50 52 50 50 52 50 50 52 50 50 52 50 50 52 50 50 52 50 50 52 50 50 52 50 50 52 50 50 52 50 50 52 50 50 52 50 50 52 50 50 52 50 50 52 50 50 52 50 50 52 50 50 52 50 50 52 50 50 52 50 50 52 50 50 52 50 50 52 50 50 52 50 50 52 50 50 52 50 50 52 50 50 52 50 50 52 50 50 52 50 50 52 50 50 52 50 50 52 50 50 52 50 50 52 50 50 52 50 50 52 50 50 52 50 50 52 50 50 52 50 50 52 50 50 52 50 50 52 50 50 52 50 50 52 50 50 52 50 50 52 50 50 52 50 50 52 50 50 52 50 50 52 50 50 52 50 50 52 50 50 52 50 50 52 50 50 52 50 50 52 50 50 52 50 50 52 50 50 52 50 50
52 50 50 52 50 50 52 50 50 52 50 50 52 50 50 52 50 50 52 50 50 52 50 50 52 50 50 52 50 50 52 50 50 52 50 50 52 50 50 52 50 50 52 50 50 52 50 50 52 50 50 52 50 50 52 50 50 52 50 50 52 50 50 52 50 50 52 50 50 52 50 50 52 50 50 52 50 50 52 50 50 52 50 50 52 50 50 52 50 50 52 50 50 52 50 50 52 50 50 52 50 50 52 50 50 52 50 50 52 50 50 52 50 50 52 50 50 52 50 50 52 50 50 52 50 50 52 50 50 52 50 50 52 50 50 52 50 50 52 50 50 52 50 50 52 50 50 52 50 50 52 50 50 52 50 50 52 50 50 52 50 50 52 50 50 52 50 50 52 50 50 52 50 50 52 50 50 52 50 50 52 50 50 52 50 50 52 50 50 52 50 50 52 50 50 52 50 50 52 50 50 52 50 50 52 50 50 52 50 50 52 50 50 52 50 50 52 50 50 52 50 50 52 50 50 52 50 50 52 50 50 52 50 50 52 50 50 52 50 50 52 50 50 52 50 50 52 50 50 52 50 50 52 50 50 52 50 50 52 50 50 52 50 50 52 50 50 52 50 50 52 50 50 52 50 50 52 50 50 52 50 50 52 50 50 52 50 50 52 50 50 52 50 50 52 50 50 52 50 50 52 50 50 52 50 50 52 50 50 52 50 50 52 50 50 52 50 50 52 50 50 52 50 50 52 50 50 52 50 50 52 50 50 52 50 50 52 50 50 52 50 50 52 50 50 52 50 50 52 50 50 52 50 50 52 50 50 52 50 50 52 50 50 52 50 50 52 50 50 52 50 50 52 50 50 52 50 50 52 50 50 52 50 50 52 50 50 52 50 50 52 50 50 52 50 50 52 50 50 52 50 50 52 50 50 52 50 50 52 50 50 52 50 50 52 50 50 52 50 50 52 50 50 52 50 50 52 50 50 52 50 50 52 50 50 52 50 50 52 50 50 52 50 50 52 50 50 52 50 50 52 50 50 52 50 50 52 50 50 52 50 50 52 50 50 52 50 50 52 50 50 52 50 50 52 50 50 52 50 50 52 50 50 52 50 50 52 50 50 52 50 50 52 50 50 52 50 50 52 50 50 52 50 50 52 50 50 52 50 50 52 50 50 52 50 50 52 50 50 52 50 50 52 50 50 52 50 50 52 50 50 52 50 50 52 50 50 52 50 50 52 50 50 52 50 50 52 50 50 52 50 50 52 50 50 52 50 50 52 50 50 52 50 50 52 50 50 52 50 50 52 50 50 52 50 50 52 50 50 52 50 50 52 50 50 52 50 50 52 50 50 52 50 50 52 50 50 52 50 50 52 50 50 52 50 50 52 50 50 52 50 50 52 50 50 52 50 50 52 50 50 52 50 50 52 50 50 52 50 50 52 50 50 52 50 50 52 50 50 52 50 50 52 50 50 52 50 50 52 50 50 52 50 50 52 50 50 52 50 50 52 50 50 52 50 50 52 50 50 52 50 50 52 50 50 52 50 50 52 50 50 52 50 50 52 50 50 52 50 50 52 50 50 52 50 50 52 50 50 52 50 50 52 50 50 52 50 50 52 50 50 52 50 50 52 50 50 52 50 50 52 50 50 52 50 50 52 50 50 52 50 50 52 50 50 52 50 50 52 50 50 52 50 50 52 50 50 52 50 50 52 50 50 52 50 50 52 50 50 52 50 50 52 50 50 52 50 50 52 50 50 52 50 50 52 50 50 52 50 50 52 50 50 52 50 50 52 50 50 52 50 50 52 50 50 52 50 50 52 50 50 52 50 50 52 50 50 52 50 50 52 50 50 52 50 50 52 50 50 52 50 50 52 50 50 52 50 50 52 50 50 52 50 50 52 50 50 52 50 50 52 50 50 52 50 50 52 50 50 52 50 50 52 50 50 52 50 50 52 50 50 52 50 50 52 50 50 52 50 50 52 50 50 52 50 50 52 50 50 52 50 50 52 50 50 52 50 50 52 50 50 52 50 50 52 50 50 52 50 50
52 50 50 52 50 50 52 50 50 52 50 50 52 50 50 52 50 50 52 50 50 52 50 50 52 50 50 52 50 50 52 50 50 52 50 50 52 50 50 52 50 50 52 50 50 52 50 50 52 50 50 52 50 50 52 50 50 52 50 50 52 50 50 52 50 50 52 50 50 52 50 50 52 50 50 52 50 50 52 50 50 52 50 50 52 50 50 52 50 50 52 50 50 52 50 50 52 50 50 52 50 50 52 50 50 52 50 50 52 50 50 52 50 50 52 50 50 52 50 50 52 50 50 52 50 50 52 50 50 52 50 50 52 50 50 52 50 50 52 50 50 52 50 50 52 50 50 52 50 50 52 50 50 52 50 50 52 50 50 52 50 50 52 50 50 52 50 50 52 50 50 52 50 50 52 50 50 52 50 50 52 50 50 52 50 50 52 50 50 52 50 50 52 50 50 52 50 50 52 50 50 52 50 50 52 50 50 52 50 50 52 50 50 52 50 50 52 50 50 52 50 50 52 50 50 52 50 50 52 50 50 52 50 50 52 50 50 52 50 50 52 50 50 52 50 50 52 50 50 52 50 50 52 50 50 52 50 50 52 50 50 52 50 50 52 50 50 52 50 50 52 50 50 52 50 50 52 50 50 52 50 50 52 50 50 52 50 50 52 50 50 52 50 50 52 50 50 52 50 50 52 50 50 52 50 50 52 50 50 52 50 50 52 50 50 52 50 50 52 50 50 52 50 50 52 50 50 52 50 50 52 50 50 52 50 50 52 50 50 52 50 50 52 50 50 52 50 50 52 50 50 52 50 50 52 50 50 52 50 50 52 50 50 52 50 50 52 50 50 52 50 50 52 50 50 52 50 50 52 50 50 52 50 50 52 50 50 52 50 50 52 50 50 52 50 50 52 50 50 52 50 50 52 50 50 52 50 50 52 50 50 52 50 50 52 50 50 52 50 50 52 50 50 52 50 50 52 50 50 52 50 50 52 50 50 52 50 50 52 50 50 52 50 50 52 50 50 52 50 50 52 50 50 52 50 50 52 50 50 52 50 50 52 50 50 52 50 50 52 50 50 52 50 50 52 50 50 52 50 50 52 50 50 52 50 50 52 50 50 52 50 50 52 50 50 52 50 50 52 50 50 52 50 50 52 50 50 52 50 50 52 50 50 52 50 50 52 50 50 52 50 50 52 50 50 52 50 50 52 50 50 52 50 50 52 50 50 52 50 50 52 50 50 52 50 50 52 50 50 52 50 50 52 50 50 52 50 50 52 50 50 52 50 50 52 50 50 52 50 50 52 50 50 52 50 50 52 50 50 52 50 50 52 50 50 52 50 50 52 50 50 52 50 50 52 50 50 52 50 50 52 50 50 52 50 50 52 50 50 52 50 50 52 50 50 52 50 50 52 50 50 52 50 50 52 50 50 52 50 50 52 50 50 52 50 50 52 50 50 52 50 50 52 50 50 52 50 50 52 50 50 52 50 50 52 50 50 52 50 50 52 50 50 52 50 50 52 50 50 52 50 50 52 50 50 52 50 50 52 50 50 52 50 50 52 50 50 52 50 50 52 50 50 52 50 50 52 50 50 52 50 50 52 50 50 52 50 50 52 50 50 52 50 50 52 50 50 52 50 50 52 50 50 52 50 50 52 50 50 52 50 50 52 50 50 52 50 50 52 50 50 52 50 50 52 50 50 52 50 50 52 50 50 52 50 50 52 50 50 52 50 50 52 50 50 52 50 50 52 50 50 52 50 50 52 50 50 52 50 50 52 50 50 52 50 50 52 50 50 52 50 50 52 50 50 52 50 50 52 50 50 52 50 50 52 50 50 52 50 50 52 50 50 52 50 50 52 50 50 52 50 50 52 50 50 52 50 50 52 50 50 52 50 50 52 50 50 52 50 50 52 50 50 52 50 50 52 50 50 52 50 50 52 50 50 52 50 50 52 50 50 52 50 50 52 50 50 52 50 50 52 50 50 52 50 50 52 50 50 52 50 50 52 50 50 52 50 50 52 50 50 52 50 50 52 50 50 52 50 50
52 50 50 52 50 50 52 50 50 52 50 50 52 50 50 52 50 50 52 50 50 52 50 50 52 50 50 52 50 50 52 50 50 52 50 50 52 50 50 52 50 50 52 50 50 52 50 50 52 50 50 52 50 50 52 50 50 52 50 50 52 50 50 52 50 50 52 50 50 52 50 50 52 50 50 52 50 50 52 50 50 52 50 50 52 50 50 52 50 50 52 50 50 52 50 50 52 50 50 52 50 50 52 50 50 52 50 50 52 50 50 52 50 50 52 50 50 52 50 50 52 50 50 52 50 50 52 50 50 52 50 50 52 50 50 52 50 50 52 50 50 52 50 50 52 50 50 52 50 50 52 50 50 52 50 50 52 50 50 52 50 50 52 50 50 52 50 50 52 50 50 52 50 50 52 50 50 52 50 50 52 50 50 52 50 50 52 50 50 52 50 50 52 50 50 52 50 50 52 50 50 52 50 50 52 50 50 52 50 50 52 50 50 52 50 50 52 50 50 52 50 50 52 50 50 52 50 50 52 50 50 52 50 50 52 50 50 52 50 50 52 50 50 52 50 50 52 50 50 52 50 50 52 50 50 52 50 50 52 50 50 52 50 50 52 50 50 52 50 50 52 50 50 52 50 50 52 50 50 52 50 50 52 50 50 52 50 50 52 50 50 52 50 50 52 50 50 52 50 50 52 50 50 52 50 50 52 50 50 52 50 50 52 50 50 52 50 50 52 50 50 52 50 50 52 50 50 52 50 50 52 50 50 52 50 50 52 50 50 52 50 50 52 50 50 52 50 50 52 50 50 52 50 50 52 50 50 52 50 50 52 50 50 52 50 50 52 50 50 52 50 50 52 50 50 52 50 50 52 50 50 52 50 50 52 50 50 52 50 50 52 50 50 52 50 50 52 50 50 52 50 50 52 50 50 52 50 50 52 50 50 52 50 50 52 50 50 52 50 50 52 50 50 52 50 50 52 50 50 52 50 50 52 50 50 52 50 50 52 50 50 52 50 50 52 50 50 52 50 50 52 50 50 52 50 50 52 50 50 52 50 50 52 50 50 52 50 50 52 50 50 52 50 50 52 50 50 52 50 50 52 50 50 52 50 50 52 50 50 52 50 50 52 50 50 52 50 50 52 50 50 52 50 50 52 50 50 52 50 50 52 50 50 52 50 50 52 50 50 52 50 50 52 50 50 52 50 50 52 50 50 52 50 50 52 50 50 52 50 50 52 50 50 52 50 50 52 50 50 52 50 50 52 50 50 52 50 50 52 50 50 52 50 50 52 50 50 52 50 50 52 50 50 52 50 50 52 50 50 52 50 50 52 50 50 52 50 50 52 50 50 52 50 50 52 50 50 52 50 50 52 50 50 52 50 50 52 50 50 52 50 50 52 50 50 52 50 50 52 50 50 52 50 50 52 50 50 52 50 50 52 50 50 52 50 50 52 50 50 52 50 50 52 50 50 52 50 50 52 50 50 52 50 50 52 50 50 52 50 50 52 50 50 52 50 50 52 50 50 52 50 50 52 50 50 52 50 50 52 50 50 52 50 50 52 50 50 52 50 50 52 50 50 52 50 50 52 50 50 52 50 50 52 50 50 52 50 50 52 50 50 52 50 50 52 50 50 52 50 50 52 50 50 52 50 50 52 50 50 52 50 50 52 50 50 52 50 50 52 50 50 52 50 50 52 50 50 52 50 50 52 50 50 52 50 50 52 50 50 52 50 50 52 50 50 52 50 50 52 50 50 52 50 50 52 50 50 52 50 50 52 50 50 52 50 50 52 50 50 52 50 50 52 50 50 52 50 50 52 50 50 52 50 50 52 50 50 52 50 50 52 50 50 52 50 50 52 50 50 52 50 50 52 50 50 52 50 50 52 50 50 52 50 50 52 50 50 52 50 50 52 50 50 52 50 50 52 50 50 52 50 50 52 50 50 52 50 50 52 50 50 52 50 50 52 50 50 52 50 50 52 50 50 52 50 50 52 50 50 52 50 50 52 50 50 52 50 50 52 50 50 52 50 50 52 50 50 52 50 50
52 50 50 52 50 50 52 50 50 52 50 50 52 50 50 52 50 50 52 50 50 52 50 50 52 50 50 52 50 50 52 50 50 52 50 50 52 50 50 52 50 50 52 50 50 52 50 50 52 50 50 52 50 50 52 50 50 52 50 50 52 50 50 52 50 50 52 50 50 52 50 50 52 50 50 52 50 50 52 50 50 52 50 50 52 50 50 52 50 50 52 50 50 52 50 50 52 50 50 52 50 50 52 50 50 52 50 50 52 50 50 52 50 50 52 50 50 52 50 50 52 50 50 52 50 50 52 50 50 52 50 50 52 50 50 52 50 50 52 50 50 52 50 50 52 50 50 52 50 50 52 50 50 52 50 50 52 50 50 52 50 50 52 50 50 52 50 50 52 50 50 52 50 50 52 50 50 52 50 50 52 50 50 52 50 50 52 50 50 52 50 50 52 50 50 52 50 50 52 50 50 52 50 50 52 50 50 52 50 50 52 50 50 52 50 50 52 50 50 52 50 50 52 50 50 52 50 50 52 50 50 52 50 50 52 50 50 52 50 50 52 50 50 52 50 50 52 50 50 52 50 50 52 50 50 52 50 50 52 50 50 52 50 50 52 50 50 52 50 50 52 50 50 52 50 50 52 50 50 52 50 50 52 50 50 52 50 50 52 50 50 52 50 50 52 50 50 52 50 50 52 50 50 52 50 50 52 50 50 52 50 50 52 50 50 52 50 50 52 50 50 52 50 50 52 50 50 52 50 50 52 50 50 52 50 50 52 50 50 52 50 50 52 50 50 52 50 50 52 50 50 52 50 50 52 50 50 52 50 50 52 50 50 52 50 50 52 50 50 52 50 50 52 50 50 52 50 50 52 50 50 52 50 50 52 50 50 52 50 50 52 50 50 52 50 50 52 50 50 52 50 50 52 50 50 52 50 50 52 50 50 52 50 50 52 50 50 52 50 50 52 50 50 52 50 50 52 50 50 52 50 50 52 50 50 52 50 50 52 50 50 52 50 50 52 50 50 52 50 50 52 50 50 52 50 50 52 50 50 52 50 50 52 50 50 52 50 50 52 50 50 52 50 50 52 50 50 52 50 50 52 50 50 52 50 50 52 50 50 52 50 50 52 50 50 52 50 50 52 50 50 52 50 50 52 50 50 52 50 50 52 50 50 52 50 50 52 50 50 52 50 50 52 50 50 52 50 50 52 50 50 52 50 50 52 50 50 52 50 50 52 50 50 52 50 50 52 50 50 52 50 50 52 50 50 52 50 50 52 50 50 52 50 50 52 50 50 52 50 50 52 50 50 52 50 50 52 50 50 52 50 50 52 50 50 52 50 50 52 50 50 52 50 50 52 50 50 52 50 50 52 50 50 52 50 50 52 50 50 52 50 50 52 50 50 52 50 50 52 50 50 52 50 50 52 50 50 52 50 50 52 50 50 52 50 50 52 50 50 52 50 50 52 50 50 52 50 50 52 50 50 52 50 50 52 50 50 52 50 50 52 50 50 52 50 50 52 50 50 52 50 50 52 50 50 52 50 50 52 50 50 52 50 50 52 50 50 52 50 50 52 50 50 52 50 50 52 50 50 52 50 50 52 50 50 52 50 50 52 50 50 52 50 50 52 50 50 52 50 50 52 50 50 52 50 50 52 50 50 52 50 50 52 50 50 52 50 50 52 50 50 52 50 50 52 50 50 52 50 50 52 50 50 52 50 50 52 50 50 52 50 50 52 50 50 52 50 50 52 50 50 52 50 50 52 50 50 52 50 50 52 50 50 52 50 50 52 50 50 52 50 50 52 50 50 52 50 50 52 50 50 52 50 50 52 50 50 52 50 50 52 50 50 52 50 50 52 50 50 52 50 50 52 50 50 52 50 50 52 50 50 52 50 50 52 50 50 52 50 50 52 50 50 52 50 50 52 50 50 52 50 50 52 50 50 52 50 50 52 50 50 52 50 50 52 50 50 52 50 50 52 50 50 52 50 50 52 50 50 52 50 50 52 50 50 52 50 50 52 50 50 52 50 50 52 50 50 52 50 50
52 50 50 52 50 50 52 50 50 52 50 50 52 50 50 52 50 50 52 50 50 52 50 50 52 50 50 52 50 50 52 50 50 52 50 50 52 50 50 52 50 50 52 50 50 52 50 50 52 50 50 52 50 50 52 50 50 52 50 50 52 50 50 52 50 50 52 50 50 52 50 50 52 50 50 52 50 50 52 50 50 52 50 50 52 50 50 52 50 50 52 50 50 52 50 50 52 50 50 52 50 50 52 50 50 52 50 50 52 50 50 52 50 50 52 50 50 52 50 50 52 50 50 52 50 50 52 50 50 52 50 50 52 50 50 52 50 50 52 50 50 52 50 50 52 50 50 52 50 50 52 50 50 52 50 50 52 50 50 52 50 50 52 50 50 52 50 50 52 50 50 52 50 50 52 50 50 52 50 50 52 50 50 52 50 50 52 50 50 52 50 50 52 50 50 52 50 50 52 50 50 52 50 50 52 50 50 52 50 50 52 50 50 52 50 50 52 50 50 52 50 50 52 50 50 52 50 50 52 50 50 52 50 50 52 50 50 52 50 50 52 50 50 52 50 50 52 50 50 52 50 50 52 50 50 52 50 50 52 50 50 52 50 50 52 50 50 52 50 50 52 50 50 52 50 50 52 50 50 52 50 50 52 50 50 52 50 50 52 50 50 52 50 50 52 50 50 52 50 50 52 50 50 52 50 50 52 50 50 52 50 50 52 50 50 52 50 50 52 50 50 52 50 50 52 50 50 52 50 50 52 50 50 52 50 50 52 50 50 52 50 50 52 50 50 52 50 50 52 50 50 52 50 50 52 50 50 52 50 50 52 50 50 52 50 50 52 50 50 52 50 50 52 50 50 52 50 50 52 50 50 52 50 50 52 50 50 52 50 50 52 50 50 52 50 50 52 50 50 52 50 50 52 50 50 52 50 50 52 50 50 52 50 50 52 50 50 52 50 50 52 50 50 52 50 50 52 50 50 52 50 50 52 50 50 52 50 50 52 50 50 52 50 50 52 50 50 52 50 50 52 50 50 52 50 50 52 50 50 52 50 50 52 50 50 52 50 50 52 50 50 52 50 50 52 50 50 52 50 50 52 50 50 52 50 50 52 50 50 52 50 50 52 50 50 52 50 50 52 50 50 52 50 50 52 50 50 52 50 50 52 50 50 52 50 50 52 50 50 52 50 50 52 50 50 52 50 50 52 50 50 52 50 50 52 50 50 52 50 50 52 50 50 52 50 50 52 50 50 52 50 50 52 50 50 52 50 50 52 50 50 52 50 50 52 50 50 52 50 50 52 50 50 52 50 50 52 50 50 52 50 50 52 50 50 52 50 50 52 50 50 52 50 50 52 50 50 52 50 50 52 50 50 52 50 50 52 50 50 52 50 50 52 50 50 52 50 50 52 50 50 52 50 50 52 50 50 52 50 50 52 50 50 52 50 50 52 50 50 52 50 50 52 50 50 52 50 50 52 50 50 52 50 50 52 50 50 52 50 50 52 50 50 52 50 50 52 50 50 52 50 50 52 50 50 52 50 50 52 50 50 52 50 50 52 50 50 52 50 50 52 50 50 52 50 50 52 50 50 52 50 50 52 50 50 52 50 50 52 50 50 52 50 50 52 50 50 52 50 50 52 50 50 52 50 50 52 50 50 52 50 50 52 50 50 52 50 50 52 50 50 52 50 50 52 50 50 52 50 50 52 50 50 52 50 50 52 50 50 52 50 50 52 50 50 52 50 50 52 50 50 52 50 50 52 50 50 52 50 50 52 50 50 52 50 50 52 50 50 52 50 50 52 50 50 52 50 50 52 50 50 52 50 50 52 50 50 52 50 50 52 50 50 52 50 50 52 50 50 52 50 50 52 50 50 52 50 50 52 50 50 52 50 50 52 50 50 52 50 50 52 50 50 52 50 50 52 50 50 52 50 50 52 50 50 52 50 50 52 50 50 52 50 50 52 50 50 52 50 50 52 50 50 52 50 50 52 50 50 52 50 50 52 50 50 52 50 50 52 50 50 52 50 50 52 50 50 52 50 50
52 50 50 52 50 50 52 50 50 52 50 50 52 50 50 52 50 50 52 50 50 52 50 50 52 50 50 52 50 50 52 50 50 52 50 50 52 50 50 52 50 50 52 50 50 52 50 50 52 50 50 52 50 50 52 50 50 52 50 50 52 50 50 52 50 50 52 50 50 52 50 50 52 50 50 52 50 50 52 50 50 52 50 50 52 50 50 52 50 50 52 50 50 52 50 50 52 50 50 52 50 50 52 50 50 52 50 50 52 50 50 52 50 50 52 50 50 52 50 50 52 50 50 52 50 50 52 50 50 52 50 50 52 50 50 52 50 50 52 50 50 52 50 50 52 50 50 52 50 50 52 50 50 52 50 50 52 50 50 52 50 50 52 50 50 52 50 50 52 50 50 52 50 50 52 50 50 52 50 50 52 50 50 52 50 50 52 50 50 52 50 50 52 50 50 52 50 50 52 50 50 52 50 50 52 50 50 52 50 50 52 50 50 52 50 50 52 50 50 52 50 50 52 50 50 52 50 50 52 50 50 52 50 50 52 50 50 52 50 50 52 50 50 52 50 50 52 50 50 52 50 50 52 50 50 52 50 50 52 50 50 52 50 50 52 50 50 52 50 50 52 50 50 52 50 50 52 50 50 52 50 50 52 50 50 52 50 50 52 50 50 52 50 50 52 50 50 52 50 50 52 50 50 52 50 50 52 50 50 52 50 50 52 50 50 52 50 50 52 50 50 52 50 50 52 50 50 52 50 50 52 50 50 52 50 50 52 50 50 52 50 50 52 50 50 52 50 50 52 50 50 52 50 50 52 50 50 52 50 50 52 50 50 52 50 50 52 50 50 52 50 50 52 50 50 52 50 50 52 50 50 52 50 50 52 50 50 52 50 50 52 50 50 52 50 50 52 50 50 52 50 50 52 50 50 52 50 50 52 50 50 52 50 50 52 50 50 52 50 50 52 50 50 52 50 50 52 50 50 52 50 50 52 50 50 52 50 50 52 50 50 52 50 50 52 50 50 52 50 50 52 50 50 52 50 50 52 50 50 52 50 50 52 50 50 52 50 50 52 50 50 52 50 50 52 50 50 52 50 50 52 50 50 52 50 50 52 50 50 52 50 50 52 50 50 52 50 50 52 50 50 52 50 50 52 50 50 52 50 50 52 50 50 52 50 50 52 50 50 52 50 50 52 50 50 52 50 50 52 50 50 52 50 50 52 50 50 52 50 50 52 50 50 52 50 50 52 50 50 52 50 50 52 50 50 52 50 50 52 50 50 52 50 50 52 50 50 52 50 50 52 50 50 52 50 50 52 50 50 52 50 50 52 50 50 52 50 50 52 50 50 52 50 50 52 50 50 52 50 50 52 50 50 52 50 50 52 50 50 52 50 50 52 50 50 52 50 50 52 50 50 52 50 50 52 50 50 52 50 50 52 50 50 52 50 50 52 50 50 52 50 50 52 50 50 52 50 50 52 50 50 52 50 50 52 50 50 52 50 50 52 50 50 52 50 50 52 50 50 52 50 50 52 50 50 52 50 50 52 50 50 52 50 50 52 50 50 52 50 50 52 50 50 52 50 50 52 50 50 52 50 50 52 50 50 52 50 50 52 50 50 52 50 50 52 50 50 52 50 50 52 50 50 52 50 50 52 50 50 52 50 50 52 50 50 52 50 50 52 50 50 52 50 50 52 50 50 52 50 50 52 50 50 52 50 50 52 50 50 52 50 50 52 50 50 52 50 50 52 50 50 52 50 50 52 50 50 52 50 50 52 50 50 52 50 50 52 50 50 52 50 50 52 50 50 52 50 50 52 50 50 52 50 50 52 50 50 52 50 50 52 50 50 52 50 50 52 50 50 52 50 50 52 50 50 52 50 50 52 50 50 52 50 50 52 50 50 52 50 50 52 50 50 52 50 50 52 50 50 52 50 50 52 50 50 52 50 50 52 50 50 52 50 50 52 50 50 52 50 50 52 50 50 52 50 50 52 50 50 52 50 50 52 50 50 52 50 50 52 50 50 52 50 50 52 50 50 52 50 50
52 50 50 52 50 50 52 50 50 52 50 50 52 50 50 52 50 50 52 50 50 52 50 50 52 50 50 52 50 50 52 50 50 52 50 50 52 50 50 52 50 50 52 50 50 52 50 50 52 50 50 52 50 50 52 50 50 52 50 50 52 50 50 52 50 50 52 50 50 52 50 50 52 50 50 52 50 50 52 50 50 52 50 50 52 50 50 52 50 50 52 50 50 52 50 50 52 50 50 52 50 50 52 50 50 52 50 50 52 50 50 52 50 50 52 50 50 52 50 50 52 50 50 52 50 50 52 50 50 52 50 50 52 50 50 52 50 50 52 50 50 52 50 50 52 50 50 52 50 50 52 50 50 52 50 50 52 50 50 52 50 50 52 50 50 52 50 50 52 50 50 52 50 50 52 50 50 52 50 50 52 50 50 52 50 50 52 50 50 52 50 50 52 50 50 52 50 50 52 50 50 52 50 50 52 50 50 52 50 50 52 50 50 52 50 50 52 50 50 52 50 50 52 50 50 52 50 50 52 50 50 52 50 50 52 50 50 52 50 50 52 50 50 52 50 50 52 50 50 52 50 50 52 50 50 52 50 50 52 50 50 52 50 50 52 50 50 52 50 50 52 50 50 52 50 50 52 50 50 52 50 50 52 50 50 52 50 50 52 50 50 52 50 50 52 50 50 52 50 50 52 50 50 52 50 50 52 50 50 52 50 50 52 50 50 52 50 50 52 50 50 52 50 50 52 50 50 52 50 50 52 50 50 52 50 50 52 50 50 52 50 50 52 50 50 52 50 50 52 50 50 52 50 50 52 50 50 52 50 50 52 50 50 52 50 50 52 50 50 52 50 50 52 50 50 52 50 50 52 50 50 52 50 50 52 50 50 52 50 50 52 50 50 52 50 50 52 50 50 52 50 50 52 50 50 52 50 50 52 50 50 52 50 50 52 50 50 52 50 50 52 50 50 52 50 50 52 50 50 52 50 50 52 50 50 52 50 50 52 50 50 52 50 50 52 50 50 52 50 50 52 50 50 52 50 50 52 50 50 52 50 50 52 50 50 52 50 50 52 50 50 52 50 50 52 50 50 52 50 50 52 50 50 52 50 50 52 50 50 52 50 50 52 50 50 52 50 50 52 50 50 52 50 50 52 50 50 52 50 50 52 50 50 52 50 50 52 50 50 52 50 50 52 50 50 52 50 50 52 50 50 52 50 50 52 50 50 52 50 50 52 50 50 52 50 50 52 50 50 52 50 50 52 50 50 52 50 50 52 50 50 52 50 50 52 50 50 52 50 50 52 50 50 52 50 50 52 50 50 52 50 50 52 50 50 52 50 50 52 50 50 52 50 50 52 50 50 52 50 50 52 50 50 52 50 50 52 50 50 52 50 50 52 50 50 52 50 50 52 50 50 52 50 50 52 50 50 52 50 50 52 50 50 52 50 50 52 50 50 52 50 50 52 50 50 52 50 50 52 50 50 52 50 50 52 50 50 52 50 50 52 50 50 52 50 50 52 50 50 52 50 50 52 50 50 52 50 50 52 50 50 52 50 50 52 50 50 52 50 50 52 50 50 52 50 50 52 50 50 52 50 50 52 50 50 52 50 50 52 50 50 52 50 50 52 50 50 52 50 50 52 50 50 52 50 50 52 50 50 52 50 50 52 50 50 52 50 50 52 50 50 52 50 50 52 50 50 52 50 50 52 50 50 52 50 50 52 50 50 52 50 50 52 50 50 52 50 50 52 50 50 52 50 50 52 50 50 52 50 50 52 50 50 52 50 50 52 50 50 52 50 50 52 50 50 52 50 50 52 50 50 52 50 50 52 50 50 52 50 50 52 50 50 52 50 50 52 50 50 52 50 50 52 50 50 52 50 50 52 50 50 52 50 50 52 50 50 52 50 50 52 50 50 52 50 50 52 50 50 52 50 50 52 50 50 52 50 50 52 50 50 52 50 50 52 50 50 52 50 50 52 50 50 52 50 50 52 50 50 52 50 50 52 50 50 52 50 50 52 50 50 52 50 50 52 50 50 52 50 50
52 50 50 52 50 50 52 50 50 52 50 50 52 50 50 52 50 50 52 50 50 52 50 50 52 50 50 52 50 50 52 50 50 52 50 50 52 50 50 52 50 50 52 50 50 52 50 50 52 50 50 52 50 50 52 50 50 52 50 50 52 50 50 52 50 50 52 50 50 52 50 50 52 50 50 52 50 50 52 50 50 52 50 50 52 50 50 52 50 50 52 50 50 52 50 50 52 50 50 52 50 50 52 50 50 52 50 50 52 50 50 52 50 50 52 50 50 52 50 50 52 50 50 52 50 50 52 50 50 52 50 50 52 50 50 52 50 50 52 50 50 52 50 50 52 50 50 52 50 50 52 50 50 52 50 50 52 50 50 52 50 50 52 50 50 52 50 50 52 50 50 52 50 50 52 50 50 52 50 50 52 50 50 52 50 50 52 50 50 52 50 50 52 50 50 52 50 50 52 50 50 52 50 50 52 50 50 52 50 50 52 50 50 52 50 50 52 50 50 52 50 50 52 50 50 52 50 50 52 50 50 52 50 50 52 50 50 52 50 50 52 50 50 52 50 50 52 50 50 52 50 50 52 50 50 52 50 50 52 50 50 52 50 50 52 50 50 52 50 50 52 50 50 52 50 50 52 50 50 52 50 50 52 50 50 52 50 50 52 50 50 52 50 50 52 50 50 52 50 50 52 50 50 52 50 50 52 50 50 52 50 50 52 50 50 52 50 50 52 50 50 52 50 50 52 50 50 52 50 50 52 50 50 52 50 50 52 50 50 52 50 50 52 50 50 52 50 50 52 50 50 52 50 50 52 50 50 52 50 50 52 50 50 52 50 50 52 50 50 52 50 50 52 50 50 52 50 50 52 50 50 52 50 50 52 50 50 52 50 50 52 50 50 52 50 50 52 50 50 52 50 50 52 50 50 52 50 50 52 50 50 52 50 50 52 50 50 52 50 50 52 50 50 52 50 50 52 50 50 52 50 50 52 50 50 52 50 50 52 50 50 52 50 50 52 50 50 52 50 50 52 50 50 52 50 50 52 50 50 52 50 50 52 50 50 52 50 50 52 50 50 52 50 50 52 50 50 52 50 50 52 50 50 52 50 50 52 50 50 52 50 50 52 50 50 52 50 50 52 50 50 52 50 50 52 50 50 52 50 50 52 50 50 52 50 50 52 50 50 52 50 50 52 50 50 52 50 50 52 50 50 52 50 50 52 50 50 52 50 50 52 50 50 52 50 50 52 50 50 52 50 50 52 50 50 52 50 50 52 50 50 52 50 50 52 50 50 52 50 50 52 50 50 52 50 50 52 50 50 52 50 50 52 50 50 52 50 50 52 50 50 52 50 50 52 50 50 52 50 50 52 50 50 52 50 50 52 50 50 52 50 50 52 50 50 52 50 50 52 50 50 52 50 50 52 50 50 52 50 50 52 50 50 52 50 50 52 50 50 52 50 50 52 50 50 52 50 50 52 50 50 52 50 50 52 50 50 52 50 50 52 50 50 52 50 50 52 50 50 52 50 50 52 50 50 52 50 50 52 50 50 52 50 50 52 50 50 52 50 50 52 50 50 52 50 50 52 50 50 52 50 50 52 50 50 52 50 50 52 50 50 52 50 50 52 50 50 52 50 50 52 50 50 52 50 50 52 50 50 52 50 50 52 50 50 52 50 50 52 50 50 52 50 50 52 50 50 52 50 50 52 50 50 52 50 50 52 50 50 52 50 50 52 50 50 52 50 50 52 50 50 52 50 50 52 50 50 52 50 50 52 50 50 52 50 50 52 50 50 52 50 50 52 50 50 52 50 50 52 50 50 52 50 50 52 50 50 52 50 50 52 50 50 52 50 50 52 50 50 52 50 50 52 50 50 52 50 50 52 50 50 52 50 50 52 50 50 52 50 50 52 50 50 52 50 50 52 50 50 52 50 50 52 50 50 52 50 50 52 50 50 52 50 50 52 50 50 52 50 50 52 50 50 52 50 50 52 50 50 52 50 50 52 50 50 52 50 50 52 50 50 52 50 50 52 50 50 52 50 50
52 50 50 52 50 50 52 50 50 52 50 50 52 50 50 52 50 50 52 50 50 52 50 50 52 50 50 52 50 50 52 50 50 52 50 50 52 50 50 52 50 50 52 50 50 52 50 50 52 50 50 52 50 50 52 50 50 52 50 50 52 50 50 52 50 50 52 50 50 52 50 50 52 50 50 52 50 50 52 50 50 52 50 50 52 50 50 52 50 50 52 50 50 52 50 50 52 50 50 52 50 50 52 50 50 52 50 50 52 50 50 52 50 50 52 50 50 52 50 50 52 50 50 52 50 50 52 50 50 52 50 50 52 50 50 52 50 50 52 50 50 52 50 50 52 50 50 52 50 50 52 50 50 52 50 50 52 50 50 52 50 50 52 50 50 52 50 50 52 50 50 52 50 50 52 50 50 52 50 50 52 50 50 52 50 50 52 50 50 52 50 50 52 50 50 52 50 50 52 50 50 52 50 50 52 50 50 52 50 50 52 50 50 52 50 50 52 50 50 52 50 50 52 50 50 52 50 50 52 50 50 52 50 50 52 50 50 52 50 50 52 50 50 52 50 50 52 50 50 52 50 50 52 50 50 52 50 50 52 50 50 52 50 50 52 50 50 52 50 50 52 50 50 52 50 50 52 50 50 52 50 50 52 50 50 52 50 50 52 50 50 52 50 50 52 50 50 52 50 50 52 50 50 52 50 50 52 50 50 52 50 50 52 50 50 52 50 50 52 50 50 52 50 50 52 50 50 52 50 50 52 50 50 52 50 50 52 50 50 52 50 50 52 50 50 52 50 50 52 50 50 52 50 50 52 50 50 52 50 50 52 50 50 52 50 50 52 50 50 52 50 50 52 50 50 52 50 50 52 50 50 52 50 50 52 50 50 52 50 50 52 50 50 52 50 50 52 50 50 52 50 50 52 50 50 52 50 50 52 50 50 52 50 50 52 50 50 52 50 50 52 50 50 52 50 50 52 50 50 52 50 50 52 50 50 52 50 50 52 50 50 52 50 50 52 50 50 52 50 50 52 50 50 52 50 50 52 50 50 52 50 50 52 50 50 52 50 50 52 50 50 52 50 50 52 50 50 52 50 50 52 50 50 52 50 50 52 50 50 52 50 50 52 50 50 52 50 50 52 50 50 52 50 50 52 50 50 52 50 50 52 50 50 52 50 50 52 50 50 52 50 50 52 50 50 52 50 50 52 50 50 52 50 50 52 50 50 52 50 50 52 50 50 52 50 50 52 50 50 52 50 50 52 50 50 52 50 50 52 50 50 52 50 50 52 50 50 52 50 50 52 50 50 52 50 50 52 50 50 52 50 50 52 50 50 52 50 50 52 50 50 52 50 50 52 50 50 52 50 50 52 50 50 52 50 50 52 50 50 52 50 50 52 50 50 52 50 50 52 50 50 52 50 50 52 50 50 52 50 50 52 50 50 52 50 50 52 50 50 52 50 50 52 50 50 52 50 50 52 50 50 52 50 50 52 50 50 52 50 50 52 50 50 52 50 50 52 50 50 52 50 50 52 50 50 52 50 50 52 50 50 52 50 50 52 50 50 52 50 50 52 50 50 52 50 50 52 50 50 52 50 50 52 50 50 52 50 50 52 50 50 52 50 50 52 50 50 52 50 50 52 50 50 52 50 50 52 50 50 52 50 50 52 50 50 52 50 50 52 50 50 52 50 50 52 50 50 52 50 50 52 50 50 52 50 50 52 50 50 52 50 50 52 50 50 52 50 50 52 50 50 52 50 50 52 50 50 52 50 50 52 50 50 52 50 50 52 50 50 52 50 50 52 50 50 52 50 50 52 50 50 52 50 50 52 50 50 52 50 50 52 50 50 52 50 50 52 50 50 52 50 50 52 50 50 52 50 50 52 50 50 52 50 50 52 50 50 52 50 50 52 50 50 52 50 50 52 50 50 52 50 50 52 50 50 52 50 50 52 50 50 52 50 50 52 50 50 52 50 50 52 50 50 52 50 50 52 50 50 52 50 50 52 50 50 52 50 50 52 50 50 52 50 50 52 50 50 52 50 50
52 50 50 52 50 50 52 50 50 52 50 50 52 50 50 52 50 50 52 50 50 52 50 50 52 50 50 52 50 50 52 50 50 52 50 50 52 50 50 52 50 50 52 50 50 52 50 50 52 50 50 52 50 50 52 50 50 52 50 50 52 50 50 52 50 50 52 50 50 52 50 50 52 50 50 52 50 50 52 50 50 52 50 50 52 50 50 52 50 50 52 50 50 52 50 50 52 50 50 52 50 50 52 50 50 52 50 50 52 50 50 52 50 50 52 50 50 52 50 50 52 50 50 52 50 50 52 50 50 52 50 50 52 50 50 52 50 50 52 50 50 52 50 50 52 50 50 52 50 50 52 50 50 52 50 50 52 50 50 52 50 50 52 50 50 52 50 50 52 50 50 52 50 50 52 50 50 52 50 50 52 50 50 52 50 50 52 50 50 52 50 50 52 50 50 52 50 50 52 50 50 52 50 50 52 50 50 52 50 50 52 50 50 52 50 50 52 50 50 52 50 50 52 50 50 52 50 50 52 50 50 52 50 50 52 50 50 52 50 50 52 50 50 52 50 50 52 50 50 52 50 50 52 50 50 52 50 50 52 50 50 52 50 50 52 50 50 52 50 50 52 50 50 52 50 50 52 50 50 52 50 50 52 50 50 52 50 50 52 50 50 52 50 50 52 50 50 52 50 50 52 50 50 52 50 50 52 50 50 52 50 50 52 50 50 52 50 50 52 50 50 52 50 50 52 50 50 52 50 50 52 50 50 52 50 50 52 50 50 52 50 50 52 50 50 52 50 50 52 50 50 52 50 50 52 50 50 52 50 50 52 50 50 52 50 50 52 50 50 52 50 50 52 50 50 52 50 50 52 50 50 52 50 50 52 50 50 52 50 50 52 50 50 52 50 50 52 50 50 52 50 50 52 50 50 52 50 50 52 50 50 52 50 50 52 50 50 52 50 50 52 50 50 52 50 50 52 50 50 52 50 50 52 50 50 52 50 50 52 50 50 52 50 50 52 50 50 52 50 50 52 50 50 52 50 50 52 50 50 52 50 50 52 50 50 52 50 50 52 50 50 52 50 50 52 50 50 52 50 50 52 50 50 52 50 50 52 50 50 52 50 50 52 50 50 52 50 50 52 50 50 52 50 50 52 50 50 52 50 50 52 50 50 52 50 50 52 50 50 52 50 50 52 50 50 52 50 50 52 50 50 52 50 50 52 50 50 52 50 50 52 50 50 52 50 50 52 50 50 52 50 50 52 50 50 52 50 50 52 50 50 52 50 50 52 50 50 52 50 50 52 50 50 52 50 50 52 50 50 52 50 50 52 50 50 52 50 50 52 50 50 52 50 50 52 50 50 52 50 50 52 50 50 52 50 50 52 50 50 52 50 50 52 50 50 52 50 50 52 50 50 52 50 50 52 50 50 52 50 50 52 50 50 52 50 50 52 50 50 52 50 50 52 50 50 52 50 50 52 50 50 52 50 50 52 50 50 52 50 50 52 50 50 52 50 50 52 50 50 52 50 50 52 50 50 52 50 50 52 50 50 52 50 50 52 50 50 52 50 50 52 50 50 52 50 50 52 50 50 52 50 50 52 50 50 52 50 50 52 50 50 52 50 50 52 50 50 52 50 50 52 50 50 52 50 50 52 50 50 52 50 50 52 50 50 52 50 50 52 50 50 52 50 50 52 50 50 52 50 50 52 50 50 52 50 50 52 50 50 52 50 50 52 50 50 52 50 50 52 50 50 52 50 50 52 50 50 52 50 50 52 50 50 52 50 50 52 50 50 52 50 50 52 50 50 52 50 50 52 50 50 52 50 50 52 50 50 52 50 50 52 50 50 52 50 50 52 50 50 52 50 50 52 50 50 52 50 50 52 50 50 52 50 50 52 50 50 52 50 50 52 50 50 52 50 50 52 50 50 52 50 50 52 50 50 52 50 50 52 50 50 52 50 50 52 50 50 52 50 50 52 50 50 52 50 50 52 50 50 52 50 50 52 50 50 52 50 50 52 50 50 52 50 50 52 50 50 52 50 50
52 50 50 52 50 50 52 50 50 52 50 50 52 50 50 52 50 50 52 50 50 52 50 50 52 50 50 52 50 50 52 50 50 52 50 50 52 50 50 52 50 50 52 50 50 52 50 50 52 50 50 52 50 50 52 50 50 52 50 50 52 50 50 52 50 50 52 50 50 52 50 50 52 50 50 52 50 50 52 50 50 52 50 50 52 50 50 52 50 50 52 50 50 52 50 50 52 50 50 52 50 50 52 50 50 52 50 50 52 50 50 52 50 50 52 50 50 52 50 50 52 50 50 52 50 50 52 50 50 52 50 50 52 50 50 52 50 50 52 50 50 52 50 50 52 50 50 52 50 50 52 50 50 52 50 50 52 50 50 52 50 50 52 50 50 52 50 50 52 50 50 52 50 50 52 50 50 52 50 50 52 50 50 52 50 50 52 50 50 52 50 50 52 50 50 52 50 50 52 50 50 52 50 50 52 50 50 52 50 50 52 50 50 52 50 50 52 50 50 52 50 50 52 50 50 52 50 50 52 50 50 52 50 50 52 50 50 52 50 50 52 50 50 52 50 50 52 50 50 52 50 50 52 50 50 52 50 50 52 50 50 52 50 50 52 50 50 52 50 50 52 50 50 52 50 50 52 50 50 52 50 50 52 50 50 52 50 50 52 50 50 52 50 50 52 50 50 52 50 50 52 50 50 52 50 50 52 50 50 52 50 50 52 50 50 52 50 50 52 50 50 52 50 50 52 50 50 52 50 50 52 50 50 52 50 50 52 50 50 52 50 50 52 50 50 52 50 50 52 50 50 52 50 50 52 50 50 52 50 50 52 50 50 52 50 50 52 50 50 52 50 50 52 50 50 52 50 50 52 50 50 52 50 50 52 50 50 52 50 50 52 50 50 52 50 50 52 50 50 52 50 50 52 50 50 52 50 50 52 50 50 52 50 50 52 50 50 52 50 50 52 50 50 52 50 50 52 50 50 52 50 50 52 50 50 52 50 50 52 50 50 52 50 50 52 50 50 52 50 50 52 50 50 52 50 50 52 50 50 52 50 50 52 50 50 52 50 50 52 50 50 52 50 50 52 50 50 52 50 50 52 50 50 52 50 50 52 50 50 52 50 50 52 50 50 52 50 50 52 50 50 52 50 50 52 50 50 52 50 50 52 50 50 52 50 50 52 50 50 52 50 50 52 50 50 52 50 50 52 50 50 52 50 50 52 50 50 52 50 50 52 50 50 52 50 50 52 50 50 52 50 50 52 50 50 52 50 50 52 50 50 52 50 50 52 50 50 52 50 50 52 50 50 52 50 50 52 50 50 52 50 50 52 50 50 52 50 50 52 50 50 52 50 50 52 50 50 52 50 50 52 50 50 52 50 50 52 50 50 52 50 50 52 50 50 52 50 50 52 50 50 52 50 50 52 50 50 52 50 50 52 50 50 52 50 50 52 50 50 52 50 50 52 50 50 52 50 50 52 50 50 52 50 50 52 50 50 52 50 50 52 50 50 52 50 50 52 50 50 52 50 50 52 50 50 52 50 50 52 50 50 52 50 50 52 50 50 52 50 50 52 50 50 52 50 50 52 50 50 52 50 50 52 50 50 52 50 50 52 50 50 52 50 50 52 50 50 52 50 50 52 50 50 52 50 50 52 50 50 52 50 50 52 50 50 52 50 50 52 50 50 52 50 50 52 50 50 52 50 50 52 50 50 52 50 50 52 50 50 52 50 50 52 50 50 52 50 50 52 50 50 52 50 50 52 50 50 52 50 50 52 50 50 52 50 50 52 50 50 52 50 50 52 50 50 52 50 50 52 50 50 52 50 50 52 50 50 52 50 50 52 50 50 52 50 50 52 50 50 52 50 50 52 50 50 52 50 50 52 50 50 52 50 50 52 50 50 52 50 50 52 50 50 52 50 50 52 50 50 52 50 50 52 50 50 52 50 50 52 50 50 52 50 50 52 50 50 52 50 50 52 50 50 52 50 50 52 50 50 52 50 50 52 50 50 52 50 50 52 50 50 52 50 50 52 50 50 52 50 50
52 50 50 52 50 50 52 50 50 52 50 50 52 50 50 52 50 50 52 50 50 52 50 50 52 50 50 52 50 50 52 50 50 52 50 50 52 50 50 52 50 50 52 50 50 52 50 50 52 50 50 52 50 50 52 50 50 52 50 50 52 50 50 52 50 50 52 50 50 52 50 50 52 50 50 52 50 50 52 50 50 52 50 50 52 50 50 52 50 50 52 50 50 52 50 50 52 50 50 52 50 50 52 50 50 52 50 50 52 50 50 52 50 50 52 50 50 52 50 50 52 50 50 52 50 50 52 50 50 52 50 50 52 50 50 52 50 50 52 50 50 52 50 50 52 50 50 52 50 50 52 50 50 52 50 50 52 50 50 52 50 50 52 50 50 52 50 50 52 50 50 52 50 50 52 50 50 52 50 50 52 50 50 52 50 50 52 50 50 52 50 50 52 50 50 52 50 50 52 50 50 52 50 50 52 50 50 52 50 50 52 50 50 52 50 50 52 50 50 52 50 50 52 50 50 52 50 50 52 50 50 52 50 50 52 50 50 52 50 50 52 50 50 52 50 50 52 50 50 52 50 50 52 50 50 52 50 50 52 50 50 52 50 50 52 50 50 52 50 50 52 50 50 52 50 50 52 50 50 52 50 50 52 50 50 52 50 50 52 50 50 52 50 50 52 50 50 52 50 50 52 50 50 52 50 50 52 50 50 52 50 50 52 50 50 52 50 50 52 50 50 52 50 50 52 50 50 52 50 50 52 50 50 52 50 50 52 50 50 52 50 50 52 50 50 52 50 50 52 50 50 52 50 50 52 50 50 52 50 50 52 50 50 52 50 50 52 50 50 52 50 50 52 50 50 52 50 50 52 50 50 52 50 50 52 50 50 52 50 50 52 50 50 52 50 50 52 50 50 52 50 50 52 50 50 52 50 50 52 50 50 52 50 50 52 50 50 52 50 50 52 50 50 52 50 50 52 50 50 52 50 50 52 50 50 52 50 50 52 50 50 52 50 50 52 50 50 52 50 50 52 50 50 52 50 50 52 50 50 52 50 50 52 50 50 52 50 50 52 50 50 52 50 50 52 50 50 52 50 50 52 50 50 52 50 50 52 50 50 52 50 50 52 50 50 52 50 50 52 50 50 52 50 50 52 50 50 52 50 50 52 50 50 52 50 50 52 50 50 52 50 50 52 50 50 52 50 50 52 50 50 52 50 50 52 50 50 52 50 50 52 50 50 52 50 50 52 50 50 52 50 50 52 50 50 52 50 50 52 50 50 52 50 50 52 50 50 52 50 50 52 50 50 52 50 50 52 50 50 52 50 50 52 50 50 52 50 50 52 50 50 52 50 50 52 50 50 52 50 50 52 50 50 52 50 50 52 50 50 52 50 50 52 50 50 52 50 50 52 50 50 52 50 50 52 50 50 52 50 50 52 50 50 52 50 50 52 50 50 52 50 50 52 50 50 52 50 50 52 50 50 52 50 50 52 50 50 52 50 50 52 50 50 52 50 50 52 50 50 52 50 50 52 50 50 52 50 50 52 50 50 52 50 50 52 50 50 52 50 50 52 50 50 52 50 50 52 50 50 52 50 50 52 50 50 52 50 50 52 50 50 52 50 50 52 50 50 52 50 50 52 50 50 52 50 50 52 50 50 52 50 50 52 50 50 52 50 50 52 50 50 52 50 50 52 50 50 52 50 50 52 50 50 52 50 50 52 50 50 52 50 50 52 50 50 52 50 50 52 50 50 52 50 50 52 50 50 52 50 50 52 50 50 52 50 50 52 50 50 52 50 50 52 50 50 52 50 50 52 50 50 52 50 50 52 50 50 52 50 50 52 50 50 52 50 50 52 50 50 52 50 50 52 50 50 52 50 50 52 50 50 52 50 50 52 50 50 52 50 50 52 50 50 52 50 50 52 50 50 52 50 50 52 50 50 52 50 50 52 50 50 52 50 50 52 50 50 52 50 50 52 50 50 52 50 50 52 50 50 52 50 50 52 50 50 52 50 50 52 50 50 52 50 50 52 50 50 52 50 50
52 50 50 52 50 50 52 50 50 52 50 50 52 50 50 52 50 50 52 50 50 52 50 50 52 50 50 52 50 50 52 50 50 52 50 50 52 50 50 52 50 50 52 50 50 52 50 50 52 50 50 52 50 50 52 50 50 52 50 50 52 50 50 52 50 50 52 50 50 52 50 50 52 50 50 52 50 50 52 50 50 52 50 50 52 50 50 52 50 50 52 50 50 52 50 50 52 50 50 52 50 50 52 50 50 52 50 50 52 50 50 52 50 50 52 50 50 52 50 50 52 50 50 52 50 50 52 50 50 52 50 50 52 50 50 52 50 50 52 50 50 52 50 50 52 50 50 52 50 50 52 50 50 52 50 50 52 50 50 52 50 50 52 50 50 52 50 50 52 50 50 52 50 50 52 50 50 52 50 50 52 50 50 52 50 50 52 50 50 52 50 50 52 50 50 52 50 50 52 50 50 52 50 50 52 50 50 52 50 50 52 50 50 52 50 50 52 50 50 52 50 50 52 50 50 52 50 50 52 50 50 52 50 50 52 50 50 52 50 50 52 50 50 52 50 50 52 50 50 52 50 50 52 50 50 52 50 50 52 50 50 52 50 50 52 50 50 52 50 50 52 50 50 52 50 50 52 50 50 52 50 50 52 50 50 52 50 50 52 50 50 52 50 50 52 50 50 52 50 50 52 50 50 52 50 50 52 50 50 52 50 50 52 50 50 52 50 50 52 50 50 52 50 50 52 50 50 52 50 50 52 50 50 52 50 50 52 50 50 52 50 50 52 50 50 52 50 50 52 50 50 52 50 50 52 50 50 52 50 50 52 50 50 52 50 50 52 50 50 52 50 50 52 50 50 52 50 50 52 50 50 52 50 50 52 50 50 52 50 50 52 50 50 52 50 50 52 50 50 52 50 50 52 50 50 52 50 50 52 50 50 52 50 50 52 50 50 52 50 50 52 50 50 52 50 50 52 50 50 52 50 50 52 50 50 52 50 50 52 50 50 52 50 50 52 50 50 52 50 50 52 50 50 52 50 50 52 50 50 52 50 50 52 50 50 52 50 50 52 50 50 52 50 50 52 50 50 52 50 50 52 50 50 52 50 50 52 50 50 52 50 50 52 50 50 52 50 50 52 50 50 52 50 50 52 50 50 52 50 50 52 50 50 52 50 50 52 50 50 52 50 50 52 50 50 52 50 50 52 50 50 52 50 50 52 50 50 52 50 50 52 50 50 52 50 50 52 50 50 52 50 50 52 50 50 52 50 50 52 50 50 52 50 50 52 50 50 52 50 50 52 50 50 52 50 50 52 50 50 52 50 50 52 50 50 52 50 50 52 50 50 52 50 50 52 50 50 52 50 50 52 50 50 52 50 50 52 50 50 52 50 50 52 50 50 52 50 50 52 50 50 52 50 50 52 50 50 52 50 50 52 50 50 52 50 50 52 50 50 52 50 50 52 50 50 52 50 50 52 50 50 52 50 50 52 50 50 52 50 50 52 50 50 52 50 50 52 50 50 52 50 50 52 50 50 52 50 50 52 50 50 52 50 50 52 50 50 52 50 50 52 50 50 52 50 50 52 50 50 52 50 50 52 50 50 52 50 50 52 50 50 52 50 50 52 50 50 52 50 50 52 50 50 52 50 50 52 50 50 52 50 50 52 50 50 52 50 50 52 50 50 52 50 50 52 50 50 52 50 50 52 50 50 52 50 50 52 50 50 52 50 50 52 50 50 52 50 50 52 50 50 52 50 50 52 50 50 52 50 50 52 50 50 52 50 50 52 50 50 52 50 50 52 50 50 52 50 50 52 50 50 52 50 50 52 50 50 52 50 50 52 50 50 52 50 50 52 50 50 52 50 50 52 50 50 52 50 50 52 50 50 52 50 50 52 50 50 52 50 50 52 50 50 52 50 50 52 50 50 52 50 50 52 50 50 52 50 50 52 50 50 52 50 50 52 50 50 52 50 50 52 50 50 52 50 50 52 50 50 52 50 50 52 50 50 52 50 50 52 50 50 52 50 50 52 50 50 52 50 50
52 50 50 52 50 50 52 50 50 52 50 50 52 50 50 52 50 50 52 50 50 52 50 50 52 50 50 52 50 50 52 50 50 52 50 50 52 50 50 52 50 50 52 50 50 52 50 50 52 50 50 52 50 50 52 50 50 52 50 50 52 50 50 52 50 50 52 50 50 52 50 50 52 50 50 52 50 50 52 50 50 52 50 50 52 50 50 52 50 50 52 50 50 52 50 50 52 50 50 52 50 50 52 50 50 52 50 50 52 50 50 52 50 50 52 50 50 52 50 50 52 50 50 52 50 50 52 50 50 52 50 50 52 50 50 52 50 50 52 50 50 52 50 50 52 50 50 52 50 50 52 50 50 52 50 50 52 50 50 52 50 50 52 50 50 52 50 50 52 50 50 52 50 50 52 50 50 52 50 50 52 50 50 52 50 50 52 50 50 52 50 50 52 50 50 52 50 50 52 50 50 52 50 50 52 50 50 52 50 50 52 50 50 52 50 50 52 50 50 52 50 50 52 50 50 52 50 50 52 50 50 52 50 50 52 50 50 52 50 50 52 50 50 52 50 50 52 50 50 52 50 50 52 50 50 52 50 50 52 50 50 52 50 50 52 50 50 52 50 50 52 50 50 52 50 50 52 50 50 52 50 50 52 50 50 52 50 50 52 50 50 52 50 50 52 50 50 52 50 50 52 50 50 52 50 50 52 50 50 52 50 50 52 50 50 52 50 50 52 50 50 52 50 50 52 50 50 52 50 50 52 50 50 52 50 50 52 50 50 52 50 50 52 50 50 52 50 50 52 50 50 52 50 50 52 50 50 52 50 50 52 50 50 52 50 50 52 50 50 52 50 50 52 50 50 52 50 50 52 50 50 52 50 50 52 50 50 52 50 50 52 50 50 52 50 50 52 50 50 52 50 50 52 50 50 52 50 50 52 50 50 52 50 50 52 50 50 52 50 50 52 50 50 52 50 50 52 50 50 52 50 50 52 50 50 52 50 50 52 50 50 52 50 50 52 50 50 52 50 50 52 50 50 52 50 50 52 50 50 52 50 50 52 50 50 52 50 50 52 50 50 52 50 50 52 50 50 52 50 50 52 50 50 52 50 50 52 50 50 52 50 50 52 50 50 52 50 50 52 50 50 52 50 50 52 50 50 52 50 50 52 50 50 52 50 50 52 50 50 52 50 50 52 50 50 52 50 50 52 50 50 52 50 50 52 50 50 52 50 50 52 50 50 52 50 50 52 50 50 52 50 50 52 50 50 52 50 50 52 50 50 52 50 50 52 50 50 52 50 50 52 50 50 52 50 50 52 50 50 52 50 50 52 50 50 52 50 50 52 50 50 52 50 50 52 50 50 52 50 50 52 50 50 52 50 50 52 50 50 52 50 50 52 50 50 52 50 50 52 50 50 52 50 50 52 50 50 52 50 50 52 50 50 52 50 50 52 50 50 52 50 50 52 50 50 52 50 50 52 50 50 52 50 50 52 50 50 52 50 50 52 50 50 52 50 50 52 50 50 52 50 50 52 50 50 52 50 50 52 50 50 52 50 50 52 50 50 52 50 50 52 50 50 52 50 50 52 50 50 52 50 50 52 50 50 52 50 50 52 50 50 52 50 50 52 50 50 52 50 50 52 50 50 52 50 50 52 50 50 52 50 50 52 50 50 52 50 50 52 50 50 52 50 50 52 50 50 52 50 50 52 50 50 52 50 50 52 50 50 52 50 50 52 50 50 52 50 50 52 50 50 52 50 50 52 50 50 52 50 50 52 50 50 52 50 50 52 50 50 52 50 50 52 50 50 52 50 50 52 50 50 52 50 50 52 50 50 52 50 50 52 50 50 52 50 50 52 50 50 52 50 50 52 50 50 52 50 50 52 50 50 52 50 50 52 50 50 52 50 50 52 50 50 52 50 50 52 50 50 52 50 50 52 50 50 52 50 50 52 50 50 52 50 50 52 50 50 52 50 50 52 50 50 52 50 50 52 50 50 52 50 50 52 50 50 52 50 50 52 50 50 52 50 50 52 50 50 52 50 50
52 50 50 52 50 50 52 50 50 52 50 50 52 50 50 52 50 50 52 50 50 52 50 50 52 50 50 52 50 50 52 50 50 52 50 50 52 50 50 52 50 50 52 50 50 52 50 50 52 50 50 52 50 50 52 50 50 52 50 50 52 50 50 52 50 50 52 50 50 52 50 50 52 50 50 52 50 50 52 50 50 52 50 50 52 50 50 52 50 50 52 50 50 52 50 50 52 50 50 52 50 50 52 50 50 52 50 50 52 50 50 52 50 50 52 50 50 52 50 50 52 50 50 52 50 50 52 50 50 52 50 50 52 50 50 52 50 50 52 50 50 52 50 50 52 50 50 52 50 50 52 50 50 52 50 50 52 50 50 52 50 50 52 50 50 52 50 50 52 50 50 52 50 50 52 50 50 52 50 50 52 50 50 52 50 50 52 50 50 52 50 50 52 50 50 52 50 50 52 50 50 52 50 50 52 50 50 52 50 50 52 50 50 52 50 50 52 50 50 52 50 50 52 50 50 52 50 50 52 50 50 52 50 50 52 50 50 52 50 50 52 50 50 52 50 50 52 50 50 52 50 50 52 50 50 52 50 50 52 50 50 52 50 50 52 50 50 52 50 50 52 50 50 52 50 50 52 50 50 52 50 50 52 50 50 52 50 50 52 50 50 52 50 50 52 50 50 52 50 50 52 50 50 52 50 50 52 50 50 52 50 50 52 50 50 52 50 50 52 50 50 52 50 50 52 50 50 52 50 50 52 50 50 52 50 50 52 50 50 52 50 50 52 50 50 52 50 50 52 50 50 52 50 50 52 50 50 52 50 50 52 50 50 52 50 50 52 50 50 52 50 50 52 50 50 52 50 50 52 50 50 52 50 50 52 50 50 52 50 50 52 50 50 52 50 50 52 50 50 52 50 50 52 50 50 52 50 50 52 50 50 52 50 50 52 50 50 52 50 50 52 50 50 52 50 50 52 50 50 52 50 50 52 50 50 52 50 50 52 50 50 52 50 50 52 50 50 52 50 50 52 50 50 52 50 50 52 50 50 52 50 50 52 50 50 52 50 50 52 50 50 52 50 50 52 50 50 52 50 50 52 50 50 52 50 50 52 50 50 52 50 50 52 50 50 52 50 50 52 50 50 52 50 50 52 50 50 52 50 50 52 50 50 52 50 50 52 50 50 52 50 50 52 50 50 52 50 50 52 50 50 52 50 50 52 50 50 52 50 50 52 50 50 52 50 50 52 50 50 52 50 50 52 50 50 52 50 50 52 50 50 52 50 50 52 50 50 52 50 50 52 50 50 52 50 50 52 50 50 52 50 50 52 50 50 52 50 50 52 50 50 52 50 50 52 50 50 52 50 50 52 50 50 52 50 50 52 50 50 52 50 50 52 50 50 52 50 50 52 50 50 52 50 50 52 50 50 52 50 50 52 50 50 52 50 50 52 50 50 52 50 50 52 50 50 52 50 50 52 50 50 52 50 50 52 50 50 52 50 50 52 50 50 52 50 50 52 50 50 52 50 50 52 50 50 52 50 50 52 50 50 52 50 50 52 50 50 52 50 50 52 50 50 52 50 50 52 50 50 52 50 50 52 50 50 52 50 50 52 50 50 52 50 50 52 50 50 52 50 50 52 50 50 52 50 50 52 50 50 52 50 50 52 50 50 52 50 50 52 50 50 52 50 50 52 50 50 52 50 50 52 50 50 52 50 50 52 50 50 52 50 50 52 50 50 52 50 50 52 50 50 52 50 50 52 50 50 52 50 50 52 50 50 52 50 50 52 50 50 52 50 50 52 50 50 52 50 50 52 50 50 52 50 50 52 50 50 52 50 50 52 50 50 52 50 50 52 50 50 52 50 50 52 50 50 52 50 50 52 50 50 52 50 50 52 50 50 52 50 50 52 50 50 52 50 50 52 50 50 52 50 50 52 50 50 52 50 50 52 50 50 52 50 50 52 50 50 52 50 50 52 50 50 52 50 50 52 50 50 52 50 50 52 50 50 52 50 50 52 50 50 52 50 50 52 50 50 52 50 50
52 50 50 52 50 50 52 50 50 52 50 50 52 50 50 52 50 50 52 50 50 52 50 50 52 50 50 52 50 50 52 50 50 52 50 50 52 50 50 52 50 50 52 50 50 52 50 50 52 50 50 52 50 50 52 50 50 52 50 50 52 50 50 52 50 50 52 50 50 52 50 50 52 50 50 52 50 50 52 50 50 52 50 50 52 50 50 52 50 50 52 50 50 52 50 50 52 50 50 52 50 50 52 50 50 52 50 50 52 50 50 52 50 50 52 50 50 52 50 50 52 50 50 52 50 50 52 50 50 52 50 50 52 50 50 52 50 50 52 50 50 52 50 50 52 50 50 52 50 50 52 50 50 52 50 50 52 50 50 52 50 50 52 50 50 52 50 50 52 50 50 52 50 50 52 50 50 52 50 50 52 50 50 52 50 50 52 50 50 52 50 50 52 50 50 52 50 50 52 50 50 52 50 50 52 50 50 52 50 50 52 50 50 52 50 50 52 50 50 52 50 50 52 50 50 52 50 50 52 50 50 52 50 50 52 50 50 52 50 50 52 50 50 52 50 50 52 50 50 52 50 50 52 50 50 52 50 50 52 50 50 52 50 50 52 50 50 52 50 50 52 50 50 52 50 50 52 50 50 52 50 50 52 50 50 52 50 50 52 50 50 52 50 50 52 50 50 52 50 50 52 50 50 52 50 50 52 50 50 52 50 50 52 50 50 52 50 50 52 50 50 52 50 50 52 50 50 52 50 50 52 50 50 52 50 50 52 50 50 52 50 50 52 50 50 52 50 50 52 50 50 52 50 50 52 50 50 52 50 50 52 50 50 52 50 50 52 50 50 52 50 50 52 50 50 52 50 50 52 50 50 52 50 50 52 50 50 52 50 50 52 50 50 52 50 50 52 50 50 52 50 50 52 50 50 52 50 50 52 50 50 52 50 50 52 50 50 52 50 50 52 50 50 52 50 50 52 50 50 52 50 50 52 50 50 52 50 50 52 50 50 52 50 50 52 50 50 52 50 50 52 50 50 52 50 50 52 50 50 52 50 50 52 50 50 52 50 50 52 50 50 52 50 50 52 50 50 52 50 50 52 50 50 52 50 50 52 50 50 52 50 50 52 50 50 52 50 50 52 50 50 52 50 50 52 50 50 52 50 50 52 50 50 52 50 50 52 50 50 52 50 50 52 50 50 52 50 50 52 50 50 52 50 50 52 50 50 52 50 50 52 50 50 52 50 50 52 50 50 52 50 50 52 50 50 52 50 50 52 50 50 52 50 50 52 50 50 52 50 50 52 50 50 52 50 50 52 50 50 52 50 50 52 50 50 52 50 50 52 50 50 52 50 50 52 50 50 52 50 50 52 50 50 52 50 50 52 50 50 52 50 50 52 50 50 52 50 50 52 50 50 52 50 50 52 50 50 52 50 50 52 50 50 52 50 50 52 50 50 52 50 50 52 50 50 52 50 50 52 50 50 52 50 50 52 50 50 52 50 50 52 50 50 52 50 50 52 50 50 52 50 50 52 50 50 52 50 50 52 50 50 52 50 50 52 50 50 52 50 50 52 50 50 52 50 50 52 50 50 52 50 50 52 50 50 52 50 50 52 50 50 52 50 50 52 50 50 52 50 50 52 50 50 52 50 50 52 50 50 52 50 50 52 50 50 52 50 50 52 50 50 52 50 50 52 50 50 52 50 50 52 50 50 52 50 50 52 50 50 52 50 50 52 50 50 52 50 50 52 50 50 52 50 50 52 50 50 52 50 50 52 50 50 52 50 50 52 50 50 52 50 50 52 50 50 52 50 50 52 50 50 52 50 50 52 50 50 52 50 50 52 50 50 52 50 50 52 50 50 52 50 50 52 50 50 52 50 50 52 50 50 52 50 50 52 50 50 52 50 50 52 50 50 52 50 50 52 50 50 52 50 50 52 50 50 52 50 50 52 50 50 52 50 50 52 50 50 52 50 50 52 50 50 52 50 50 52 50 50 52 50 50 52 50 50 52 50 50 52 50 50 52 50 50 52 50 50 52 50 50
52 50 50 52 50 50 52 50 50 52 50 50 52 50 50 52 50 50 52 50 50 52 50 50 52 50 50 52 50 50 52 50 50 52 50 50 52 50 50 52 50 50 52 50 50 52 50 50 52 50 50 52 50 50 52 50 50 52 50 50 52 50 50 52 50 50 52 50 50 52 50 50 52 50 50 52 50 50 52 50 50 52 50 50 52 50 50 52 50 50 52 50 50 52 50 50 52 50 50 52 50 50 52 50 50 52 50 50 52 50 50 52 50 50 52 50 50 52 50 50 52 50 50 52 50 50 52 50 50 52 50 50 52 50 50 52 50 50 52 50 50 52 50 50 52 50 50 52 50 50 52 50 50 52 50 50 52 50 50 52 50 50 52 50 50 52 50 50 52 50 50 52 50 50 52 50 50 52 50 50 52 50 50 52 50 50 52 50 50 52 50 50 52 50 50 52 50 50 52 50 50 52 50 50 52 50 50 52 50 50 52 50 50 52 50 50 52 50 50 52 50 50 52 50 50 52 50 50 52 50 50 52 50 50 52 50 50 52 50 50 52 50 50 52 50 50 52 50 50 52 50 50 52 50 50 52 50 50 52 50 50 52 50 50 52 50 50 52 50 50 52 50 50 52 50 50 52 50 50 52 50 50 52 50 50 52 50 50 52 50 50 52 50 50 52 50 50 52 50 50 52 50 50 52 50 50 52 50 50 52 50 50 52 50 50 52 50 50 52 50 50 52 50 50 52 50 50 52 50 50 52 50 50 52 50 50 52 50 50 52 50 50 52 50 50 52 50 50 52 50 50 52 50 50 52 50 50 52 50 50 52 50 50 52 50 50 52 50 50 52 50 50 52 50 50 52 50 50 52 50 50 52 50 50 52 50 50 52 50 50 52 50 50 52 50 50 52 50 50 52 50 50 52 50 50 52 50 50 52 50 50 52 50 50 52 50 50 52 50 50 52 50 50 52 50 50 52 50 50 52 50 50 52 50 50 52 50 50 52 50 50 52 50 50 52 50 50 52 50 50 52 50 50 52 50 50 52 50 50 52 50 50 52 50 50 52 50 50 52 50 50 52 50 50 52 50 50 52 50 50 52 50 50 52 50 50 52 50 50 52 50 50 52 50 50 52 50 50 52 50 50 52 50 50 52 50 50 52 50 50 52 50 50 52 50 50 52 50 50 52 50 50 52 50 50 52 50 50 52 50 50 52 50 50 52 50 50 52 50 50 52 50 50 52 50 50 52 50 50 52 50 50 52 50 50 52 50 50 52 50 50 52 50 50 52 50 50 52 50 50 52 50 50 52 50 50 52 50 50 52 50 50 52 50 50 52 50 50 52 50 50 52 50 50 52 50 50 52 50 50 52 50 50 52 50 50 52 50 50 52 50 50 52 50 50 52 50 50 52 50 50 52 50 50 52 50 50 52 50 50 52 50 50 52 50 50 52 50 50 52 50 50 52 50 50 52 50 50 52 50 50 52 50 50 52 50 50 52 50 50 52 50 50 52 50 50 52 50 50 52 50 50 52 50 50 52 50 50 52 50 50 52 50 50 52 50 50 52 50 50 52 50 50 52 50 50 52 50 50 52 50 50 52 50 50 52 50 50 52 50 50 52 50 50 52 50 50 52 50 50 52 50 50 52 50 50 52 50 50 52 50 50 52 50 50 52 50 50 52 50 50 52 50 50 52 50 50 52 50 50 52 50 50 52 50 50 52 50 50 52 50 50 52 50 50 52 50 50 52 50 50 52 50 50 52 50 50 52 50 50 52 50 50 52 50 50 52 50 50 52 50 50 52 50 50 52 50 50 52 50 50 52 50 50 52 50 50 52 50 50 52 50 50 52 50 50 52 50 50 52 50 50 52 50 50 52 50 50 52 50 50 52 50 50 52 50 50 52 50 50 52 50 50 52 50 50 52 50 50 52 50 50 52 50 50 52 50 50 52 50 50 52 50 50 52 50 50 52 50 50 52 50 50 52 50 50 52 50 50 52 50 50 52 50 50 52 50 50 52 50 50 52 50 50 52 50 50 52 50 50
52 50 50 52 50 50 52 50 50 52 50 50 52 50 50 52 50 50 52 50 50 52 50 50 52 50 50 52 50 50 52 50 50 52 50 50 52 50 50 52 50 50 52 50 50 52 50 50 52 50 50 52 50 50 52 50 50 52 50 50 52 50 50 52 50 50 52 50 50 52 50 50 52 50 50 52 50 50 52 50 50 52 50 50 52 50 50 52 50 50 52 50 50 52 50 50 52 50 50 52 50 50 52 50 50 52 50 50 52 50 50 52 50 50 52 50 50 52 50 50 52 50 50 52 50 50 52 50 50 52 50 50 52 50 50 52 50 50 52 50 50 52 50 50 52 50 50 52 50 50 52 50 50 52 50 50 52 50 50 52 50 50 52 50 50 52 50 50 52 50 50 52 50 50 52 50 50 52 50 50 52 50 50 52 50 50 52 50 50 52 50 50 52 50 50 52 50 50 52 50 50 52 50 50 52 50 50 52 50 50 52 50 50 52 50 50 52 50 50 52 50 50 52 50 50 52 50 50 52 50 50 52 50 50 52 50 50 52 50 50 52 50 50 52 50 50 52 50 50 52 50 50 52 50 50 52 50 50 52 50 50 52 50 50 52 50 50 52 50 50 52 50 50 52 50 50 52 50 50 52 50 50 52 50 50 52 50 50 52 50 50 52 50 50 52 50 50 52 50 50 52 50 50 52 50 50 52 50 50 52 50 50 52 50 50 52 50 50 52 50 50 52 50 50 52 50 50 52 50 50 52 50 50 52 50 50 52 50 50 52 50 50 52 50 50 52 50 50 52 50 50 52 50 50 52 50 50 52 50 50 52 50 50 52 50 50 52 50 50 52 50 50 52 50 50 52 50 50 52 50 50 52 50 50 52 50 50 52 50 50 52 50 50 52 50 50 52 50 50 52 50 50 52 50 50 52 50 50 52 50 50 52 50 50 52 50 50 52 50 50 52 50 50 52 50 50 52 50 50 52 50 50 52 50 50 52 50 50 52 50 50 52 50 50 52 50 50 52 50 50 52 50 50 52 50 50 52 50 50 52 50 50 52 50 50 52 50 50 52 50 50 52 50 50 52 50 50 52 50 50 52 50 50 52 50 50 52 50 50 52 50 50 52 50 50 52 50 50 52 50 50 52 50 50 52 50 50 52 50 50 52 50 50 52 50 50 52 50 50 52 50 50 52 50 50 52 50 50 52 50 50 52 50 50 52 50 50 52 50 50 52 50 50 52 50 50 52 50 50 52 50 50 52 50 50 52 50 50 52 50 50 52 50 50 52 50 50 52 50 50 52 50 50 52 50 50 52 50 50 52 50 50 52 50 50 52 50 50 52 50 50 52 50 50 52 50 50 52 50 50 52 50 50 52 50 50 52 50 50 52 50 50 52 50 50 52 50 50 52 50 50 52 50 50 52 50 50 52 50 50 52 50 50 52 50 50 52 50 50 52 50 50 52 50 50 52 50 50 52 50 50 52 50 50 52 50 50 52 50 50 52 50 50 52 50 50 52 50 50 52 50 50 52 50 50 52 50 50 52 50 50 52 50 50 52 50 50 52 50 50 52 50 50 52 50 50 52 50 50 52 50 50 52 50 50 52 50 50 52 50 50 52 50 50 52 50 50 52 50 50 52 50 50 52 50 50 52 50 50 52 50 50 52 50 50 52 50 50 52 50 50 52 50 50 52 50 50 52 50 50 52 50 50 52 50 50 52 50 50 52 50 50 52 50 50 52 50 50 52 50 50 52 50 50 52 50 50 52 50 50 52 50 50 52 50 50 52 50 50 52 50 50 52 50 50 52 50 50 52 50 50 52 50 50 52 50 50 52 50 50 52 50 50 52 50 50 52 50 50 52 50 50 52 50 50 52 50 50 52 50 50 52 50 50 52 50 50 52 50 50 52 50 50 52 50 50 52 50 50 52 50 50 52 50 50 52 50 50 52 50 50 52 50 50 52 50 50 52 50 50 52 50 50 52 50 50 52 50 50 52 50 50 52 50 50 52 50 50 52 50 50 52 50 50 52 50 50 52 50 50
52 50 50 52 50 50 52 50 50 52 50 50 52 50 50 52 50 50 52 50 50 52 50 50 52 50 50 52 50 50 52 50 50 52 50 50 52 50 50 52 50 50 52 50 50 52 50 50 52 50 50 52 50 50 52 50 50 52 50 50 52 50 50 52 50 50 52 50 50 52 50 50 52 50 50 52 50 50 52 50 50 52 50 50 52 50 50 52 50 50 52 50 50 52 50 50 52 50 50 52 50 50 52 50 50 52 50 50 52 50 50 52 50 50 52 50 50 52 50 50 52 50 50 52 50 50 52 50 50 52 50 50 52 50 50 52 50 50 52 50 50 52 50 50 52 50 50 52 50 50 52 50 50 52 50 50 52 50 50 52 50 50 52 50 50 52 50 50 52 50 50 52 50 50 52 50 50 52 50 50 52 50 50 52 50 50 52 50 50 52 50 50 52 50 50 52 50 50 52 50 50 52 50 50 52 50 50 52 50 50 52 50 50 52 50 50 52 50 50 52 50 50 52 50 50 52 50 50 52 50 50 52 50 50 52 50 50 52 50 50 52 50 50 52 50 50 52 50 50 52 50 50 52 50 50 52 50 50 52 50 50 52 50 50 52 50 50 52 50 50 52 50 50 52 50 50 52 50 50 52 50 50 52 50 50 52 50 50 52 50 50 52 50 50 52 50 50 52 50 50 52 50 50 52 50 50 52 50 50 52 50 50 52 50 50 52 50 50 52 50 50 52 50 50 52 50 50 52 50 50 52 50 50 52 50 50 52 50 50 52 50 50 52 50 50 52 50 50 52 50 50 52 50 50 52 50 50 52 50 50 52 50 50 52 50 50 52 50 50 52 50 50 52 50 50 52 50 50 52 50 50 52 50 50 52 50 50 52 50 50 52 50 50 52 50 50 52 50 50 52 50 50 52 50 50 52 50 50 52 50 50 52 50 50 52 50 50 52 50 50 52 50 50 52 50 50 52 50 50 52 50 50 52 50 50 52 50 50 52 50 50 52 50 50 52 50 50 52 50 50 52 50 50 52 50 50 52 50 50 52 50 50 52 50 50 52 50 50 52 50 50 52 50 50 52 50 50 52 50 50 52 50 50 52 50 50 52 50 50 52 50 50 52 50 50 52 50 50 52 50 50 52 50 50 52 50 50 52 50 50 52 50 50 52 50 50 52 50 50 52 50 50 52 50 50 52 50 50 52 50 50 52 50 50 52 50 50 52 50 50 52 50 50 52 50 50 52 50 50 52 50 50 52 50 50 52 50 50 52 50 50 52 50 50 52 50 50 52 50 50 52 50 50 52 50 50 52 50 50 52 50 50 52 50 50 52 50 50 52 50 50 52 50 50 52 50 50 52 50 50 52 50 50 52 50 50 52 50 50 52 50 50 52 50 50 52 50 50 52 50 50 52 50 50 52 50 50 52 50 50 52 50 50 52 50 50 52 50 50 52 50 50 52 50 50 52 50 50 52 50 50 52 50 50 52 50 50 52 50 50 52 50 50 52 50 50 52 50 50 52 50 50 52 50 50 52 50 50 52 50 50 52 50 50 52 50 50 52 50 50 52 50 50 52 50 50 52 50 50 52 50 50 52 50 50 52 50 50 52 50 50 52 50 50 52 50 50 52 50 50 52 50 50 52 50 50 52 50 50 52 50 50 52 50 50 52 50 50 52 50 50 52 50 50 52 50 50 52 50 50 52 50 50 52 50 50 52 50 50 52 50 50 52 50 50 52 50 50 52 50 50 52 50 50 52 50 50 52 50 50 52 50 50 52 50 50 52 50 50 52 50 50 52 50 50 52 50 50 52 50 50 52 50 50 52 50 50 52 50 50 52 50 50 52 50 50 52 50 50 52 50 50 52 50 50 52 50 50 52 50 50 52 50 50 52 50 50 52 50 50 52 50 50 52 50 50 52 50 50 52 50 50 52 50 50 52 50 50 52 50 50 52 50 50 52 50 50 52 50 50 52 50 50 52 50 50 52 50 50 52 50 50 52 50 50 52 50 50 52 50 50 52 50 50 52 50 50 52 50 50
52 50 50 52 50 50 52 50 50 52 50 50 52 50 50 52 50 50 52 50 50 52 50 50 52 50 50 52 50 50 52 50 50 52 50 50 52 50 50 52 50 50 52 50 50 52 50 50 52 50 50 52 50 50 52 50 50 52 50 50 52 50 50 52 50 50 52 50 50 52 50 50 52 50 50 52 50 50 52 50 50 52 50 50 52 50 50 52 50 50 52 50 50 52 50 50 52 50 50 52 50 50 52 50 50 52 50 50 52 50 50 52 50 50 52 50 50 52 50 50 52 50 50 52 50 50 52 50 50 52 50 50 52 50 50 52 50 50 52 50 50 52 50 50 52 50 50 52 50 50 52 50 50 52 50 50 52 50 50 52 50 50 52 50 50 52 50 50 52 50 50 52 50 50 52 50 50 52 50 50 52 50 50 52 50 50 52 50 50 52 50 50 52 50 50 52 50 50 52 50 50 52 50 50 52 50 50 52 50 50 52 50 50 52 50 50 52 50 50 52 50 50 52 50 50 52 50 50 52 50 50 52 50 50 52 50 50 52 50 50 52 50 50 52 50 50 52 50 50 52 50 50 52 50 50 52 50 50 52 50 50 52 50 50 52 50 50 52 50 50 52 50 50 52 50 50 52 50 50 52 50 50 52 50 50 52 50 50 52 50 50 52 50 50 52 50 50 52 50 50 52 50 50 52 50 50 52 50 50 52 50 50 52 50 50 52 50 50 52 50 50 52 50 50 52 50 50 52 50 50 52 50 50 52 50 50 52 50 50 52 50 50 52 50 50 52 50 50 52 50 50 52 50 50 52 50 50 52 50 50 52 50 50 52 50 50 52 50 50 52 50 50 52 50 50 52 50 50 52 50 50 52 50 50 52 50 50 52 50 50 52 50 50 52 50 50 52 50 50 52 50 50 52 50 50 52 50 50 52 50 50 52 50 50 52 50 50 52 50 50 52 50 50 52 50 50 52 50 50 52 50 50 52 50 50 52 50 50 52 50 50 52 50 50 52 50 50 52 50 50 52 50 50 52 50 50 52 50 50 52 50 50 52 50 50 52 50 50 52 50 50 52 50 50 52 50 50 52 50 50 52 50 50 52 50 50 52 50 50 52 50 50 52 50 50 52 50 50 52 50 50 52 50 50 52 50 50 52 50 50 52 50 50 52 50 50 52 50 50 52 50 50 52 50 50 52 50 50 52 50 50 52 50 50 52 50 50 52 50 50 52 50 50 52 50 50 52 50 50 52 50 50 52 50 50 52 50 50 52 50 50 52 50 50 52 50 50 52 50 50 52 50 50 52 50 50 52 50 50 52 50 50 52 50 50 52 50 50 52 50 50 52 50 50 52 50 50 52 50 50 52 50 50 52 50 50 52 50 50 52 50 50 52 50 50 52 50 50 52 50 50 52 50 50 52 50 50 52 50 50 52 50 50 52 50 50 52 50 50 52 50 50 52 50 50 52 50 50 52 50 50 52 50 50 52 50 50 52 50 50 52 50 50 52 50 50 52 50 50 52 50 50 52 50 50 52 50 50 52 50 50 52 50 50 52 50 50 52 50 50 52 50 50 52 50 50 52 50 50 52 50 50 52 50 50 52 50 50 52 50 50 52 50 50 52 50 50 52 50 50 52 50 50 52 50 50 52 50 50 52 50 50 52 50 50 52 50 50 52 50 50 52 50 50 52 50 50 52 50 50 52 50 50 52 50 50 52 50 50 52 50 50 52 50 50 52 50 50 52 50 50 52 50 50 52 50 50 52 50 50 52 50 50 52 50 50 52 50 50 52 50 50 52 50 50 52 50 50 52 50 50 52 50 50 52 50 50 52 50 50 52 50 50 52 50 50 52 50 50 52 50 50 52 50 50 52 50 50 52 50 50 52 50 50 52 50 50 52 50 50 52 50 50 52 50 50 52 50 50 52 50 50 52 50 50 52 50 50 52 50 50 52 50 50 52 50 50 52 50 50 52 50 50 52 50 50 52 50 50 52 50 50 52 50 50 52 50 50 52 50 50 52 50 50 52 50 50 52 50 50
52 50 50 52 50 50 52 50 50 52 50 50 52 50 50 52 50 50 52 50 50 52 50 50 52 50 50 52 50 50 52 50 50 52 50 50 52 50 50 52 50 50 52 50 50 52 50 50 52 50 50 52 50 50 52 50 50 52 50 50 52 50 50 52 50 50 52 50 50 52 50 50 52 50 50 52 50 50 52 50 50 52 50 50 52 50 50 52 50 50 52 50 50 52 50 50 52 50 50 52 50 50 52 50 50 52 50 50 52 50 50 52 50 50 52 50 50 52 50 50 52 50 50 52 50 50 52 50 50 52 50 50 52 50 50 52 50 50 52 50 50 52 50 50 52 50 50 52 50 50 52 50 50 52 50 50 52 50 50 52 50 50 52 50 50 52 50 50 52 50 50 52 50 50 52 50 50 52 50 50 52 50 50 52 50 50 52 50 50 52 50 50 52 50 50 52 50 50 52 50 50 52 50 50 52 50 50 52 50 50 52 50 50 52 50 50 52 50 50 52 50 50 52 50 50 52 50 50 52 50 50 52 50 50 52 50 50 52 50 50 52 50 50 52 50 50 52 50 50 52 50 50 52 50 50 52 50 50 52 50 50 52 50 50 52 50 50 52 50 50 52 50 50 52 50 50 52 50 50 52 50 50 52 50 50 52 50 50 52 50 50 52 50 50 52 50 50 52 50 50 52 50 50 52 50 50 52 50 50 52 50 50 52 50 50 52 50 50 52 50 50 52 50 50 52 50 50 52 50 50 52 50 50 52 50 50 52 50 50 52 50 50 52 50 50 52 50 50 52 50 50 52 50 50 52 50 50 52 50 50 52 50 50 52 50 50 52 50 50 52 50 50 52 50 50 52 50 50 52 50 50 52 50 50 52 50 50 52 50 50 52 50 50 52 50 50 52 50 50 52 50 50 52 50 50 52 50 50 52 50 50 52 50 50 52 50 50 52 50 50 52 50 50 52 50 50 52 50 50 52 50 50 52 50 50 52 50 50 52 50 50 52 50 50 52 50 50 52 50 50 52 50 50 52 50 50 52 50 50 52 50 50 52 50 50 52 50 50 52 50 50 52 50 50 52 50 50 52 50 50 52 50 50 52 50 50 52 50 50 52 50 50 52 50 50 52 50 50 52 50 50 52 50 50 52 50 50 52 50 50 52 50 50 52 50 50 52 50 50 52 50 50 52 50 50 52 50 50 52 50 50 52 50 50 52 50 50 52 50 50 52 50 50 52 50 50 52 50 50 52 50 50 52 50 50 52 50 50 52 50 50 52 50 50 52 50 50 52 50 50 52 50 50 52 50 50 52 50 50 52 50 50 52 50 50 52 50 50 52 50 50 52 50 50 52 50 50 52 50 50 52 50 50 52 50 50 52 50 50 52 50 50 52 50 50 52 50 50 52 50 50 52 50 50 52 50 50 52 50 50 52 50 50 52 50 50 52 50 50 52 50 50 52 50 50 52 50 50 52 50 50 52 50 50 52 50 50 52 50 50 52 50 50 52 50 50 52 50 50 52 50 50 52 50 50 52 50 50 52 50 50 52 50 50 52 50 50 52 50 50 52 50 50 52 50 50 52 50 50 52 50 50 52 50 50 52 50 50 52 50 50 52 50 50 52 50 50 52 50 50 52 50 50 52 50 50 52 50 50 52 50 50 52 50 50 52 50 50 52 50 50 52 50 50 52 50 50 52 50 50 52 50 50 52 50 50 52 50 50 52 50 50 52 50 50 52 50 50 52 50 50 52 50 50 52 50 50 52 50 50 52 50 50 52 50 50 52 50 50 52 50 50 52 50 50 52 50 50 52 50 50 52 50 50 52 50 50 52 50 50 52 50 50 52 50 50 52 50 50 52 50 50 52 50 50 52 50 50 52 50 50 52 50 50 52 50 50 52 50 50 52 50 50 52 50 50 52 50 50 52 50 50 52 50 50 52 50 50 52 50 50 52 50 50 52 50 50 52 50 50 52 50 50 52 50 50 52 50 50 52 50 50 52 50 50 52 50 50 52 50 50 52 50 50 52 50 50 52 50 50
52 50 50 52 50 50 52 50 50 52 50 50 52 50 50 52 50 50 52 50 50 52 50 50 52 50 50 52 50 50 52 50 50 52 50 50 52 50 50 52 50 50 52 50 50 52 50 50 52 50 50 52 50 50 52 50 50 52 50 50 52 50 50 52 50 50 52 50 50 52 50 50 52 50 50 52 50 50 52 50 50 52 50 50 52 50 50 52 50 50 52 50 50 52 50 50 52 50 50 52 50 50 52 50 50 52 50 50 52 50 50 52 50 50 52 50 50 52 50 50 52 50 50 52 50 50 52 50 50 52 50 50 52 50 50 52 50 50 52 50 50 52 50 50 52 50 50 52 50 50 52 50 50 52 50 50 52 50 50 52 50 50 52 50 50 52 50 50 52 50 50 52 50 50 52 50 50 52 50 50 52 50 50 52 50 50 52 50 50 52 50 50 52 50 50 52 50 50 52 50 50 52 50 50 52 50 50 52 50 50 52 50 50 52 50 50 52 50 50 52 50 50 52 50 50 52 50 50 52 50 50 52 50 50 52 50 50 52 50 50 52 50 50 52 50 50 52 50 50 52 50 50 52 50 50 52 50 50 52 50 50 52 50 50 52 50 50 52 50 50 52 50 50 52 50 50 52 50 50 52 50 50 52 50 50 52 50 50 52 50 50 52 50 50 52 50 50 52 50 50 52 50 50 52 50 50 52 50 50 52 50 50 52 50 50 52 50 50 52 50 50 52 50 50 52 50 50 52 50 50 52 50 50 52 50 50 52 50 50 52 50 50 52 50 50 52 50 50 52 50 50 52 50 50 52 50 50 52 50 50 52 50 50 52 50 50 52 50 50 52 50 50 52 50 50 52 50 50 52 50 50 52 50 50 52 50 50 52 50 50 52 50 50 52 50 50 52 50 50 52 50 50 52 50 50 52 50 50 52 50 50 52 50 50 52 50 50 52 50 50 52 50 50 52 50 50 52 50 50 52 50 50 52 50 50 52 50 50 52 50 50 52 50 50 52 50 50 52 50 50 52 50 50 52 50 50 52 50 50 52 50 50 52 50 50 52 50 50 52 50 50 52 50 50 52 50 50 52 50 50 52 50 50 52 50 50 52 50 50 52 50 50 52 50 50 52 50 50 52 50 50 52 50 50 52 50 50 52 50 50 52 50 50 52 50 50 52 50 50 52 50 50 52 50 50 52 50 50 52 50 50 52 50 50 52 50 50 52 50 50 52 50 50 52 50 50 52 50 50 52 50 50 52 50 50 52 50 50 52 50 50 52 50 50 52 50 50 52 50 50 52 50 50 52 50 50 52 50 50 52 50 50 52 50 50 52 50 50 52 50 50 52 50 50 52 50 50 52 50 50 52 50 50 52 50 50 52 50 50 52 50 50 52 50 50 52 50 50 52 50 50 52 50 50 52 50 50 52 50 50 52 50 50 52 50 50 52 50 50 52 50 50 52 50 50 52 50 50 52 50 50 52 50 50 52 50 50 52 50 50 52 50 50 52 50 50 52 50 50 52 50 50 52 50 50 52 50 50 52 50 50 52 50 50 52 50 50 52 50 50 52 50 50 52 50 50 52 50 50 52 50 50 52 50 50 52 50 50 52 50 50 52 50 50 52 50 50 52 50 50 52 50 50 52 50 50 52 50 50 52 50 50 52 50 50 52 50 50 52 50 50 52 50 50 52 50 50 52 50 50 52 50 50 52 50 50 52 50 50 52 50 50 52 50 50 52 50 50 52 50 50 52 50 50 52 50 50 52 50 50 52 50 50 52 50 50 52 50 50 52 50 50 52 50 50 52 50 50 52 50 50 52 50 50 52 50 50 52 50 50 52 50 50 52 50 50 52 50 50 52 50 50 52 50 50 52 50 50 52 50 50 52 50 50 52 50 50 52 50 50 52 50 50 52 50 50 52 50 50 52 50 50 52 50 50 52 50 50 52 50 50 52 50 50 52 50 50 52 50 50 52 50 50 52 50 50 52 50 50 52 50 50 52 50 50 52 50 50 52 50 50 52 50 50 52 50 50 52 50 50
52 50 50 52 50 50 52 50 50 52 50 50 52 50 50 52 50 50 52 50 50 52 50 50 52 50 50 52 50 50 52 50 50 52 50 50 52 50 50 52 50 50 52 50 50 52 50 50 52 50 50 52 50 50 52 50 50 52 50 50 52 50 50 52 50 50 52 50 50 52 50 50 52 50 50 52 50 50 52 50 50 52 50 50 52 50 50 52 50 50 52 50 50 52 50 50 52 50 50 52 50 50 52 50 50 52 50 50 52 50 50 52 50 50 52 50 50 52 50 50 52 50 50 52 50 50 52 50 50 52 50 50 52 50 50 52 50 50 52 50 50 52 50 50 52 50 50 52 50 50 52 50 50 52 50 50 52 50 50 52 50 50 52 50 50 52 50 50 52 50 50 52 50 50 52 50 50 52 50 50 52 50 50 52 50 50 52 50 50 52 50 50 52 50 50 52 50 50 52 50 50 52 50 50 52 50 50 52 50 50 52 50 50 52 50 50 52 50 50 52 50 50 52 50 50 52 50 50 52 50 50 52 50 50 52 50 50 52 50 50 52 50 50 52 50 50 52 50 50 52 50 50 52 50 50 52 50 50 52 50 50 52 50 50 52 50 50 52 50 50 52 50 50 52 50 50 52 50 50 52 50 50 52 50 50 52 50 50 52 50 50 52 50 50 52 50 50 52 50 50 52 50 50 52 50 50 52 50 50 52 50 50 52 50 50 52 50 50 52 50 50 52 50 50 52 50 50 52 50 50 52 50 50 52 50 50 52 50 50 52 50 50 52 50 50 52 50 50 52 50 50 52 50 50 52 50 50 52 50 50 52 50 50 52 50 50 52 50 50 52 50 50 52 50 50 52 50 50 52 50 50 52 50 50 52 50 50 52 50 50 52 50 50 52 50 50 52 50 50 52 50 50 52 50 50 52 50 50 52 50 50 52 50 50 52 50 50 52 50 50 52 50 50 52 50 50 52 50 50 52 50 50 52 50 50 52 50 50 52 50 50 52 50 50 52 50 50 52 50 50 52 50 50 52 50 50 52 50 50 52 50 50 52 50 50 52 50 50 52 50 50 52 50 50 52 50 50 52 50 50 52 50 50 52 50 50 52 50 50 52 50 50 52 50 50 52 50 50 52 50 50 52 50 50 52 50 50 52 50 50 52 50 50 52 50 50 52 50 50 52 50 50 52 50 50 52 50 50 52 50 50 52 50 50 52 50 50 52 50 50 52 50 50 52 50 50 52 50 50 52 50 50 52 50 50 52 50 50 52 50 50 52 50 50 52 50 50 52 50 50 52 50 50 52 50 50 52 50 50 52 50 50 52 50 50 52 50 50 52 50 50 52 50 50 52 50 50 52 50 50 52 50 50 52 50 50 52 50 50 52 50 50 52 50 50 52 50 50 52 50 50 52 50 50 52 50 50 52 50 50 52 50 50 52 50 50 52 50 50 52 50 50 52 50 50 52 50 50 52 50 50 52 50 50 52 50 50 52 50 50 52 50 50 52 50 50 52 50 50 52 50 50 52 50 50 52 50 50 52 50 50 52 50 50 52 50 50 52 50 50 52 50 50 52 50 50 52 50 50 52 50 50 52 50 50 52 50 50 52 50 50 52 50 50 52 50 50 52 50 50 52 50 50 52 50 50 52 50 50 52 50 50 52 50 50 52 50 50 52 50 50 52 50 50 52 50 50 52 50 50 52 50 50 52 50 50 52 50 50 52 50 50 52 50 50 52 50 50 52 50 50 52 50 50 52 50 50 52 50 50 52 50 50 52 50 50 52 50 50 52 50 50 52 50 50 52 50 50 52 50 50 52 50 50 52 50 50 52 50 50 52 50 50 52 50 50 52 50 50 52 50 50 52 50 50 52 50 50 52 50 50 52 50 50 52 50 50 52 50 50 52 50 50 52 50 50 52 50 50 52 50 50 52 50 50 52 50 50 52 50 50 52 50 50 52 50 50 52 50 50 52 50 50 52 50 50 52 50 50 52 50 50 52 50 50 52 50 50 52 50 50 52 50 50 52 50 50 52 50 50
52 50 50 52 50 50 52 50 50 52 50 50 52 50 50 52 50 50 52 50 50 52 50 50 52 50 50 52 50 50 52 50 50 52 50 50 52 50 50 52 50 50 52 50 50 52 50 50 52 50 50 52 50 50 52 50 50 52 50 50 52 50 50 52 50 50 52 50 50 52 50 50 52 50 50 52 50 50 52 50 50 52 50 50 52 50 50 52 50 50 52 50 50 52 50 50 52 50 50 52 50 50 52 50 50 52 50 50 52 50 50 52 50 50 52 50 50 52 50 50 52 50 50 52 50 50 52 50 50 52 50 50 52 50 50 52 50 50 52 50 50 52 50 50 52 50 50 52 50 50 52 50 50 52 50 50 52 50 50 52 50 50 52 50 50 52 50 50 52 50 50 52 50 50 52 50 50 52 50 50 52 50 50 52 50 50 52 50 50 52 50 50 52 50 50 52 50 50 52 50 50 52 50 50 52 50 50 52 50 50 52 50 50 52 50 50 52 50 50 52 50 50 52 50 50 52 50 50 52 50 50 52 50 50 52 50 50 52 50 50 52 50 50 52 50 50 52 50 50 52 50 50 52 50 50 52 50 50 52 50 50 52 50 50 52 50 50 52 50 50 52 50 50 52 50 50 52 50 50 52 50 50 52 50 50 52 50 50 52 50 50 52 50 50 52 50 50 52 50 50 52 50 50 52 50 50 52 50 50 52 50 50 52 50 50 52 50 50 52 50 50 52 50 50 52 50 50 52 50 50 52 50 50 52 50 50 52 50 50 52 50 50 52 50 50 52 50 50 52 50 50 52 50 50 52 50 50 52 50 50 52 50 50 52 50 50 52 50 50 52 50 50 52 50 50 52 50 50 52 50 50 52 50 50 52 50 50 52 50 50 52 50 50 52 50 50 52 50 50 52 50 50 52 50 50 52 50 50 52 50 50 52 50 50 52 50 50 52 50 50 52 50 50 52 50 50 52 50 50 52 50 50 52 50 50 52 50 50 52 50 50 52 50 50 52 50 50 52 50 50 52 50 50 52 50 50 52 50 50 52 50 50 52 50 50 52 50 50 52 50 50 52 50 50 52 50 50 52 50 50 52 50 50 52 50 50 52 50 50 52 50 50 52 50 50 52 50 50 52 50 50 52 50 50 52 50 50 52 50 50 52 50 50 52 50 50 52 50 50 52 50 50 52 50 50 52 50 50 52 50 50 52 50 50 52 50 50 52 50 50 52 50 50 52 50 50 52 50 50 52 50 50 52 50 50 52 50 50 52 50 50 52 50 50 52 50 50 52 50 50 52 50 50 52 50 50 52 50 50 52 50 50 52 50 50 52 50 50 52 50 50 52 50 50 52 50 50 52 50 50 52 50 50 52 50 50 52 50 50 52 50 50 52 50 50 52 50 50 52 50 50 52 50 50 52 50 50 52 50 50 52 50 50 52 50 50 52 50 50 52 50 50 52 50 50 52 50 50 52 50 50 52 50 50 52 50 50 52 50 50 52 50 50 52 50 50 52 50 50 52 50 50 52 50 50 52 50 50 52 50 50 52 50 50 52 50 50 52 50 50 52 50 50 52 50 50 52 50 50 52 50 50 52 50 50 52 50 50 52 50 50 52 50 50 52 50 50 52 50 50 52 50 50 52 50 50 52 50 50 52 50 50 52 50 50 52 50 50 52 50 50 52 50 50 52 50 50 52 50 50 52 50 50 52 50 50 52 50 50 52 50 50 52 50 50 52 50 50 52 50 50 52 50 50 52 50 50 52 50 50 52 50 50 52 50 50 52 50 50 52 50 50 52 50 50 52 50 50 52 50 50 52 50 50 52 50 50 52 50 50 52 50 50 52 50 50 52 50 50 52 50 50 52 50 50 52 50 50 52 50 50 52 50 50 52 50 50 52 50 50 52 50 50 52 50 50 52 50 50 52 50 50 52 50 50 52 50 50 52 50 50 52 50 50 52 50 50 52 50 50 52 50 50 52 50 50 52 50 50 52 50 50 52 50 50 52 50 50 52 50 50 52 50 50 52 50 50 52 50 50
52 50 50 52 50 50 52 50 50 52 50 50 52 50 50 52 50 50 52 50 50 52 50 50 52 50 50 52 50 50 52 50 50 52 50 50 52 50 50 52 50 50 52 50 50 52 50 50 52 50 50 52 50 50 52 50 50 52 50 50 52 50 50 52 50 50 52 50 50 52 50 50 52 50 50 52 50 50 52 50 50 52 50 50 52 50 50 52 50 50 52 50 50 52 50 50 52 50 50 52 50 50 52 50 50 52 50 50 52 50 50 52 50 50 52 50 50 52 50 50 52 50 50 52 50 50 52 50 50 52 50 50 52 50 50 52 50 50 52 50 50 52 50 50 52 50 50 52 50 50 52 50 50 52 50 50 52 50 50 52 50 50 52 50 50 52 50 50 52 50 50 52 50 50 52 50 50 52 50 50 52 50 50 52 50 50 52 50 50 52 50 50 52 50 50 52 50 50 52 50 50 52 50 50 52 50 50 52 50 50 52 50 50 52 50 50 52 50 50 52 50 50 52 50 50 52 50 50 52 50 50 52 50 50 52 50 50 52 50 50 52 50 50 52 50 50 52 50 50 52 50 50 52 50 50 52 50 50 52 50 50 52 50 50 52 50 50 52 50 50 52 50 50 52 50 50 52 50 50 52 50 50 52 50 50 52 50 50 52 50 50 52 50 50 52 50 50 52 50 50 52 50 50 52 50 50 52 50 50 52 50 50 52 50 50 52 50 50 52 50 50 52 50 50 52 50 50 52 50 50 52 50 50 52 50 50 52 50 50 52 50 50 52 50 50 52 50 50 52 50 50 52 50 50 52 50 50 52 50 50 52 50 50 52 50 50 52 50 50 52 50 50 52 50 50 52 50 50 52 50 50 52 50 50 52 50 50 52 50 50 52 50 50 52 50 50 52 50 50 52 50 50 52 50 50 52 50 50 52 50 50 52 50 50 52 50 50 52 50 50 52 50 50 52 50 50 52 50 50 52 50 50 52 50 50 52 50 50 52 50 50 52 50 50 52 50 50 52 50 50 52 50 50 52 50 50 52 50 50 52 50 50 52 50 50 52 50 50 52 50 50 52 50 50 52 50 50 52 50 50 52 50 50 52 50 50 52 50 50 52 50 50 52 50 50 52 50 50 52 50 50 52 50 50 52 50 50 52 50 50 52 50 50 52 50 50 52 50 50 52 50 50 52 50 50 52 50 50 52 50 50 52 50 50 52 50 50 52 50 50 52 50 50 52 50 50 52 50 50 52 50 50 52 50 50 52 50 50 52 50 50 52 50 50 52 50 50 52 50 50 52 50 50 52 50 50 52 50 50 52 50 50 52 50 50 52 50 50 52 50 50 52 50 50 52 50 50 52 50 50 52 50 50 52 50 50 52 50 50 52 50 50 52 50 50 52 50 50 52 50 50 52 50 50 52 50 50 52 50 50 52 50 50 52 50 50 52 50 50 52 50 50 52 50 50 52 50 50 52 50 50 52 50 50 52 50 50 52 50 50 52 50 50 52 50 50 52 50 50 52 50 50 52 50 50 52 50 50 52 50 50 52 50 50 52 50 50 52 50 50 52 50 50 52 50 50 52 50 50 52 50 50 52 50 50 52 50 50 52 50 50 52 50 50 52 50 50 52 50 50 52 50 50 52 50 50 52 50 50 52 50 50 52 50 50 52 50 50 52 50 50 52 50 50 52 50 50 52 50 50 52 50 50 52 50 50 52 50 50 52 50 50 52 50 50 52 50 50 52 50 50 52 50 50 52 50 50 52 50 50 52 50 50 52 50 50 52 50 50 52 50 50 52 50 50 52 50 50 52 50 50 52 50 50 52 50 50 52 50 50 52 50 50 52 50 50 52 50 50 52 50 50 52 50 50 52 50 50 52 50 50 52 50 50 52 50 50 52 50 50 52 50 50 52 50 50 52 50 50 52 50 50 52 50 50 52 50 50 52 50 50 52 50 50 52 50 50 52 50 50 52 50 50 52 50 50 52 50 50 52 50 50 52 50 50 52 50 50 52 50 50 52 50 50 52 50 50 52 50 50
52 50 50 52 50 50 52 50 50 52 50 50 52 50 50 52 50 50 52 50 50 52 50 50 52 50 50 52 50 50 52 50 50 52 50 50 52 50 50 52 50 50 52 50 50 52 50 50 52 50 50 52 50 50 52 50 50 52 50 50 52 50 50 52 50 50 52 50 50 52 50 50 52 50 50 52 50 50 52 50 50 52 50 50 52 50 50 52 50 50 52 50 50 52 50 50 52 50 50 52 50 50 52 50 50 52 50 50 52 50 50 52 50 50 52 50 50 52 50 50 52 50 50 52 50 50 52 50 50 52 50 50 52 50 50 52 50 50 52 50 50 52 50 50 52 50 50 52 50 50 52 50 50 52 50 50 52 50 50 52 50 50 52 50 50 52 50 50 52 50 50 52 50 50 52 50 50 52 50 50 52 50 50 52 50 50 52 50 50 52 50 50 52 50 50 52 50 50 52 50 50 52 50 50 52 50 50 52 50 50 52 50 50 52 50 50 52 50 50 52 50 50 52 50 50 52 50 50 52 50 50 52 50 50 52 50 50 52 50 50 52 50 50 52 50 50 52 50 50 52 50 50 52 50 50 52 50 50 52 50 50 52 50 50 52 50 50 52 50 50 52 50 50 52 50 50 52 50 50 52 50 50 52 50 50 52 50 50 52 50 50 52 50 50 52 50 50 52 50 50 52 50 50 52 50 50 52 50 50 52 50 50 52 50 50 52 50 50 52 50 50 52 50 50 52 50 50 52 50 50 52 50 50 52 50 50 52 50 50 52 50 50 52 50 50 52 50 50 52 50 50 52 50 50 52 50 50 52 50 50 52 50 50 52 50 50 52 50 50 52 50 50 52 50 50 52 50 50 52 50 50 52 50 50 52 50 50 52 50 50 52 50 50 52 50 50 52 50 50 52 50 50 52 50 50 52 50 50 52 50 50 52 50 50 52 50 50 52 50 50 52 50 50 52 50 50 52 50 50 52 50 50 52 50 50 52 50 50 52 50 50 52 50 50 52 50 50 52 50 50 52 50 50 52 50 50 52 50 50 52 50 50 52 50 50 52 50 50 52 50 50 52 50 50 52 50 50 52 50 50 52 50 50 52 50 50 52 50 50 52 50 50 52 50 50 52 50 50 52 50 50 52 50 50 52 50 50 52 50 50 52 50 50 52 50 50 52 50 50 52 50 50 52 50 50 52 50 50 52 50 50 52 50 50 52 50 50 52 50 50 52 50 50 52 50 50 52 50 50 52 50 50 52 50 50 52 50 50 52 50 50 52 50 50 52 50 50 52 50 50 52 50 50 52 50 50 52 50 50 52 50 50 52 50 50 52 50 50 52 50 50 52 50 50 52 50 50 52 50 50 52 50 50 52 50 50 52 50 50 52 50 50 52 50 50 52 50 50 52 50 50 52 50 50 52 50 50 52 50 50 52 50 50 52 50 50 52 50 50 52 50 50 52 50 50 52 50 50 52 50 50 52 50 50 52 50 50 52 50 50 52 50 50 52 50 50 52 50 50 52 50 50 52 50 50 52 50 50 52 50 50 52 50 50 52 50 50 52 50 50 52 50 50 52 50 50 52 50 50 52 50 50 52 50 50 52 50 50 52 50 50 52 50 50 52 50 50 52 50 50 52 50 50 52 50 50 52 50 50 52 50 50 52 50 50 52 50 50 52 50 50 52 50 50 52 50 50 52 50 50 52 50 50 52 50 50 52 50 50 52 50 50 52 50 50 52 50 50 52 50 50 52 50 50 52 50 50 52 50 50 52 50 50 52 50 50 52 50 50 52 50 50 52 50 50 52 50 50 52 50 50 52 50 50 52 50 50 52 50 50 52 50 50 52 50 50 52 50 50 52 50 50 52 50 50 52 50 50 52 50 50 52 50 50 52 50 50 52 50 50 52 50 50 52 50 50 52 50 50 52 50 50 52 50 50 52 50 50 52 50 50 52 50 50 52 50 50 52 50 50 52 50 50 52 50 50 52 50 50 52 50 50 52 50 50 52 50 50 52 50 50 52 50 50 52 50 50 52 50 50
52 50 50 52 50 50 52 50 50 52 50 50 52 50 50 52 50 50 52 50 50 52 50 50 52 50 50 52 50 50 52 50 50 52 50 50 52 50 50 52 50 50 52 50 50 52 50 50 52 50 50 52 50 50 52 50 50 52 50 50 52 50 50 52 50 50 52 50 50 52 50 50 52 50 50 52 50 50 52 50 50 52 50 50 52 50 50 52 50 50 52 50 50 52 50 50 52 50 50 52 50 50 52 50 50 52 50 50 52 50 50 52 50 50 52 50 50 52 50 50 52 50 50 52 50 50 52 50 50 52 50 50 52 50 50 52 50 50 52 50 50 52 50 50 52 50 50 52 50 50 52 50 50 52 50 50 52 50 50 52 50 50 52 50 50 52 50 50 52 50 50 52 50 50 52 50 50 52 50 50 52 50 50 52 50 50 52 50 50 52 50 50 52 50 50 52 50 50 52 50 50 52 50 50 52 50 50 52 50 50 52 50 50 52 50 50 52 50 50 52 50 50 52 50 50 52 50 50 52 50 50 52 50 50 52 50 50 52 50 50 52 50 50 52 50 50 52 50 50 52 50 50 52 50 50 52 50 50 52 50 50 52 50 50 52 50 50 52 50 50 52 50 50 52 50 50 52 50 50 52 50 50 52 50 50 52 50 50 52 50 50 52 50 50 52 50 50 52 50 50 52 50 50 52 50 50 52 50 50 52 50 50 52 50 50 52 50 50 52 50 50 52 50 50 52 50 50 52 50 50 52 50 50 52 50 50 52 50 50 52 50 50 52 50 50 52 50 50 52 50 50 52 50 50 52 50 50 52 50 50 52 50 50 52 50 50 52 50 50 52 50 50 52 50 50 52 50 50 52 50 50 52 50 50 52 50 50 52 50 50 52 50 50 52 50 50 52 50 50 52 50 50 52 50 50 52 50 50 52 50 50 52 50 50 52 50 50 52 50 50 52 50 50 52 50 50 52 50 50 52 50 50 52 50 50 52 50 50 52 50 50 52 50 50 52 50 50 52 50 50 52 50 50 52 50 50 52 50 50 52 50 50 52 50 50 52 50 50 52 50 50 52 50 50 52 50 50 52 50 50 52 50 50 52 50 50 52 50 50 52 50 50 52 50 50 52 50 50 52 50 50 52 50 50 52 50 50 52 50 50 52 50 50 52 50 50 52 50 50 52 50 50 52 50 50 52 50 50 52 50 50 52 50 50 52 50 50 52 50 50 52 50 50 52 50 50 52 50 50 52 50 50 52 50 50 52 50 50 52 50 50 52 50 50 52 50 50 52 50 50 52 50 50 52 50 50 52 50 50 52 50 50 52 50 50 52 50 50 52 50 50 52 50 50 52 50 50 52 50 50 52 50 50 52 50 50 52 50 50 52 50 50 52 50 50 52 50 50 52 50 50 52 50 50 52 50 50 52 50 50 52 50 50 52 50 50 52 50 50 52 50 50 52 50 50 52 50 50 52 50 50 52 50 50 52 50 50 52 50 50 52 50 50 52 50 50 52 50 50 52 50 50 52 50 50 52 50 50 52 50 50 52 50 50 52 50 50 52 50 50 52 50 50 52 50 50 52 50 50 52 50 50 52 50 50 52 50 50 52 50 50 52 50 50 52 50 50 52 50 50 52 50 50 52 50 50 52 50 50 52 50 50 52 50 50 52 50 50 52 50 50 52 50 50 52 50 50 52 50 50 52 50 50 52 50 50 52 50 50 52 50 50 52 50 50 52 50 50 52 50 50 52 50 50 52 50 50 52 50 50 52 50 50 52 50 50 52 50 50 52 50 50 52 50 50 52 50 50 52 50 50 52 50 50 52 50 50 52 50 50 52 50 50 52 50 50 52 50 50 52 50 50 52 50 50 52 50 50 52 50 50 52 50 50 52 50 50 52 50 50 52 50 50 52 50 50 52 50 50 52 50 50 52 50 50 52 50 50 52 50 50 52 50 50 52 50 50 52 50 50 52 50 50 52 50 50 52 50 50 52 50 50 52 50 50 52 50 50 52 50 50 52 50 50 52 50 50 52 50 50
52 50 50 52 50 50 52 50 50 52 50 50 52 50 50 52 50 50 52 50 50 52 50 50 52 50 50 52 50 50 52 50 50 52 50 50 52 50 50 52 50 50 52 50 50 52 50 50 52 50 50 52 50 50 52 50 50 52 50 50 52 50 50 52 50 50 52 50 50 52 50 50 52 50 50 52 50 50 52 50 50 52 50 50 52 50 50 52 50 50 52 50 50 52 50 50 52 50 50 52 50 50 52 50 50 52 50 50 52 50 50 52 50 50 52 50 50 52 50 50 52 50 50 52 50 50 52 50 50 52 50 50 52 50 50 52 50 50 52 50 50 52 50 50 52 50 50 52 50 50 52 50 50 52 50 50 52 50 50 52 50 50 52 50 50 52 50 50 52 50 50 52 50 50 52 50 50 52 50 50 52 50 50 52 50 50 52 50 50 52 50 50 52 50 50 52 50 50 52 50 50 52 50 50 52 50 50 52 50 50 52 50 50 52 50 50 52 50 50 52 50 50 52 50 50 52 50 50 52 50 50 52 50 50 52 50 50 52 50 50 52 50 50 52 50 50 52 50 50 52 50 50 52 50 50 52 50 50 52 50 50 52 50 50 52 50 50 52 50 50 52 50 50 52 50 50 52 50 50 52 50 50 52 50 50 52 50 50 52 50 50 52 50 50 52 50 50 52 50 50 52 50 50 52 50 50 52 50 50 52 50 50 52 50 50 52 50 50 52 50 50 52 50 50 52 50 50 52 50 50 52 50 50 52 50 50 52 50 50 52 50 50 52 50 50 52 50 50 52 50 50 52 50 50 52 50 50 52 50 50 52 50 50 52 50 50 52 50 50 52 50 50 52 50 50 52 50 50 52 50 50 52 50 50 52 50 50 52 50 50 52 50 50 52 50 50 52 50 50 52 50 50 52 50 50 52 50 50 52 50 50 52 50 50 52 50 50 52 50 50 52 50 50 52 50 50 52 50 50 52 50 50 52 50 50 52 50 50 52 50 50 52 50 50 52 50 50 52 50 50 52 50 50 52 50 50 52 50 50 52 50 50 52 50 50 52 50 50 52 50 50 52 50 50 52 50 50 52 50 50 52 50 50 52 50 50 52 50 50 52 50 50 52 50 50 52 50 50 52 50 50 52 50 50 52 50 50 52 50 50 52 50 50 52 50 50 52 50 50 52 50 50 52 50 50 52 50 50 52 50 50 52 50 50 52 50 50 52 50 50 52 50 50 52 50 50 52 50 50 52 50 50 52 50 50 52 50 50 52 50 50 52 50 50 52 50 50 52 50 50 52 50 50 52 50 50 52 50 50 52 50 50 52 50 50 52 50 50 52 50 50 52 50 50 52 50 50 52 50 50 52 50 50 52 50 50 52 50 50 52 50 50 52 50 50 52 50 50 52 50 50 52 50 50 52 50 50 52 50 50 52 50 50 52 50 50 52 50 50 52 50 50 52 50 50 52 50 50 52 50 50 52 50 50 52 50 50 52 50 50 52 50 50 52 50 50 52 50 50 52 50 50 52 50 50 52 50 50 52 50 50 52 50 50 52 50 50 52 50 50 52 50 50 52 50 50 52 50 50 52 50 50 52 50 50 52 50 50 52 50 50 52 50 50 52 50 50 52 50 50 52 50 50 52 50 50 52 50 50 52 50 50 52 50 50 52 50 50 52 50 50 52 50 50 52 50 50 52 50 50 52 50 50 52 50 50 52 50 50 52 50 50 52 50 50 52 50 50 52 50 50 52 50 50 52 50 50 52 50 50 52 50 50 52 50 50 52 50 50 52 50 50 52 50 50 52 50 50 52 50 50 52 50 50 52 50 50 52 50 50 52 50 50 52 50 50 52 50 50 52 50 50 52 50 50 52 50 50 52 50 50 52 50 50 52 50 50 52 50 50 52 50 50 52 50 50 52 50 50 52 50 50 52 50 50 52 50 50 52 50 50 52 50 50 52 50 50 52 50 50 52 50 50 52 50 50 52 50 50 52 50 50 52 50 50 52 50 50 52 50 50 52 50 50 52 50 50 52 50 50
52 50 50 52 50 50 52 50 50 52 50 50 52 50 50 52 50 50 52 50 50 52 50 50 52 50 50 52 50 50 52 50 50 52 50 50 52 50 50 52 50 50 52 50 50 52 50 50 52 50 50 52 50 50 52 50 50 52 50 50 52 50 50 52 50 50 52 50 50 52 50 50 52 50 50 52 50 50 52 50 50 52 50 50 52 50 50 52 50 50 52 50 50 52 50 50 52 50 50 52 50 50 52 50 50 52 50 50 52 50 50 52 50 50 52 50 50 52 50 50 52 50 50 52 50 50 52 50 50 52 50 50 52 50 50 52 50 50 52 50 50 52 50 50 52 50 50 52 50 50 52 50 50 52 50 50 52 50 50 52 50 50 52 50 50 52 50 50 52 50 50 52 50 50 52 50 50 52 50 50 52 50 50 52 50 50 52 50 50 52 50 50 52 50 50 52 50 50 52 50 50 52 50 50 52 50 50 52 50 50 52 50 50 52 50 50 52 50 50 52 50 50 52 50 50 52 50 50 52 50 50 52 50 50 52 50 50 52 50 50 52 50 50 52 50 50 52 50 50 52 50 50 52 50 50 52 50 50 52 50 50 52 50 50 52 50 50 52 50 50 52 50 50 52 50 50 52 50 50 52 50 50 52 50 50 52 50 50 52 50 50 52 50 50 52 50 50 52 50 50 52 50 50 52 50 50 52 50 50 52 50 50 52 50 50 52 50 50 52 50 50 52 50 50 52 50 50 52 50 50 52 50 50 52 50 50 52 50 50 52 50 50 52 50 50 52 50 50 52 50 50 52 50 50 52 50 50 52 50 50 52 50 50 52 50 50 52 50 50 52 50 50 52 50 50 52 50 50 52 50 50 52 50 50 52 50 50 52 50 50 52 50 50 52 50 50 52 50 50 52 50 50 52 50 50 52 50 50 52 50 50 52 50 50 52 50 50 52 50 50 52 50 50 52 50 50 52 50 50 52 50 50 52 50 50 52 50 50 52 50 50 52 50 50 52 50 50 52 50 50 52 50 50 52 50 50 52 50 50 52 50 50 52 50 50 52 50 50 52 50 50 52 50 50 52 50 50 52 50 50 52 50 50 52 50 50 52 50 50 52 50 50 52 50 50 52 50 50 52 50 50 52 50 50 52 50 50 52 50 50 52 50 50 52 50 50 52 50 50 52 50 50 52 50 50 52 50 50 52 50 50 52 50 50 52 50 50 52 50 50 52 50 50 52 50 50 52 50 50 52 50 50 52 50 50 52 50 50 52 50 50 52 50 50 52 50 50 52 50 50 52 50 50 52 50 50 52 50 50 52 50 50 52 50 50 52 50 50 52 50 50 52 50 50 52 50 50 52 50 50 52 50 50 52 50 50 52 50 50 52 50 50 52 50 50 52 50 50 52 50 50 52 50 50 52 50 50 52 50 50 52 50 50 52 50 50 52 50 50 52 50 50 52 50 50 52 50 50 52 50 50 52 50 50 52 50 50 52 50 50 52 50 50 52 50 50 52 50 50 52 50 50 52 50 50 52 50 50 52 50 50 52 50 50 52 50 50 52 50 50 52 50 50 52 50 50 52 50 50 52 50 50 52 50 50 52 50 50 52 50 50 52 50 50 52 50 50 52 50 50 52 50 50 52 50 50 52 50 50 52 50 50 52 50 50 52 50 50 52 50 50 52 50 50 52 50 50 52 50 50 52 50 50 52 50 50 52 50 50 52 50 50 52 50 50 52 50 50 52 50 50 52 50 50 52 50 50 52 50 50 52 50 50 52 50 50 52 50 50 52 50 50 52 50 50 52 50 50 52 50 50 52 50 50 52 50 50 52 50 50 52 50 50 52 50 50 52 50 50 52 50 50 52 50 50 52 50 50 52 50 50 52 50 50 52 50 50 52 50 50 52 50 50 52 50 50 52 50 50 52 50 50 52 50 50 52 50 50 52 50 50 52 50 50 52 50 50 52 50 50 52 50 50 52 50 50 52 50 50 52 50 50 52 50 50 52 50 50 52 50 50 52 50 50 52 50 50 52 50 50
52 50 50 52 50 50 52 50 50 52 50 50 52 50 50 52 50 50 52 50 50 52 50 50 52 50 50 52 50 50 52 50 50 52 50 50 52 50 50 52 50 50 52 50 50 52 50 50 52 50 50 52 50 50 52 50 50 52 50 50 52 50 50 52 50 50 52 50 50 52 50 50 52 50 50 52 50 50 52 50 50 52 50 50 52 50 50 52 50 50 52 50 50 52 50 50 52 50 50 52 50 50 52 50 50 52 50 50 52 50 50 52 50 50 52 50 50 52 50 50 52 50 50 52 50 50 52 50 50 52 50 50 52 50 50 52 50 50 52 50 50 52 50 50 52 50 50 52 50 50 52 50 50 52 50 50 52 50 50 52 50 50 52 50 50 52 50 50 52 50 50 52 50 50 52 50 50 52 50 50 52 50 50 52 50 50 52 50 50 52 50 50 52 50 50 52 50 50 52 50 50 52 50 50 52 50 50 52 50 50 52 50 50 52 50 50 52 50 50 52 50 50 52 50 50 52 50 50 52 50 50 52 50 50 52 50 50 52 50 50 52 50 50 52 50 50 52 50 50 52 50 50 52 50 50 52 50 50 52 50 50 52 50 50 52 50 50 52 50 50 52 50 50 52 50 50 52 50 50 52 50 50 52 50 50 52 50 50 52 50 50 52 50 50 52 50 50 52 50 50 52 50 50 52 50 50 52 50 50 52 50 50 52 50 50 52 50 50 52 50 50 52 50 50 52 50 50 52 50 50 52 50 50 52 50 50 52 50 50 52 50 50 52 50 50 52 50 50 52 50 50 52 50 50 52 50 50 52 50 50 52 50 50 52 50 50 52 50 50 52 50 50 52 50 50 52 50 50 52 50 50 52 50 50 52 50 50 52 50 50 52 50 50 52 50 50 52 50 50 52 50 50 52 50 50 52 50 50 52 50 50 52 50 50 52 50 50 52 50 50 52 50 50 52 50 50 52 50 50 52 50 50 52 50 50 52 50 50 52 50 50 52 50 50 52 50 50 52 50 50 52 50 50 52 50 50 52 50 50 52 50 50 52 50 50 52 50 50 52 50 50 52 50 50 52 50 50 52 50 50 52 50 50 52 50 50 52 50 50 52 50 50 52 50 50 52 50 50 52 50 50 52 50 50 52 50 50 52 50 50 52 50 50 52 50 50 52 50 50 52 50 50 52 50 50 52 50 50 52 50 50 52 50 50 52 50 50 52 50 50 52 50 50 52 50 50 52 50 50 52 50 50 52 50 50 52 50 50 52 50 50 52 50 50 52 50 50 52 50 50 52 50 50 52 50 50 52 50 50 52 50 50 52 50 50 52 50 50 52 50 50 52 50 50 52 50 50 52 50 50 52 50 50 52 50 50 52 50 50 52 50 50 52 50 50 52 50 50 52 50 50 52 50 50 52 50 50 52 50 50 52 50 50 52 50 50 52 50 50 52 50 50 52 50 50 52 50 50 52 50 50 52 50 50 52 50 50 52 50 50 52 50 50 52 50 50 52 50 50 52 50 50 52 50 50 52 50 50 52 50 50 52 50 50 52 50 50 52 50 50 52 50 50 52 50 50 52 50 50 52 50 50 52 50 50 52 50 50 52 50 50 52 50 50 52 50 50 52 50 50 52 50 50 52 50 50 52 50 50 52 50 50 52 50 50 52 50 50 52 50 50 52 50 50 52 50 50 52 50 50 52 50 50 52 50 50 52 50 50 52 50 50 52 50 50 52 50 50 52 50 50 52 50 50 52 50 50 52 50 50 52 50 50 52 50 50 52 50 50 52 50 50 52 50 50 52 50 50 52 50 50 52 50 50 52 50 50 52 50 50 52 50 50 52 50 50 52 50 50 52 50 50 52 50 50 52 50 50 52 50 50 52 50 50 52 50 50 52 50 50 52 50 50 52 50 50 52 50 50 52 50 50 52 50 50 52 50 50 52 50 50 52 50 50 52 50 50 52 50 50 52 50 50 52 50 50 52 50 50 52 50 50 52 50 50 52 50 50 52 50 50 52 50 50 52 50 50 52 50 50
52 50 50 52 50 50 52 50 50 52 50 50 52 50 50 52 50 50 52 50 50 52 50 50 52 50 50 52 50 50 52 50 50 52 50 50 52 50 50 52 50 50 52 50 50 52 50 50 52 50 50 52 50 50 52 50 50 52 50 50 52 50 50 52 50 50 52 50 50 52 50 50 52 50 50 52 50 50 52 50 50 52 50 50 52 50 50 52 50 50 52 50 50 52 50 50 52 50 50 52 50 50 52 50 50 52 50 50 52 50 50 52 50 50 52 50 50 52 50 50 52 50 50 52 50 50 52 50 50 52 50 50 52 50 50 52 50 50 52 50 50 52 50 50 52 50 50 52 50 50 52 50 50 52 50 50 52 50 50 52 50 50 52 50 50 52 50 50 52 50 50 52 50 50 52 50 50 52 50 50 52 50 50 52 50 50 52 50 50 52 50 50 52 50 50 52 50 50 52 50 50 52 50 50 52 50 50 52 50 50 52 50 50 52 50 50 52 50 50 52 50 50 52 50 50 52 50 50 52 50 50 52 50 50 52 50 50 52 50 50 52 50 50 52 50 50 52 50 50 52 50 50 52 50 50 52 50 50 52 50 50 52 50 50 52 50 50 52 50 50 52 50 50 52 50 50 52 50 50 52 50 50 52 50 50 52 50 50 52 50 50 52 50 50 52 50 50 52 50 50 52 50 50 52 50 50 52 50 50 52 50 50 52 50 50 52 50 50 52 50 50 52 50 50 52 50 50 52 50 50 52 50 50 52 50 50 52 50 50 52 50 50 52 50 50 52 50 50 52 50 50 52 50 50 52 50 50 52 50 50 52 50 50 52 50 50 52 50 50 52 50 50 52 50 50 52 50 50 52 50 50 52 50 50 52 50 50 52 50 50 52 50 50 52 50 50 52 50 50 52 50 50 52 50 50 52 50 50 52 50 50 52 50 50 52 50 50 52 50 50 52 50 50 52 50 50 52 50 50 52 50 50 52 50 50 52 50 50 52 50 50 52 50 50 52 50 50 52 50 50 52 50 50 52 50 50 52 50 50 52 50 50 52 50 50 52 50 50 52 50 50 52 50 50 52 50 50 52 50 50 52 50 50 52 50 50 52 50 50 52 50 50 52 50 50 52 50 50 52 50 50 52 50 50 52 50 50 52 50 50 52 50 50 52 50 50 52 50 50 52 50 50 52 50 50 52 50 50 52 50 50 52 50 50 52 50 50 52 50 50 52 50 50 52 50 50 52 50 50 52 50 50 52 50 50 52 50 50 52 50 50 52 50 50 52 50 50 52 50 50 52 50 50 52 50 50 52 50 50 52 50 50 52 50 50 52 50 50 52 50 50 52 50 50 52 50 50 52 50 50 52 50 50 52 50 50 52 50 50 52 50 50 52 50 50 52 50 50 52 50 50 52 50 50 52 50 50 52 50 50 52 50 50 52 50 50 52 50 50 52 50 50 52 50 50 52 50 50 52 50 50 52 50 50 52 50 50 52 50 50 52 50 50 52 50 50 52 50 50 52 50 50 52 50 50 52 50 50 52 50 50 52 50 50 52 50 50 52 50 50 52 50 50 52 50 50 52 50 50 52 50 50 52 50 50 52 50 50 52 50 50 52 50 50 52 50 50 52 50 50 52 50 50 52 50 50 52 50 50 52 50 50 52 50 50 52 50 50 52 50 50 52 50 50 52 50 50 52 50 50 52 50 50 52 50 50 52 50 50 52 50 50 52 50 50 52 50 50 52 50 50 52 50 50 52 50 50 52 50 50 52 50 50 52 50 50 52 50 50 52 50 50 52 50 50 52 50 50 52 50 50 52 50 50 52 50 50 52 50 50 52 50 50 52 50 50 52 50 50 52 50 50 52 50 50 52 50 50 52 50 50 52 50 50 52 50 50 52 50 50 52 50 50 52 50 50 52 50 50 52 50 50 52 50 50 52 50 50 52 50 50 52 50 50 52 50 50 52 50 50 52 50 50 52 50 50 52 50 50 52 50 50 52 50 50 52 50 50 52 50 50 52 50 50 52 50 50 52 50 50
52 50 50 52 50 50 52 50 50 52 50 50 52 50 50 52 50 50 52 50 50 52 50 50 52 50 50 52 50 50 52 50 50 52 50 50 52 50 50 52 50 50 52 50 50 52 50 50 52 50 50 52 50 50 52 50 50 52 50 50 52 50 50 52 50 50 52 50 50 52 50 50 52 50 50 52 50 50 52 50 50 52 50 50 52 50 50 52 50 50 52 50 50 52 50 50 52 50 50 52 50 50 52 50 50 52 50 50 52 50 50 52 50 50 52 50 50 52 50 50 52 50 50 52 50 50 52 50 50 52 50 50 52 50 50 52 50 50 52 50 50 52 50 50 52 50 50 52 50 50 52 50 50 52 50 50 52 50 50 52 50 50 52 50 50 52 50 50 52 50 50 52 50 50 52 50 50 52 50 50 52 50 50 52 50 50 52 50 50 52 50 50 52 50 50 52 50 50 52 50 50 52 50 50 52 50 50 52 50 50 52 50 50 52 50 50 52 50 50 52 50 50 52 50 50 52 50 50 52 50 50 52 50 50 52 50 50 52 50 50 52 50 50 52 50 50 52 50 50 52 50 50 52 50 50 52 50 50 52 50 50 52 50 50 52 50 50 52 50 50 52 50 50 52 50 50 52 50 50 52 50 50 52 50 50 52 50 50 52 50 50 52 50 50 52 50 50 52 50 50 52 50 50 52 50 50 52 50 50 52 50 50 52 50 50 52 50 50 52 50 50 52 50 50 52 50 50 52 50 50 52 50 50 52 50 50 52 50 50 52 50 50 52 50 50 52 50 50 52 50 50 52 50 50 52 50 50 52 50 50 52 50 50 52 50 50 52 50 50 52 50 50 52 50 50 52 50 50 52 50 50 52 50 50 52 50 50 52 50 50 52 50 50 52 50 50 52 50 50 52 50 50 52 50 50 52 50 50 52 50 50 52 50 50 52 50 50 52 50 50 52 50 50 52 50 50 52 50 50 52 50 50 52 50 50 52 50 50 52 50 50 52 50 50 52 50 50 52 50 50 52 50 50 52 50 50 52 50 50 52 50 50 52 50 50 52 50 50 52 50 50 52 50 50 52 50 50 52 50 50 52 50 50 52 50 50 52 50 50 52 50 50 52 50 50 52 50 50 52 50 50 52 50 50 52 50 50 52 50 50 52 50 50 52 50 50 52 50 50 52 50 50 52 50 50 52 50 50 52 50 50 52 50 50 52 50 50 52 50 50 52 50 50 52 50 50 52 50 50 52 50 50 52 50 50 52 50 50 52 50 50 52 50 50 52 50 50 52 50 50 52 50 50 52 50 50 52 50 50 52 50 50 52 50 50 52 50 50 52 50 50 52 50 50 52 50 50 52 50 50 52 50 50 52 50 50 52 50 50 52 50 50 52 50 50 52 50 50 52 50 50 52 50 50 52 50 50 52 50 50 52 50 50 52 50 50 52 50 50 52 50 50 52 50 50 52 50 50 52 50 50 52 50 50 52 50 50 52 50 50 52 50 50 52 50 50 52 50 50 52 50 50 52 50 50 52 50 50 52 50 50 52 50 50 52 50 50 52 50 50 52 50 50 52 50 50 52 50 50 52 50 50 52 50 50 52 50 50 52 50 50 52 50 50 52 50 50 52 50 50 52 50 50 52 50 50 52 50 50 52 50 50 52 50 50 52 50 50 52 50 50 52 50 50 52 50 50 52 50 50 52 50 50 52 50 50 52 50 50 52 50 50 52 50 50 52 50 50 52 50 50 52 50 50 52 50 50 52 50 50 52 50 50 52 50 50 52 50 50 52 50 50 52 50 50 52 50 50 52 50 50 52 50 50 52 50 50 52 50 50 52 50 50 52 50 50 52 50 50 52 50 50 52 50 50 52 50 50 52 50 50 52 50 50 52 50 50 52 50 50 52 50 50 52 50 50 52 50 50 52 50 50 52 50 50 52 50 50 52 50 50 52 50 50 52 50 50 52 50 50 52 50 50 52 50 50 52 50 50 52 50 50 52 50 50 52 50 50 52 50 50 52 50 50 52 50 50 52 50 50
52 50 50 52 50 50 52 50 50 52 50 50 52 50 50 52 50 50 52 50 50 52 50 50 52 50 50 52 50 50 52 50 50 52 50 50 52 50 50 52 50 50 52 50 50 52 50 50 52 50 50 52 50 50 52 50 50 52 50 50 52 50 50 52 50 50 52 50 50 52 50 50 52 50 50 52 50 50 52 50 50 52 50 50 52 50 50 52 50 50 52 50 50 52 50 50 52 50 50 52 50 50 52 50 50 52 50 50 52 50 50 52 50 50 52 50 50 52 50 50 52 50 50 52 50 50 52 50 50 52 50 50 52 50 50 52 50 50 52 50 50 52 50 50 52 50 50 52 50 50 52 50 50 52 50 50 52 50 50 52 50 50 52 50 50 52 50 50 52 50 50 52 50 50 52 50 50 52 50 50 52 50 50 52 50 50 52 50 50 52 50 50 52 50 50 52 50 50 52 50 50 52 50 50 52 50 50 52 50 50 52 50 50 52 50 50 52 50 50 52 50 50 52 50 50 52 50 50 52 50 50 52 50 50 52 50 50 52 50 50 52 50 50 52 50 50 52 50 50 52 50 50 52 50 50 52 50 50 52 50 50 52 50 50 52 50 50 52 50 50 52 50 50 52 50 50 52 50 50 52 50 50 52 50 50 52 50 50 52 50 50 52 50 50 52 50 50 52 50 50 52 50 50 52 50 50 52 50 50 52 50 50 52 50 50 52 50 50 52 50 50 52 50 50 52 50 50 52 50 50 52 50 50 52 50 50 52 50 50 52 50 50 52 50 50 52 50 50 52 50 50 52 50 50 52 50 50 52 50 50 52 50 50 52 50 50 52 50 50 52 50 50 52 50 50 52 50 50 52 50 50 52 50 50 52 50 50 52 50 50 52 50 50 52 50 50 52 50 50 52 50 50 52 50 50 52 50 50 52 50 50 52 50 50 52 50 50 52 50 50 52 50 50 52 50 50 52 50 50 52 50 50 52 50 50 52 50 50 52 50 50 52 50 50 52 50 50 52 50 50 52 50 50 52 50 50 52 50 50 52 50 50 52 50 50 52 50 50 52 50 50 52 50 50 52 50 50 52 50 50 52 50 50 52 50 50 52 50 50 52 50 50 52 50 50 52 50 50 52 50 50 52 50 50 52 50 50 52 50 50 52 50 50 52 50 50 52 50 50 52 50 50 52 50 50 52 50 50 52 50 50 52 50 50 52 50 50 52 50 50 52 50 50 52 50 50 52 50 50 52 50 50 52 50 50 52 50 50 52 50 50 52 50 50 52 50 50 52 50 50 52 50 50 52 50 50 52 50 50 52 50 50 52 50 50 52 50 50 52 50 50 52 50 50 52 50 50 52 50 50 52 50 50 52 50 50 52 50 50 52 50 50 52 50 50 52 50 50 52 50 50 52 50 50 52 50 50 52 50 50 52 50 50 52 50 50 52 50 50 52 50 50 52 50 50 52 50 50 52 50 50 52 50 50 52 50 50 52 50 50 52 50 50 52 50 50 52 50 50 52 50 50 52 50 50 52 50 50 52 50 50 52 50 50 52 50 50 52 50 50 52 50 50 52 50 50 52 50 50 52 50 50 52 50 50 52 50 50 52 50 50 52 50 50 52 50 50 52 50 50 52 50 50 52 50 50 52 50 50 52 50 50 52 50 50 52 50 50 52 50 50 52 50 50 52 50 50 52 50 50 52 50 50 52 50 50 52 50 50 52 50 50 52 50 50 52 50 50 52 50 50 52 50 50 52 50 50 52 50 50 52 50 50 52 50 50 52 50 50 52 50 50 52 50 50 52 50 50 52 50 50 52 50 50 52 50 50 52 50 50 52 50 50 52 50 50 52 50 50 52 50 50 52 50 50 52 50 50 52 50 50 52 50 50 52 50 50 52 50 50 52 50 50 52 50 50 52 50 50 52 50 50 52 50 50 52 50 50 52 50 50 52 50 50 52 50 50 52 50 50 52 50 50 52 50 50 52 50 50 52 50 50 52 50 50 52 50 50 52 50 50 52 50 50 52 50 50 52 50 50
52 50 50 52 50 50 52 50 50 52 50 50 52 50 50 52 50 50 52 50 50 52 50 50 52 50 50 52 50 50 52 50 50 52 50 50 52 50 50 52 50 50 52 50 50 52 50 50 52 50 50 52 50 50 52 50 50 52 50 50 52 50 50 52 50 50 52 50 50 52 50 50 52 50 50 52 50 50 52 50 50 52 50 50 52 50 50 52 50 50 52 50 50 52 50 50 52 50 50 52 50 50 52 50 50 52 50 50 52 50 50 52 50 50 52 50 50 52 50 50 52 50 50 52 50 50 52 50 50 52 50 50 52 50 50 52 50 50 52 50 50 52 50 50 52 50 50 52 50 50 52 50 50 52 50 50 52 50 50 52 50 50 52 50 50 52 50 50 52 50 50 52 50 50 52 50 50 52 50 50 52 50 50 52 50 50 52 50 50 52 50 50 52 50 50 52 50 50 52 50 50 52 50 50 52 50 50 52 50 50 52 50 50 52 50 50 52 50 50 52 50 50 52 50 50 52 50 50 52 50 50 52 50 50 52 50 50 52 50 50 52 50 50 52 50 50 52 50 50 52 50 50 52 50 50 52 50 50 52 50 50 52 50 50 52 50 50 52 50 50 52 50 50 52 50 50 52 50 50 52 50 50 52 50 50 52 50 50 52 50 50 52 50 50 52 50 50 52 50 50 52 50 50 52 50 50 52 50 50 52 50 50 52 50 50 52 50 50 52 50 50 52 50 50 52 50 50 52 50 50 52 50 50 52 50 50 52 50 50 52 50 50 52 50 50 52 50 50 52 50 50 52 50 50 52 50 50 52 50 50 52 50 50 52 50 50 52 50 50 52 50 50 52 50 50 52 50 50 52 50 50 52 50 50 52 50 50 52 50 50 52 50 50 52 50 50 52 50 50 52 50 50 52 50 50 52 50 50 52 50 50 52 50 50 52 50 50 52 50 50 52 50 50 52 50 50 52 50 50 52 50 50 52 50 50 52 50 50 52 50 50 52 50 50 52 50 50 52 50 50 52 50 50 52 50 50 52 50 50 52 50 50 52 50 50 52 50 50 52 50 50 52 50 50 52 50 50 52 50 50 52 50 50 52 50 50 52 50 50 52 50 50 52 50 50 52 50 50 52 50 50 52 50 50 52 50 50 52 50 50 52 50 50 52 50 50 52 50 50 52 50 50 52 50 50 52 50 50 52 50 50 52 50 50 52 50 50 52 50 50 52 50 50 52 50 50 52 50 50 52 50 50 52 50 50 52 50 50 52 50 50 52 50 50 52 50 50 52 50 50 52 50 50 52 50 50 52 50 50 52 50 50 52 50 50 52 50 50 52 50 50 52 50 50 52 50 50 52 50 50 52 50 50 52 50 50 52 50 50 52 50 50 52 50 50 52 50 50 52 50 50 52 50 50 52 50 50 52 50 50 52 50 50 52 50 50 52 50 50 52 50 50 52 50 50 52 50 50 52 50 50 52 50 50 52 50 50 52 50 50 52 50 50 52 50 50 52 50 50 52 50 50 52 50 50 52 50 50 52 50 50 52 50 50 52 50 50 52 50 50 52 50 50 52 50 50 52 50 50 52 50 50 52 50 50 52 50 50 52 50 50 52 50 50 52 50 50 52 50 50 52 50 50 52 50 50 52 50 50 52 50 50 52 50 50 52 50 50 52 50 50 52 50 50 52 50 50 52 50 50 52 50 50 52 50 50 52 50 50 52 50 50 52 50 50 52 50 50 52 50 50 52 50 50 52 50 50 52 50 50 52 50 50 52 50 50 52 50 50 52 50 50 52 50 50 52 50 50 52 50 50 52 50 50 52 50 50 52 50 50 52 50 50 52 50 50 52 50 50 52 50 50 52 50 50 52 50 50 52 50 50 52 50 50 52 50 50 52 50 50 52 50 50 52 50 50 52 50 50 52 50 50 52 50 50 52 50 50 52 50 50 52 50 50 52 50 50 52 50 50 52 50 50 52 50 50 52 50 50 52 50 50 52 50 50 52 50 50 52 50 50 52 50 50 52 50 50 52 50 50
52 50 50 52 50 50 52 50 50 52 50 50 52 50 50 52 50 50 52 50 50 52 50 50 52 50 50 52 50 50 52 50 50 52 50 50 52 50 50 52 50 50 52 50 50 52 50 50 52 50 50 52 50 50 52 50 50 52 50 50 52 50 50 52 50 50 52 50 50 52 50 50 52 50 50 52 50 50 52 50 50 52 50 50 52 50 50 52 50 50 52 50 50 52 50 50 52 50 50 52 50 50 52 50 50 52 50 50 52 50 50 52 50 50 52 50 50 52 50 50 52 50 50 52 50 50 52 50 50 52 50 50 52 50 50 52 50 50 52 50 50 52 50 50 52 50 50 52 50 50 52 50 50 52 50 50 52 50 50 52 50 50 52 50 50 52 50 50 52 50 50 52 50 50 52 50 50 52 50 50 52 50 50 52 50 50 52 50 50 52 50 50 52 50 50 52 50 50 52 50 50 52 50 50 52 50 50 52 50 50 52 50 50 52 50 50 52 50 50 52 50 50 52 50 50 52 50 50 52 50 50 52 50 50 52 50 50 52 50 50 52 50 50 52 50 50 52 50 50 52 50 50 52 50 50 52 50 50 52 50 50 52 50 50 52 50 50 52 50 50 52 50 50 52 50 50 52 50 50 52 50 50 52 50 50 52 50 50 52 50 50 52 50 50 52 50 50 52 50 50 52 50 50 52 50 50 52 50 50 52 50 50 52 50 50 52 50 50 52 50 50 52 50 50 52 50 50 52 50 50 52 50 50 52 50 50 52 50 50 52 50 50 52 50 50 52 50 50 52 50 50 52 50 50 52 50 50 52 50 50 52 50 50 52 50 50 52 50 50 52 50 50 52 50 50 52 50 50 52 50 50 52 50 50 52 50 50 52 50 50 52 50 50 52 50 50 52 50 50 52 50 50 52 50 50 52 50 50 52 50 50 52 50 50 52 50 50 52 50 50 52 50 50 52 50 50 52 50 50 52 50 50 52 50 50 52 50 50 52 50 50 52 50 50 52 50 50 52 50 50 52 50 50 52 50 50 52 50 50 52 50 50 52 50 50 52 50 50 52 50 50 52 50 50 52 50 50 52 50 50 52 50 50 52 50 50 52 50 50 52 50 50 52 50 50 52 50 50 52 50 50 52 50 50 52 50 50 52 50 50 52 50 50 52 50 50 52 50 50 52 50 50 52 50 50 52 50 50 52 50 50 52 50 50 52 50 50 52 50 50 52 50 50 52 50 50 52 50 50 52 50 50 52 50 50 52 50 50 52 50 50 52 50 50 52 50 50 52 50 50 52 50 50 52 50 50 52 50 50 52 50 50 52 50 50 52 50 50 52 50 50 52 50 50 52 50 50 52 50 50 52 50 50 52 50 50 52 50 50 52 50 50 52 50 50 52 50 50 52 50 50 52 50 50 52 50 50 52 50 50 52 50 50 52 50 50 52 50 50 52 50 50 52 50 50 52 50 50 52 50 50 52 50 50 52 50 50 52 50 50 52 50 50 52 50 50 52 50 50 52 50 50 52 50 50 52 50 50 52 50 50 52 50 50 52 50 50 52 50 50 52 50 50 52 50 50 52 50 50 52 50 50 52 50 50 52 50 50 52 50 50 52 50 50 52 50 50 52 50 50 52 50 50 52 50 50 52 50 50 52 50 50 52 50 50 52 50 50 52 50 50 52 50 50 52 50 50 52 50 50 52 50 50 52 50 50 52 50 50 52 50 50 52 50 50 52 50 50 52 50 50 52 50 50 52 50 50 52 50 50 52 50 50 52 50 50 52 50 50 52 50 50 52 50 50 52 50 50 52 50 50 52 50 50 52 50 50 52 50 50 52 50 50 52 50 50 52 50 50 52 50 50 52 50 50 52 50 50 52 50 50 52 50 50 52 50 50 52 50 50 52 50 50 52 50 50 52 50 50 52 50 50 52 50 50 52 50 50 52 50 50 52 50 50 52 50 50 52 50 50 52 50 50 52 50 50 52 50 50 52 50 50 52 50 50 52 50 50 52 50 50 52 50 50 52 50 50 52 50 50
52 50 50 52 50 50 52 50 50 52 50 50 52 50 50 52 50 50 52 50 50 52 50 50 52 50 50 52 50 50 52 50 50 52 50 50 52 50 50 52 50 50 52 50 50 52 50 50 52 50 50 52 50 50 52 50 50 52 50 50 52 50 50 52 50 50 52 50 50 52 50 50 52 50 50 52 50 50 52 50 50 52 50 50 52 50 50 52 50 50 52 50 50 52 50 50 52 50 50 52 50 50 52 50 50 52 50 50 52 50 50 52 50 50 52 50 50 52 50 50 52 50 50 52 50 50 52 50 50 52 50 50 52 50 50 52 50 50 52 50 50 52 50 50 52 50 50 52 50 50 52 50 50 52 50 50 52 50 50 52 50 50 52 50 50 52 50 50 52 50 50 52 50 50 52 50 50 52 50 50 52 50 50 52 50 50 52 50 50 52 50 50 52 50 50 52 50 50 52 50 50 52 50 50 52 50 50 52 50 50 52 50 50 52 50 50 52 50 50 52 50 50 52 50 50 52 50 50 52 50 50 52 50 50 52 50 50 52 50 50 52 50 50 52 50 50 52 50 50 52 50 50 52 50 50 52 50 50 52 50 50 52 50 50 52 50 50 52 50 50 52 50 50 52 50 50 52 50 50 52 50 50 52 50 50 52 50 50 52 50 50 52 50 50 52 50 50 52 50 50 52 50 50 52 50 50 52 50 50 52 50 50 52 50 50 52 50 50 52 50 50 52 50 50 52 50 50 52 50 50 52 50 50 52 50 50 52 50 50 52 50 50 52 50 50 52 50 50 52 50 50 52 50 50 52 50 50 52 50 50 52 50 50 52 50 50 52 50 50 52 50 50 52 50 50 52 50 50 52 50 50 52 50 50 52 50 50 52 50 50 52 50 50 52 50 50 52 50 50 52 50 50 52 50 50 52 50 50 52 50 50 52 50 50 52 50 50 52 50 50 52 50 50 52 50 50 52 50 50 52 50 50 52 50 50 52 50 50 52 50 50 52 50 50 52 50 50 52 50 50 52 50 50 52 50 50 52 50 50 52 50 50 52 50 50 52 50 50 52 50 50 52 50 50 52 50 50 52 50 50 52 50 50 52 50 50 52 50 50 52 50 50 52 50 50 52 50 50 52 50 50 52 50 50 52 50 50 52 50 50 52 50 50 52 50 50 52 50 50 52 50 50 52 50 50 52 50 50 52 50 50 52 50 50 52 50 50 52 50 50 52 50 50 52 50 50 52 50 50 52 50 50 52 50 50 52 50 50 52 50 50 52 50 50 52 50 50 52 50 50 52 50 50 52 50 50 52 50 50 52 50 50 52 50 50 52 50 50 52 50 50 52 50 50 52 50 50 52 50 50 52 50 50 52 50 50 52 50 50 52 50 50 52 50 50 52 50 50 52 50 50 52 50 50 52 50 50 52 50 50 52 50 50 52 50 50 52 50 50 52 50 50 52 50 50 52 50 50 52 50 50 52 50 50 52 50 50 52 50 50 52 50 50 52 50 50 52 50 50 52 50 50 52 50 50 52 50 50 52 50 50 52 50 50 52 50 50 52 50 50 52 50 50 52 50 50 52 50 50 52 50 50 52 50 50 52 50 50 52 50 50 52 50 50 52 50 50 52 50 50 52 50 50 52 50 50 52 50 50 52 50 50 52 50 50 52 50 50 52 50 50 52 50 50 52 50 50 52 50 50 52 50 50 52 50 50 52 50 50 52 50 50 52 50 50 52 50 50 52 50 50 52 50 50 52 50 50 52 50 50 52 50 50 52 50 50 52 50 50 52 50 50 52 50 50 52 50 50 52 50 50 52 50 50 52 50 50 52 50 50 52 50 50 52 50 50 52 50 50 52 50 50 52 50 50 52 50 50 52 50 50 52 50 50 52 50 50 52 50 50 52 50 50 52 50 50 52 50 50 52 50 50 52 50 50 52 50 50 52 50 50 52 50 50 52 50 50 52 50 50 52 50 50 52 50 50 52 50 50 52 50 50 52 50 50 52 50 50 52 50 50 52 50 50 52 50 50 52 50 50
52 50 50 52 50 50 52 50 50 52 50 50 52 50 50 52 50 50 52 50 50 52 50 50 52 50 50 52 50 50 52 50 50 52 50 50 52 50 50 52 50 50 52 50 50 52 50 50 52 50 50 52 50 50 52 50 50 52 50 50 52 50 50 52 50 50 52 50 50 52 50 50 52 50 50 52 50 50 52 50 50 52 50 50 52 50 50 52 50 50 52 50 50 52 50 50 52 50 50 52 50 50 52 50 50 52 50 50 52 50 50 52 50 50 52 50 50 52 50 50 52 50 50 52 50 50 52 50 50 52 50 50 52 50 50 52 50 50 52 50 50 52 50 50 52 50 50 52 50 50 52 50 50 52 50 50 52 50 50 52 50 50 52 50 50 52 50 50 52 50 50 52 50 50 52 50 50 52 50 50 52 50 50 52 50 50 52 50 50 52 50 50 52 50 50 52 50 50 52 50 50 52 50 50 52 50 50 52 50 50 52 50 50 52 50 50 52 50 50 52 50 50 52 50 50 52 50 50 52 50 50 52 50 50 52 50 50 52 50 50 52 50 50 52 50 50 52 50 50 52 50 50 52 50 50 52 50 50 52 50 50 52 50 50 52 50 50 52 50 50 52 50 50 52 50 50 52 50 50 52 50 50 52 50 50 52 50 50 52 50 50 52 50 50 52 50 50 52 50 50 52 50 50 52 50 50 52 50 50 52 50 50 52 50 50 52 50 50 52 50 50 52 50 50 52 50 50 52 50 50 52 50 50 52 50 50 52 50 50 52 50 50 52 50 50 52 50 50 52 50 50 52 50 50 52 50 50 52 50 50 52 50 50 52 50 50 52 50 50 52 50 50 52 50 50 52 50 50 52 50 50 52 50 50 52 50 50 52 50 50 52 50 50 52 50 50 52 50 50 52 50 50 52 50 50 52 50 50 52 50 50 52 50 50 52 50 50 52 50 50 52 50 50 52 50 50 52 50 50 52 50 50 52 50 50 52 50 50 52 50 50 52 50 50 52 50 50 52 50 50 52 50 50 52 50 50 52 50 50 52 50 50 52 50 50 52 50 50 52 50 50 52 50 50 52 50 50 52 50 50 52 50 50 52 50 50 52 50 50 52 50 50 52 50 50 52 50 50 52 50 50 52 50 50 52 50 50 52 50 50 52 50 50 52 50 50 52 50 50 52 50 50 52 50 50 52 50 50 52 50 50 52 50 50 52 50 50 52 50 50 52 50 50 52 50 50 52 50 50 52 50 50 52 50 50 52 50 50 52 50 50 52 50 50 52 50 50 52 50 50 52 50 50 52 50 50 52 50 50 52 50 50 52 50 50 52 50 50 52 50 50 52 50 50 52 50 50 52 50 50 52 50 50 52 50 50 52 50 50 52 50 50 52 50 50 52 50 50 52 50 50 52 50 50 52 50 50 52 50 50 52 50 50 52 50 50 52 50 50 52 50 50 52 50 50 52 50 50 52 50 50 52 50 50 52 50 50 52 50 50 52 50 50 52 50 50 52 50 50 52 50 50 52 50 50 52 50 50 52 50 50 52 50 50 52 50 50 52 50 50 52 50 50 52 50 50 52 50 50 52 50 50 52 50 50 52 50 50 52 50 50 52 50 50 52 50 50 52 50 50 52 50 50 52 50 50 52 50 50 52 50 50 52 50 50 52 50 50 52 50 50 52 50 50 52 50 50 52 50 50 52 50 50 52 50 50 52 50 50 52 50 50 52 50 50 52 50 50 52 50 50 52 50 50 52 50 50 52 50 50 52 50 50 52 50 50 52 50 50 52 50 50 52 50 50 52 50 50 52 50 50 52 50 50 52 50 50 52 50 50 52 50 50 52 50 50 52 50 50 52 50 50 52 50 50 52 50 50 52 50 50 52 50 50 52 50 50 52 50 50 52 50 50 52 50 50 52 50 50 52 50 50 52 50 50 52 50 50 52 50 50 52 50 50 52 50 50 52 50 50 52 50 50 52 50 50 52 50 50 52 50 50 52 50 50 52 50 50 52 50 50 52 50 50 52 50 50 52 50 50
52 50 50 52 50 50 52 50 50 52 50 50 52 50 50 52 50 50 52 50 50 52 50 50 52 50 50 52 50 50 52 50 50 52 50 50 52 50 50 52 50 50 52 50 50 52 50 50 52 50 50 52 50 50 52 50 50 52 50 50 52 50 50 52 50 50 52 50 50 52 50 50 52 50 50 52 50 50 52 50 50 52 50 50 52 50 50 52 50 50 52 50 50 52 50 50 52 50 50 52 50 50 52 50 50 52 50 50 52 50 50 52 50 50 52 50 50 52 50 50 52 50 50 52 50 50 52 50 50 52 50 50 52 50 50 52 50 50 52 50 50 52 50 50 52 50 50 52 50 50 52 50 50 52 50 50 52 50 50 52 50 50 52 50 50 52 50 50 52 50 50 52 50 50 52 50 50 52 50 50 52 50 50 52 50 50 52 50 50 52 50 50 52 50 50 52 50 50 52 50 50 52 50 50 52 50 50 52 50 50 52 50 50 52 50 50 52 50 50 52 50 50 52 50 50 52 50 50 52 50 50 52 50 50 52 50 50 52 50 50 52 50 50 52 50 50 52 50 50 52 50 50 52 50 50 52 50 50 52 50 50 52 50 50 52 50 50 52 50 50 52 50 50 52 50 50 52 50 50 52 50 50 52 50 50 52 50 50 52 50 50 52 50 50 52 50 50 52 50 50 52 50 50 52 50 50 52 50 50 52 50 50 52 50 50 52 50 50 52 50 50 52 50 50 52 50 50 52 50 50 52 50 50 52 50 50 52 50 50 52 50 50 52 50 50 52 50 50 52 50 50 52 50 50 52 50 50 52 50 50 52 50 50 52 50 50 52 50 50 52 50 50 52 50 50 52 50 50 52 50 50 52 50 50 52 50 50 52 50 50 52 50 50 52 50 50 52 50 50 52 50 50 52 50 50 52 50 50 52 50 50 52 50 50 52 50 50 52 50 50 52 50 50 52 50 50 52 50 50 52 50 50 52 50 50 52 50 50 52 50 50 52 50 50 52 50 50 52 50 50 52 50 50 52 50 50 52 50 50 52 50 50 52 50 50 52 50 50 52 50 50 52 50 50 52 50 50 52 50 50 52 50 50 52 50 50 52 50 50 52 50 50 52 50 50 52 50 50 52 50 50 52 50 50 52 50 50 52 50 50 52 50 50 52 50 50 52 50 50 52 50 50 52 50 50 52 50 50 52 50 50 52 50 50 52 50 50 52 50 50 52 50 50 52 50 50 52 50 50 52 50 50 52 50 50 52 50 50 52 50 50 52 50 50 52 50 50 52 50 50 52 50 50 52 50 50 52 50 50 52 50 50 52 50 50 52 50 50 52 50 50 52 50 50 52 50 50 52 50 50 52 50 50 52 50 50 52 50 50 52 50 50 52 50 50 52 50 50 52 50 50 52 50 50 52 50 50 52 50 50 52 50 50 52 50 50 52 50 50 52 50 50 52 50 50 52 50 50 52 50 50 52 50 50 52 50 50 52 50 50 52 50 50 52 50 50 52 50 50 52 50 50 52 50 50 52 50 50 52 50 50 52 50 50 52 50 50 52 50 50 52 50 50 52 50 50 52 50 50 52 50 50 52 50 50 52 50 50 52 50 50 52 50 50 52 50 50 52 50 50 52 50 50 52 50 50 52 50 50 52 50 50 52 50 50 52 50 50 52 50 50 52 50 50 52 50 50 52 50 50 52 50 50 52 50 50 52 50 50 52 50 50 52 50 50 52 50 50 52 50 50 52 50 50 52 50 50 52 50 50 52 50 50 52 50 50 52 50 50 52 50 50 52 50 50 52 50 50 52 50 50 52 50 50 52 50 50 52 50 50 52 50 50 52 50 50 52 50 50 52 50 50 52 50 50 52 50 50 52 50 50 52 50 50 52 50 50 52 50 50 52 50 50 52 50 50 52 50 50 52 50 50 52 50 50 52 50 50 52 50 50 52 50 50 52 50 50 52 50 50 52 50 50 52 50 50 52 50 50 52 50 50 52 50 50 52 50 50 52 50 50 52 50 50 52 50 50 52 50 50
52 50 50 52 50 50 52 50 50 52 50 50 52 50 50 52 50 50 52 50 50 52 50 50 52 50 50 52 50 50 52 50 50 52 50 50 52 50 50 52 50 50 52 50 50 52 50 50 52 50 50 52 50 50 52 50 50 52 50 50 52 50 50 52 50 50 52 50 50 52 50 50 52 50 50 52 50 50 52 50 50 52 50 50 52 50 50 52 50 50 52 50 50 52 50 50 52 50 50 52 50 50 52 50 50 52 50 50 52 50 50 52 50 50 52 50 50 52 50 50 52 50 50 52 50 50 52 50 50 52 50 50 52 50 50 52 50 50 52 50 50 52 50 50 52 50 50 52 50 50 52 50 50 52 50 50 52 50 50 52 50 50 52 50 50 52 50 50 52 50 50 52 50 50 52 50 50 52 50 50 52 50 50 52 50 50 52 50 50 52 50 50 52 50 50 52 50 50 52 50 50 52 50 50 52 50 50 52 50 50 52 50 50 52 50 50 52 50 50 52 50 50 52 50 50 52 50 50 52 50 50 52 50 50 52 50 50 52 50 50 52 50 50 52 50 50 52 50 50 52 50 50 52 50 50 52 50 50 52 50 50 52 50 50 52 50 50 52 50 50 52 50 50 52 50 50 52 50 50 52 50 50 52 50 50 52 50 50 52 50 50 52 50 50 52 50 50 52 50 50 52 50 50 52 50 50 52 50 50 52 50 50 52 50 50 52 50 50 52 50 50 52 50 50 52 50 50 52 50 50 52 50 50 52 50 50 52 50 50 52 50 50 52 50 50 52 50 50 52 50 50 52 50 50 52 50 50 52 50 50 52 50 50 52 50 50 52 50 50 52 50 50 52 50 50 52 50 50 52 50 50 52 50 50 52 50 50 52 50 50 52 50 50 52 50 50 52 50 50 52 50 50 52 50 50 52 50 50 52 50 50 52 50 50 52 50 50 52 50 50 52 50 50 52 50 50 52 50 50 52 50 50 52 50 50 52 50 50 52 50 50 52 50 50 52 50 50 52 50 50 52 50 50 52 50 50 52 50 50 52 50 50 52 50 50 52 50 50 52 50 50 52 50 50 52 50 50 52 50 50 52 50 50 52 50 50 52 50 50 52 50 50 52 50 50 52 50 50 52 50 50 52 50 50 52 50 50 52 50 50 52 50 50 52 50 50 52 50 50 52 50 50 52 50 50 52 50 50 52 50 50 52 50 50 52 50 50 52 50 50 52 50 50 52 50 50 52 50 50 52 50 50 52 50 50 52 50 50 52 50 50 52 50 50 52 50 50 52 50 50 52 50 50 52 50 50 52 50 50 52 50 50 52 50 50 52 50 50 52 50 50 52 50 50 52 50 50 52 50 50 52 50 50 52 50 50 52 50 50 52 50 50 52 50 50 52 50 50 52 50 50 52 50 50 52 50 50 52 50 50 52 50 50 52 50 50 52 50 50 52 50 50 52 50 50 52 50 50 52 50 50 52 50 50 52 50 50 52 50 50 52 50 50 52 50 50 52 50 50 52 50 50 52 50 50 52 50 50 52 50 50 52 50 50 52 50 50 52 50 50 52 50 50 52 50 50 52 50 50 52 50 50 52 50 50 52 50 50 52 50 50 52 50 50 52 50 50 52 50 50 52 50 50 52 50 50 52 50 50 52 50 50 52 50 50 52 50 50 52 50 50 52 50 50 52 50 50 52 50 50 52 50 50 52 50 50 52 50 50 52 50 50 52 50 50 52 50 50 52 50 50 52 50 50 52 50 50 52 50 50 52 50 50 52 50 50 52 50 50 52 50 50 52 50 50 52 50 50 52 50 50 52 50 50 52 50 50 52 50 50 52 50 50 52 50 50 52 50 50 52 50 50 52 50 50 52 50 50 52 50 50 52 50 50 52 50 50 52 50 50 52 50 50 52 50 50 52 50 50 52 50 50 52 50 50 52 50 50 52 50 50 52 50 50 52 50 50 52 50 50 52 50 50 52 50 50 52 50 50 52 50 50 52 50 50 52 50 50 52 50 50 52 50 50 52 50 50 52 50 50
52 50 50 52 50 50 52 50 50 52 50 50 52 50 50 52 50 50 52 50 50 52 50 50 52 50 50 52 50 50 52 50 50 52 50 50 52 50 50 52 50 50 52 50 50 52 50 50 52 50 50 52 50 50 52 50 50 52 50 50 52 50 50 52 50 50 52 50 50 52 50 50 52 50 50 52 50 50 52 50 50 52 50 50 52 50 50 52 50 50 52 50 50 52 50 50 52 50 50 52 50 50 52 50 50 52 50 50 52 50 50 52 50 50 52 50 50 52 50 50 52 50 50 52 50 50 52 50 50 52 50 50 52 50 50 52 50 50 52 50 50 52 50 50 52 50 50 52 50 50 52 50 50 52 50 50 52 50 50 52 50 50 52 50 50 52 50 50 52 50 50 52 50 50 52 50 50 52 50 50 52 50 50 52 50 50 52 50 50 52 50 50 52 50 50 52 50 50 52 50 50 52 50 50 52 50 50 52 50 50 52 50 50 52 50 50 52 50 50 52 50 50 52 50 50 52 50 50 52 50 50 52 50 50 52 50 50 52 50 50 52 50 50 52 50 50 52 50 50 52 50 50 52 50 50 52 50 50 52 50 50 52 50 50 52 50 50 52 50 50 52 50 50 52 50 50 52 50 50 52 50 50 52 50 50 52 50 50 52 50 50 52 50 50 52 50 50 52 50 50 52 50 50 52 50 50 52 50 50 52 50 50 52 50 50 52 50 50 52 50 50 52 50 50 52 50 50 52 50 50 52 50 50 52 50 50 52 50 50 52 50 50 52 50 50 52 50 50 52 50 50 52 50 50 52 50 50 52 50 50 52 50 50 52 50 50 52 50 50 52 50 50 52 50 50 52 50 50 52 50 50 52 50 50 52 50 50 52 50 50 52 50 50 52 50 50 52 50 50 52 50 50 52 50 50 52 50 50 52 50 50 52 50 50 52 50 50 52 50 50 52 50 50 52 50 50 52 50 50 52 50 50 52 50 50 52 50 50 52 50 50 52 50 50 52 50 50 52 50 50 52 50 50 52 50 50 52 50 50 52 50 50 52 50 50 52 50 50 52 50 50 52 50 50 52 50 50 52 50 50 52 50 50 52 50 50 52 50 50 52 50 50 52 50 50 52 50 50 52 50 50 52 50 50 52 50 50 52 50 50 52 50 50 52 50 50 52 50 50 52 50 50 52 50 50 52 50 50 52 50 50 52 50 50 52 50 50 52 50 50 52 50 50 52 50 50 52 50 50 52 50 50 52 50 50 52 50 50 52 50 50 52 50 50 52 50 50 52 50 50 52 50 50 52 50 50 52 50 50 52 50 50 52 50 50 52 50 50 52 50 50 52 50 50 52 50 50 52 50 50 52 50 50 52 50 50 52 50 50 52 50 50 52 50 50 52 50 50 52 50 50 52 50 50 52 50 50 52 50 50 52 50 50 52 50 50 52 50 50 52 50 50 52 50 50 52 50 50 52 50 50 52 50 50 52 50 50 52 50 50 52 50 50 52 50 50 52 50 50 52 50 50 52 50 50 52 50 50 52 50 50 52 50 50 52 50 50 52 50 50 52 50 50 52 50 50 52 50 50 52 50 50 52 50 50 52 50 50 52 50 50 52 50 50 52 50 50 52 50 50 52 50 50 52 50 50 52 50 50 52 50 50 52 50 50 52 50 50 52 50 50 52 50 50 52 50 50 52 50 50 52 50 50 52 50 50 52 50 50 52 50 50 52 50 50 52 50 50 52 50 50 52 50 50 52 50 50 52 50 50 52 50 50 52 50 50 52 50 50 52 50 50 52 50 50 52 50 50 52 50 50 52 50 50 52 50 50 52 50 50 52 50 50 52 50 50 52 50 50 52 50 50 52 50 50 52 50 50 52 50 50 52 50 50 52 50 50 52 50 50 52 50 50 52 50 50 52 50 50 52 50 50 52 50 50 52 50 50 52 50 50 52 50 50 52 50 50 52 50 50 52 50 50 52 50 50 52 50 50 52 50 50 52 50 50 52 50 50 52 50 50 52 50 50 52 50 50 52 50 50
52 50 50 52 50 50 52 50 50 52 50 50 52 50 50 52 50 50 52 50 50 52 50 50 52 50 50 52 50 50 52 50 50 52 50 50 52 50 50 52 50 50 52 50 50 52 50 50 52 50 50 52 50 50 52 50 50 52 50 50 52 50 50 52 50 50 52 50 50 52 50 50 52 50 50 52 50 50 52 50 50 52 50 50 52 50 50 52 50 50 52 50 50 52 50 50 52 50 50 52 50 50 52 50 50 52 50 50 52 50 50 52 50 50 52 50 50 52 50 50 52 50 50 52 50 50 52 50 50 52 50 50 52 50 50 52 50 50 52 50 50 52 50 50 52 50 50 52 50 50 52 50 50 52 50 50 52 50 50 52 50 50 52 50 50 52 50 50 52 50 50 52 50 50 52 50 50 52 50 50 52 50 50 52 50 50 52 50 50 52 50 50 52 50 50 52 50 50 52 50 50 52 50 50 52 50 50 52 50 50 52 50 50 52 50 50 52 50 50 52 50 50 52 50 50 52 50 50 52 50 50 52 50 50 52 50 50 52 50 50 52 50 50 52 50 50 52 50 50 52 50 50 52 50 50 52 50 50 52 50 50 52 50 50 52 50 50 52 50 50 52 50 50 52 50 50 52 50 50 52 50 50 52 50 50 52 50 50 52 50 50 52 50 50 52 50 50 52 50 50 52 50 50 52 50 50 52 50 50 52 50 50 52 50 50 52 50 50 52 50 50 52 50 50 52 50 50 52 50 50 52 50 50 52 50 50 52 50 50 52 50 50 52 50 50 52 50 50 52 50 50 52 50 50 52 50 50 52 50 50 52 50 50 52 50 50 52 50 50 52 50 50 52 50 50 52 50 50 52 50 50 52 50 50 52 50 50 52 50 50 52 50 50 52 50 50 52 50 50 52 50 50 52 50 50 52 50 50 52 50 50 52 50 50 52 50 50 52 50 50 52 50 50 52 50 50 52 50 50 52 50 50 52 50 50 52 50 50 52 50 50 52 50 50 52 50 50 52 50 50 52 50 50 52 50 50 52 50 50 52 50 50 52 50 50 52 50 50 52 50 50 52 50 50 52 50 50 52 50 50 52 50 50 52 50 50 52 50 50 52 50 50 52 50 50 52 50 50 52 50 50 52 50 50 52 50 50 52 50 50 52 50 50 52 50 50 52 50 50 52 50 50 52 50 50 52 50 50 52 50 50 52 50 50 52 50 50 52 50 50 52 50 50 52 50 50 52 50 50 52 50 50 52 50 50 52 50 50 52 50 50 52 50 50 52 50 50 52 50 50 52 50 50 52 50 50 52 50 50 52 50 50 52 50 50 52 50 50 52 50 50 52 50 50 52 50 50 52 50 50 52 50 50 52 50 50 52 50 50 52 50 50 52 50 50 52 50 50 52 50 50 52 50 50 52 50 50 52 50 50 52 50 50 52 50 50 52 50 50 52 50 50 52 50 50 52 50 50 52 50 50 52 50 50 52 50 50 52 50 50 52 50 50 52 50 50 52 50 50 52 50 50 52 50 50 52 50 50 52 50 50 52 50 50 52 50 50 52 50 50 52 50 50 52 50 50 52 50 50 52 50 50 52 50 50 52 50 50 52 50 50 52 50 50 52 50 50 52 50 50 52 50 50 52 50 50 52 50 50 52 50 50 52 50 50 52 50 50 52 50 50 52 50 50 52 50 50 52 50 50 52 50 50 52 50 50 52 50 50 52 50 50 52 50 50 52 50 50 52 50 50 52 50 50 52 50 50 52 50 50 52 50 50 52 50 50 52 50 50 52 50 50 52 50 50 52 50 50 52 50 50 52 50 50 52 50 50 52 50 50 52 50 50 52 50 50 52 50 50 52 50 50 52 50 50 52 50 50 52 50 50 52 50 50 52 50 50 52 50 50 52 50 50 52 50 50 52 50 50 52 50 50 52 50 50 52 50 50 52 50 50 52 50 50 52 50 50 52 50 50 52 50 50 52 50 50 52 50 50 52 50 50 52 50 50 52 50 50 52 50 50 52 50 50 52 50 50 52 50 50
52 50 50 52 50 50 52 50 50 52 50 50 52 50 50 52 50 50 52 50 50 52 50 50 52 50 50 52 50 50 52 50 50 52 50 50 52 50 50 52 50 50 52 50 50 52 50 50 52 50 50 52 50 50 52 50 50 52 50 50 52 50 50 52 50 50 52 50 50 52 50 50 52 50 50 52 50 50 52 50 50 52 50 50 52 50 50 52 50 50 52 50 50 52 50 50 52 50 50 52 50 50 52 50 50 52 50 50 52 50 50 52 50 50 52 50 50 52 50 50 52 50 50 52 50 50 52 50 50 52 50 50 52 50 50 52 50 50 52 50 50 52 50 50 52 50 50 52 50 50 52 50 50 52 50 50 52 50 50 52 50 50 52 50 50 52 50 50 52 50 50 52 50 50 52 50 50 52 50 50 52 50 50 52 50 50 52 50 50 52 50 50 52 50 50 52 50 50 52 50 50 52 50 50 52 50 50 52 50 50 52 50 50 52 50 50 52 50 50 52 50 50 52 50 50 52 50 50 52 50 50 52 50 50 52 50 50 52 50 50 52 50 50 52 50 50 52 50 50 52 50 50 52 50 50 52 50 50 52 50 50 52 50 50 52 50 50 52 50 50 52 50 50 52 50 50 52 50 50 52 50 50 52 50 50 52 50 50 52 50 50 52 50 50 52 50 50 52 50 50 52 50 50 52 50 50 52 50 50 52 50 50 52 50 50 52 50 50 52 50 50 52 50 50 52 50 50 52 50 50 52 50 50 52 50 50 52 50 50 52 50 50 52 50 50 52 50 50 52 50 50 52 50 50 52 50 50 52 50 50 52 50 50 52 50 50 52 50 50 52 50 50 52 50 50 52 50 50 52 50 50 52 50 50 52 50 50 52 50 50 52 50 50 52 50 50 52 50 50 52 50 50 52 50 50 52 50 50 52 50 50 52 50 50 52 50 50 52 50 50 52 50 50 52 50 50 52 50 50 52 50 50 52 50 50 52 50 50 52 50 50 52 50 50 52 50 50 52 50 50 52 50 50 52 50 50 52 50 50 52 50 50 52 50 50 52 50 50 52 50 50 52 50 50 52 50 50 52 50 50 52 50 50 52 50 50 52 50 50 52 50 50 52 50 50 52 50 50 52 50 50 52 50 50 52 50 50 52 50 50 52 50 50 52 50 50 52 50 50 52 50 50 52 50 50 52 50 50 52 50 50 52 50 50 52 50 50 52 50 50 52 50 50 52 50 50 52 50 50 52 50 50 52 50 50 52 50 50 52 50 50 52 50 50 52 50 50 52 50 50 52 50 50 52 50 50 52 50 50 52 50 50 52 50 50 52 50 50 52 50 50 52 50 50 52 50 50 52 50 50 52 50 50 52 50 50 52 50 50 52 50 50 52 50 50 52 50 50 52 50 50 52 50 50 52 50 50 52 50 50 52 50 50 52 50 50 52 50 50 52 50 50 52 50 50 52 50 50 52 50 50 52 50 50 52 50 50 52 50 50 52 50 50 52 50 50 52 50 50 52 50 50 52 50 50 52 50 50 52 50 50 52 50 50 52 50 50 52 50 50 52 50 50 52 50 50 52 50 50 52 50 50 52 50 50 52 50 50 52 50 50 52 50 50 52 50 50 52 50 50 52 50 50 52 50 50 52 50 50 52 50 50 52 50 50 52 50 50 52 50 50 52 50 50 52 50 50 52 50 50 52 50 50 52 50 50 52 50 50 52 50 50 52 50 50 52 50 50 52 50 50 52 50 50 52 50 50 52 50 50 52 50 50 52 50 50 52 50 50 52 50 50 52 50 50 52 50 50 52 50 50 52 50 50 52 50 50 52 50 50 52 50 50 52 50 50 52 50 50 52 50 50 52 50 50 52 50 50 52 50 50 52 50 50 52 50 50 52 50 50 52 50 50 52 50 50 52 50 50 52 50 50 52 50 50 52 50 50 52 50 50 52 50 50 52 50 50 52 50 50 52 50 50 52 50 50 52 50 50 52 50 50 52 50 50 52 50 50 52 50 50 52 50 50 52 50 50 52 50 50
52 50 50 52 50 50 52 50 50 52 50 50 52 50 50 52 50 50 52 50 50 52 50 50 52 50 50 52 50 50 52 50 50 52 50 50 52 50 50 52 50 50 52 50 50 52 50 50 52 50 50 52 50 50 52 50 50 52 50 50 52 50 50 52 50 50 52 50 50 52 50 50 52 50 50 52 50 50 52 50 50 52 50 50 52 50 50 52 50 50 52 50 50 52 50 50 52 50 50 52 50 50 52 50 50 52 50 50 52 50 50 52 50 50 52 50 50 52 50 50 52 50 50 52 50 50 52 50 50 52 50 50 52 50 50 52 50 50 52 50 50 52 50 50 52 50 50 52 50 50 52 50 50 52 50 50 52 50 50 52 50 50 52 50 50 52 50 50 52 50 50 52 50 50 52 50 50 52 50 50 52 50 50 52 50 50 52 50 50 52 50 50 52 50 50 52 50 50 52 50 50 52 50 50 52 50 50 52 50 50 52 50 50 52 50 50 52 50 50 52 50 50 52 50 50 52 50 50 52 50 50 52 50 50 52 50 50 52 50 50 52 50 50 52 50 50 52 50 50 52 50 50 52 50 50 52 50 50 52 50 50 52 50 50 52 50 50 52 50 50 52 50 50 52 50 50 52 50 50 52 50 50 52 50 50 52 50 50 52 50 50 52 50 50 52 50 50 52 50 50 52 50 50 52 50 50 52 50 50 52 50 50 52 50 50 52 50 50 52 50 50 52 50 50 52 50 50 52 50 50 52 50 50 52 50 50 52 50 50 52 50 50 52 50 50 52 50 50 52 50 50 52 50 50 52 50 50 52 50 50 52 50 50 52 50 50 52 50 50 52 50 50 52 50 50 52 50 50 52 50 50 52 50 50 52 50 50 52 50 50 52 50 50 52 50 50 52 50 50 52 50 50 52 50 50 52 50 50 52 50 50 52 50 50 52 50 50 52 50 50 52 50 50 52 50 50 52 50 50 52 50 50 52 50 50 52 50 50 52 50 50 52 50 50 52 50 50 52 50 50 52 50 50 52 50 50 52 50 50 52 50 50 52 50 50 52 50 50 52 50 50 52 50 50 52 50 50 52 50 50 52 50 50 52 50 50 52 50 50 52 50 50 52 50 50 52 50 50 52 50 50 52 50 50 52 50 50 52 50 50 52 50 50 52 50 50 52 50 50 52 50 50 52 50 50 52 50 50 52 50 50 52 50 50 52 50 50 52 50 50 52 50 50 52 50 50 52 50 50 52 50 50 52 50 50 52 50 50 52 50 50 52 50 50 52 50 50 52 50 50 52 50 50 52 50 50 52 50 50 52 50 50 52 50 50 52 50 50 52 50 50 52 50 50 52 50 50 52 50 50 52 50 50 52 50 50 52 50 50 52 50 50 52 50 50 52 50 50 52 50 50 52 50 50 52 50 50 52 50 50 52 50 50 52 50 50 52 50 50 52 50 50 52 50 50 52 50 50 52 50 50 52 50 50 52 50 50 52 50 50 52 50 50 52 50 50 52 50 50 52 50 50 52 50 50 52 50 50 52 50 50 52 50 50 52 50 50 52 50 50 52 50 50 52 50 50 52 50 50 52 50 50 52 50 50 52 50 50 52 50 50 52 50 50 52 50 50 52 50 50 52 50 50 52 50 50 52 50 50 52 50 50 52 50 50 52 50 50 52 50 50 52 50 50 52 50 50 52 50 50 52 50 50 52 50 50 52 50 50 52 50 50 52 50 50 52 50 50 52 50 50 52 50 50 52 50 50 52 50 50 52 50 50 52 50 50 52 50 50 52 50 50 52 50 50 52 50 50 52 50 50 52 50 50 52 50 50 52 50 50 52 50 50 52 50 50 52 50 50 52 50 50 52 50 50 52 50 50 52 50 50 52 50 50 52 50 50 52 50 50 52 50 50 52 50 50 52 50 50 52 50 50 52 50 50 52 50 50 52 50 50 52 50 50 52 50 50 52 50 50 52 50 50 52 50 50 52 50 50 52 50 50 52 50 50 52 50 50 52 50 50 52 50 50 52 50 50 52 50 50
52 50 50 52 50 50 52 50 50 52 50 50 52 50 50 52 50 50 52 50 50 52 50 50 52 50 50 52 50 50 52 50 50 52 50 50 52 50 50 52 50 50 52 50 50 52 50 50 52 50 50 52 50 50 52 50 50 52 50 50 52 50 50 52 50 50 52 50 50 52 50 50 52 50 50 52 50 50 52 50 50 52 50 50 52 50 50 52 50 50 52 50 50 52 50 50 52 50 50 52 50 50 52 50 50 52 50 50 52 50 50 52 50 50 52 50 50 52 50 50 52 50 50 52 50 50 52 50 50 52 50 50 52 50 50 52 50 50 52 50 50 52 50 50 52 50 50 52 50 50 52 50 50 52 50 50 52 50 50 52 50 50 52 50 50 52 50 50 52 50 50 52 50 50 52 50 50 52 50 50 52 50 50 52 50 50 52 50 50 52 50 50 52 50 50 52 50 50 52 50 50 52 50 50 52 50 50 52 50 50 52 50 50 52 50 50 52 50 50 52 50 50 52 50 50 52 50 50 52 50 50 52 50 50 52 50 50 52 50 50 52 50 50 52 50 50 52 50 50 52 50 50 52 50 50 52 50 50 52 50 50 52 50 50 52 50 50 52 50 50 52 50 50 52 50 50 52 50 50 52 50 50 52 50 50 52 50 50 52 50 50 52 50 50 52 50 50 52 50 50 52 50 50 52 50 50 52 50 50 52 50 50 52 50 50 52 50 50 52 50 50 52 50 50 52 50 50 52 50 50 52 50 50 52 50 50 52 50 50 52 50 50 52 50 50 52 50 50 52 50 50 52 50 50 52 50 50 52 50 50 52 50 50 52 50 50 52 50 50 52 50 50 52 50 50 52 50 50 52 50 50 52 50 50 52 50 50 52 50 50 52 50 50 52 50 50 52 50 50 52 50 50 52 50 50 52 50 50 52 50 50 52 50 50 52 50 50 52 50 50 52 50 50 52 50 50 52 50 50 52 50 50 52 50 50 52 50 50 52 50 50 52 50 50 52 50 50 52 50 50 52 50 50 52 50 50 52 50 50 52 50 50 52 50 50 52 50 50 52 50 50 52 50 50 52 50 50 52 50 50 52 50 50 52 50 50 52 50 50 52 50 50 52 50 50 52 50 50 52 50 50 52 50 50 52 50 50 52 50 50 52 50 50 52 50 50 52 50 50 52 50 50 52 50 50 52 50 50 52 50 50 52 50 50 52 50 50 52 50 50 52 50 50 52 50 50 52 50 50 52 50 50 52 50 50 52 50 50 52 50 50 52 50 50 52 50 50 52 50 50 52 50 50 52 50 50 52 50 50 52 50 50 52 50 50 52 50 50 52 50 50 52 50 50 52 50 50 52 50 50 52 50 50 52 50 50 52 50 50 52 50 50 52 50 50 52 50 50 52 50 50 52 50 50 52 50 50 52 50 50 52 50 50 52 50 50 52 50 50 52 50 50 52 50 50 52 50 50 52 50 50 52 50 50 52 50 50 52 50 50 52 50 50 52 50 50 52 50 50 52 50 50 52 50 50 52 50 50 52 50 50 52 50 50 52 50 50 52 50 50 52 50 50 52 50 50 52 50 50 52 50 50 52 50 50 52 50 50 52 50 50 52 50 50 52 50 50 52 50 50 52 50 50 52 50 50 52 50 50 52 50 50 52 50 50 52 50 50 52 50 50 52 50 50 52 50 50 52 50 50 52 50 50 52 50 50 52 50 50 52 50 50 52 50 50 52 50 50 52 50 50 52 50 50 52 50 50 52 50 50 52 50 50 52 50 50 52 50 50 52 50 50 52 50 50 52 50 50 52 50 50 52 50 50 52 50 50 52 50 50 52 50 50 52 50 50 52 50 50 52 50 50 52 50 50 52 50 50 52 50 50 52 50 50 52 50 50 52 50 50 52 50 50 52 50 50 52 50 50 52 50 50 52 50 50 52 50 50 52 50 50 52 50 50 52 50 50 52 50 50 52 50 50 52 50 50 52 50 50 52 50 50 52 50 50 52 50 50 52 50 50 52 50 50 52 50 50 52 50 50
52 50 50 52 50 50 52 50 50 52 50 50 52 50 50 52 50 50 52 50 50 52 50 50 52 50 50 52 50 50 52 50 50 52 50 50 52 50 50 52 50 50 52 50 50 52 50 50 52 50 50 52 50 50 52 50 50 52 50 50 52 50 50 52 50 50 52 50 50 52 50 50 52 50 50 52 50 50 52 50 50 52 50 50 52 50 50 52 50 50 52 50 50 52 50 50 52 50 50 52 50 50 52 50 50 52 50 50 52 50 50 52 50 50 52 50 50 52 50 50 52 50 50 52 50 50 52 50 50 52 50 50 52 50 50 52 50 50 52 50 50 52 50 50 52 50 50 52 50 50 52 50 50 52 50 50 52 50 50 52 50 50 52 50 50 52 50 50 52 50 50 52 50 50 52 50 50 52 50 50 52 50 50 52 50 50 52 50 50 52 50 50 52 50 50 52 50 50 52 50 50 52 50 50 52 50 50 52 50 50 52 50 50 52 50 50 52 50 50 52 50 50 52 50 50 52 50 50 52 50 50 52 50 50 52 50 50 52 50 50 52 50 50 52 50 50 52 50 50 52 50 50 52 50 50 52 50 50 52 50 50 52 50 50 52 50 50 52 50 50 52 50 50 52 50 50 52 50 50 52 50 50 52 50 50 52 50 50 52 50 50 52 50 50 52 50 50 52 50 50 52 50 50 52 50 50 52 50 50 52 50 50 52 50 50 52 50 50 52 50 50 52 50 50 52 50 50 52 50 50 52 50 50 52 50 50 52 50 50 52 50 50 52 50 50 52 50 50 52 50 50 52 50 50 52 50 50 52 50 50 52 50 50 52 50 50 52 50 50 52 50 50 52 50 50 52 50 50 52 50 50 52 50 50 52 50 50 52 50 50 52 50 50 52 50 50 52 50 50 52 50 50 52 50 50 52 50 50 52 50 50 52 50 50 52 50 50 52 50 50 52 50 50 52 50 50 52 50 50 52 50 50 52 50 50 52 50 50 52 50 50 52 50 50 52 50 50 52 50 50 52 50 50 52 50 50 52 50 50 52 50 50 52 50 50 52 50 50 52 50 50 52 50 50 52 50 50 52 50 50 52 50 50 52 50 50 52 50 50 52 50 50 52 50 50 52 50 50 52 50 50 52 50 50 52 50 50 52 50 50 52 50 50 52 50 50 52 50 50 52 50 50 52 50 50 52 50 50 52 50 50 52 50 50 52 50 50 52 50 50 52 50 50 52 50 50 52 50 50 52 50 50 52 50 50 52 50 50 52 50 50 52 50 50 52 50 50 52 50 50 52 50 50 52 50 50 52 50 50 52 50 50 52 50 50 52 50 50 52 50 50 52 50 50 52 50 50 52 50 50 52 50 50 52 50 50 52 50 50 52 50 50 52 50 50 52 50 50 52 50 50 52 50 50 52 50 50 52 50 50 52 50 50 52 50 50 52 50 50 52 50 50 52 50 50 52 50 50 52 50 50 52 50 50 52 50 50 52 50 50 52 50 50 52 50 50 52 50 50 52 50 50 52 50 50 52 50 50 52 50 50 52 50 50 52 50 50 52 50 50 52 50 50 52 50 50 52 50 50 52 50 50 52 50 50 52 50 50 52 50 50 52 50 50 52 50 50 52 50 50 52 50 50 52 50 50 52 50 50 52 50 50 52 50 50 52 50 50 52 50 50 52 50 50 52 50 50 52 50 50 52 50 50 52 50 50 52 50 50 52 50 50 52 50 50 52 50 50 52 50 50 52 50 50 52 50 50 52 50 50 52 50 50 52 50 50 52 50 50 52 50 50 52 50 50 52 50 50 52 50 50 52 50 50 52 50 50 52 50 50 52 50 50 52 50 50 52 50 50 52 50 50 52 50 50 52 50 50 52 50 50 52 50 50 52 50 50 52 50 50 52 50 50 52 50 50 52 50 50 52 50 50 52 50 50 52 50 50 52 50 50 52 50 50 52 50 50 52 50 50 52 50 50 52 50 50 52 50 50 52 50 50 52 50 50 52 50 50 52 50 50 52 50 50 52 50 50 52 50 50
52 50 50 52 50 50 52 50 50 52 50 50 52 50 50 52 50 50 52 50 50 52 50 50 52 50 50 52 50 50 52 50 50 52 50 50 52 50 50 52 50 50 52 50 50 52 50 50 52 50 50 52 50 50 52 50 50 52 50 50 52 50 50 52 50 50 52 50 50 52 50 50 52 50 50 52 50 50 52 50 50 52 50 50 52 50 50 52 50 50 52 50 50 52 50 50 52 50 50 52 50 50 52 50 50 52 50 50 52 50 50 52 50 50 52 50 50 52 50 50 52 50 50 52 50 50 52 50 50 52 50 50 52 50 50 52 50 50 52 50 50 52 50 50 52 50 50 52 50 50 52 50 50 52 50 50 52 50 50 52 50 50 52 50 50 52 50 50 52 50 50 52 50 50 52 50 50 52 50 50 52 50 50 52 50 50 52 50 50 52 50 50 52 50 50 52 50 50 52 50 50 52 50 50 52 50 50 52 50 50 52 50 50 52 50 50 52 50 50 52 50 50 52 50 50 52 50 50 52 50 50 52 50 50 52 50 50 52 50 50 52 50 50 52 50 50 52 50 50 52 50 50 52 50 50 52 50 50 52 50 50 52 50 50 52 50 50 52 50 50 52 50 50 52 50 50 52 50 50 52 50 50 52 50 50 52 50 50 52 50 50 52 50 50 52 50 50 52 50 50 52 50 50 52 50 50 52 50 50 52 50 50 52 50 50 52 50 50 52 50 50 52 50 50 52 50 50 52 50 50 52 50 50 52 50 50 52 50 50 52 50 50 52 50 50 52 50 50 52 50 50 52 50 50 52 50 50 52 50 50 52 50 50 52 50 50 52 50 50 52 50 50 52 50 50 52 50 50 52 50 50 52 50 50 52 50 50 52 50 50 52 50 50 52 50 50 52 50 50 52 50 50 52 50 50 52 50 50 52 50 50 52 50 50 52 50 50 52 50 50 52 50 50 52 50 50 52 50 50 52 50 50 52 50 50 52 50 50 52 50 50 52 50 50 52 50 50 52 50 50 52 50 50 52 50 50 52 50 50 52 50 50 52 50 50 52 50 50 52 50 50 52 50 50 52 50 50 52 50 50 52 50 50 52 50 50 52 50 50 52 50 50 52 50 50 52 50 50 52 50 50 52 50 50 52 50 50 52 50 50 52 50 50 52 50 50 52 50 50 52 50 50 52 50 50 52 50 50 52 50 50 52 50 50 52 50 50 52 50 50 52 50 50 52 50 50 52 50 50 52 50 50 52 50 50 52 50 50 52 50 50 52 50 50 52 50 50 52 50 50 52 50 50 52 50 50 52 50 50 52 50 50 52 50 50 52 50 50 52 50 50 52 50 50 52 50 50 52 50 50 52 50 50 52 50 50 52 50 50 52 50 50 52 50 50 52 50 50 52 50 50 52 50 50 52 50 50 52 50 50 52 50 50 52 50 50 52 50 50 52 50 50 52 50 50 52 50 50 52 50 50 52 50 50 52 50 50 52 50 50 52 50 50 52 50 50 52 50 50 52 50 50 52 50 50 52 50 50 52 50 50 52 50 50 52 50 50 52 50 50 52 50 50 52 50 50 52 50 50 52 50 50 52 50 50 52 50 50 52 50 50 52 50 50 52 50 50 52 50 50 52 50 50 52 50 50 52 50 50 52 50 50 52 50 50 52 50 50 52 50 50 52 50 50 52 50 50 52 50 50 52 50 50 52 50 50 52 50 50 52 50 50 52 50 50 52 50 50 52 50 50 52 50 50 52 50 50 52 50 50 52 50 50 52 50 50 52 50 50 52 50 50 52 50 50 52 50 50 52 50 50 52 50 50 52 50 50 52 50 50 52 50 50 52 50 50 52 50 50 52 50 50 52 50 50 52 50 50 52 50 50 52 50 50 52 50 50 52 50 50 52 50 50 52 50 50 52 50 50 52 50 50 52 50 50 52 50 50 52 50 50 52 50 50 52 50 50 52 50 50 52 50 50 52 50 50 52 50 50 52 50 50 52 50 50 52 50 50 52 50 50 52 50 50 52 50 50 52 50 50
52 50 50 52 50 50 52 50 50 52 50 50 52 50 50 52 50 50 52 50 50 52 50 50 52 50 50 52 50 50 52 50 50 52 50 50 52 50 50 52 50 50 52 50 50 52 50 50 52 50 50 52 50 50 52 50 50 52 50 50 52 50 50 52 50 50 52 50 50 52 50 50 52 50 50 52 50 50 52 50 50 52 50 50 52 50 50 52 50 50 52 50 50 52 50 50 52 50 50 52 50 50 52 50 50 52 50 50 52 50 50 52 50 50 52 50 50 52 50 50 52 50 50 52 50 50 52 50 50 52 50 50 52 50 50 52 50 50 52 50 50 52 50 50 52 50 50 52 50 50 52 50 50 52 50 50 52 50 50 52 50 50 52 50 50 52 50 50 52 50 50 52 50 50 52 50 50 52 50 50 52 50 50 52 50 50 52 50 50 52 50 50 52 50 50 52 50 50 52 50 50 52 50 50 52 50 50 52 50 50 52 50 50 52 50 50 52 50 50 52 50 50 52 50 50 52 50 50 52 50 50 52 50 50 52 50 50 52 50 50 52 50 50 52 50 50 52 50 50 52 50 50 52 50 50 52 50 50 52 50 50 52 50 50 52 50 50 52 50 50 52 50 50 52 50 50 52 50 50 52 50 50 52 50 50 52 50 50 52 50 50 52 50 50 52 50 50 52 50 50 52 50 50 52 50 50 52 50 50 52 50 50 52 50 50 52 50 50 52 50 50 52 50 50 52 50 50 52 50 50 52 50 50 52 50 50 52 50 50 52 50 50 52 50 50 52 50 50 52 50 50 52 50 50 52 50 50 52 50 50 52 50 50 52 50 50 52 50 50 52 50 50 52 50 50 52 50 50 52 50 50 52 50 50 52 50 50 52 50 50 52 50 50 52 50 50 52 50 50 52 50 50 52 50 50 52 50 50 52 50 50 52 50 50 52 50 50 52 50 50 52 50 50 52 50 50 52 50 50 52 50 50 52 50 50 52 50 50 52 50 50 52 50 50 52 50 50 52 50 50 52 50 50 52 50 50 52 50 50 52 50 50 52 50 50 52 50 50 52 50 50 52 50 50 52 50 50 52 50 50 52 50 50 52 50 50 52 50 50 52 50 50 52 50 50 52 50 50 52 50 50 52 50 50 52 50 50 52 50 50 52 50 50 52 50 50 52 50 50 52 50 50 52 50 50 52 50 50 52 50 50 52 50 50 52 50 50 52 50 50 52 50 50 52 50 50 52 50 50 52 50 50 52 50 50 52 50 50 52 50 50 52 50 50 52 50 50 52 50 50 52 50 50 52 50 50 52 50 50 52 50 50 52 50 50 52 50 50 52 50 50 52 50 50 52 50 50 52 50 50 52 50 50 52 50 50 52 50 50 52 50 50 52 50 50 52 50 50 52 50 50 52 50 50 52 50 50 52 50 50 52 50 50 52 50 50 52 50 50 52 50 50 52 50 50 52 50 50 52 50 50 52 50 50 52 50 50 52 50 50 52 50 50 52 50 50 52 50 50 52 50 50 52 50 50 52 50 50 52 50 50 52 50 50 52 50 50 52 50 50 52 50 50 52 50 50 52 50 50 52 50 50 52 50 50 52 50 50 52 50 50 52 50 50 52 50 50 52 50 50 52 50 50 52 50 50 52 50 50 52 50 50 52 50 50 52 50 50 52 50 50 52 50 50 52 50 50 52 50 50 52 50 50 52 50 50 52 50 50 52 50 50 52 50 50 52 50 50 52 50 50 52 50 50 52 50 50 52 50 50 52 50 50 52 50 50 52 50 50 52 50 50 52 50 50 52 50 50 52 50 50 52 50 50 52 50 50 52 50 50 52 50 50 52 50 50 52 50 50 52 50 50 52 50 50 52 50 50 52 50 50 52 50 50 52 50 50 52 50 50 52 50 50 52 50 50 52 50 50 52 50 50 52 50 50 52 50 50 52 50 50 52 50 50 52 50 50 52 50 50 52 50 50 52 50 50 52 50 50 52 50 50 52 50 50 52 50 50 52 50 50 52 50 50 52 50 50 52 50 50
52 50 50 52 50 50 52 50 50 52 50 50 52 50 50 52 50 50 52 50 50 52 50 50 52 50 50 52 50 50 52 50 50 52 50 50 52 50 50 52 50 50 52 50 50 52 50 50 52 50 50 52 50 50 52 50 50 52 50 50 52 50 50 52 50 50 52 50 50 52 50 50 52 50 50 52 50 50 52 50 50 52 50 50 52 50 50 52 50 50 52 50 50 52 50 50 52 50 50 52 50 50 52 50 50 52 50 50 52 50 50 52 50 50 52 50 50 52 50 50 52 50 50 52 50 50 52 50 50 52 50 50 52 50 50 52 50 50 52 50 50 52 50 50 52 50 50 52 50 50 52 50 50 52 50 50 52 50 50 52 50 50 52 50 50 52 50 50 52 50 50 52 50 50 52 50 50 52 50 50 52 50 50 52 50 50 52 50 50 52 50 50 52 50 50 52 50 50 52 50 50 52 50 50 52 50 50 52 50 50 52 50 50 52 50 50 52 50 50 52 50 50 52 50 50 52 50 50 52 50 50 52 50 50 52 50 50 52 50 50 52 50 50 52 50 50 52 50 50 52 50 50 52 50 50 52 50 50 52 50 50 52 50 50 52 50 50 52 50 50 52 50 50 52 50 50 52 50 50 52 50 50 52 50 50 52 50 50 52 50 50 52 50 50 52 50 50 52 50 50 52 50 50 52 50 50 52 50 50 52 50 50 52 50 50 52 50 50 52 50 50 52 50 50 52 50 50 52 50 50 52 50 50 52 50 50 52 50 50 52 50 50 52 50 50 52 50 50 52 50 50 52 50 50 52 50 50 52 50 50 52 50 50 52 50 50 52 50 50 52 50 50 52 50 50 52 50 50 52 50 50 52 50 50 52 50 50 52 50 50 52 50 50 52 50 50 52 50 50 52 50 50 52 50 50 52 50 50 52 50 50 52 50 50 52 50 50 52 50 50 52 50 50 52 50 50 52 50 50 52 50 50 52 50 50 52 50 50 52 50 50 52 50 50 52 50 50 52 50 50 52 50 50 52 50 50 52 50 50 52 50 50 52 50 50 52 50 50 52 50 50 52 50 50 52 50 50 52 50 50 52 50 50 52 50 50 52 50 50 52 50 50 52 50 50 52 50 50 52 50 50 52 50 50 52 50 50 52 50 50 52 50 50 52 50 50 52 50 50 52 50 50 52 50 50 52 50 50 52 50 50 52 50 50 52 50 50 52 50 50 52 50 50 52 50 50 52 50 50 52 50 50 52 50 50 52 50 50 52 50 50 52 50 50 52 50 50 52 50 50 52 50 50 52 50 50 52 50 50 52 50 50 52 50 50 52 50 50 52 50 50 52 50 50 52 50 50 52 50 50 52 50 50 52 50 50 52 50 50 52 50 50 52 50 50 52 50 50 52 50 50 52 50 50 52 50 50 52 50 50 52 50 50 52 50 50 52 50 50 52 50 50 52 50 50 52 50 50 52 50 50 52 50 50 52 50 50 52 50 50 52 50 50 52 50 50 52 50 50 52 50 50 52 50 50 52 50 50 52 50 50 52 50 50 52 50 50 52 50 50 52 50 50 52 50 50 52 50 50 52 50 50 52 50 50 52 50 50 52 50 50 52 50 50 52 50 50 52 50 50 52 50 50 52 50 50 52 50 50 52 50 50 52 50 50 52 50 50 52 50 50 52 50 50 52 50 50 52 50 50 52 50 50 52 50 50 52 50 50 52 50 50 52 50 50 52 50 50 52 50 50 52 50 50 52 50 50 52 50 50 52 50 50 52 50 50 52 50 50 52 50 50 52 50 50 52 50 50 52 50 50 52 50 50 52 50 50 52 50 50 52 50 50 52 50 50 52 50 50 52 50 50 52 50 50 52 50 50 52 50 50 52 50 50 52 50 50 52 50 50 52 50 50 52 50 50 52 50 50 52 50 50 52 50 50 52 50 50 52 50 50 52 50 50 52 50 50 52 50 50 52 50 50 52 50 50 52 50 50 52 50 50 52 50 50 52 50 50 52 50 50 52 50 50 52 50 50 52 50 50
52 50 50 52 50 50 52 50 50 52 50 50 52 50 50 52 50 50 52 50 50 52 50 50 52 50 50 52 50 50 52 50 50 52 50 50 52 50 50 52 50 50 52 50 50 52 50 50 52 50 50 52 50 50 52 50 50 52 50 50 52 50 50 52 50 50 52 50 50 52 50 50 52 50 50 52 50 50 52 50 50 52 50 50 52 50 50 52 50 50 52 50 50 52 50 50 52 50 50 52 50 50 52 50 50 52 50 50 52 50 50 52 50 50 52 50 50 52 50 50 52 50 50 52 50 50 52 50 50 52 50 50 52 50 50 52 50 50 52 50 50 52 50 50 52 50 50 52 50 50 52 50 50 52 50 50 52 50 50 52 50 50 52 50 50 52 50 50 52 50 50 52 50 50 52 50 50 52 50 50 52 50 50 52 50 50 52 50 50 52 50 50 52 50 50 52 50 50 52 50 50 52 50 50 52 50 50 52 50 50 52 50 50 52 50 50 52 50 50 52 50 50 52 50 50 52 50 50 52 50 50 52 50 50 52 50 50 52 50 50 52 50 50 52 50 50 52 50 50 52 50 50 52 50 50 52 50 50 52 50 50 52 50 50 52 50 50 52 50 50 52 50 50 52 50 50 52 50 50 52 50 50 52 50 50 52 50 50 52 50 50 52 50 50 52 50 50 52 50 50 52 50 50 52 50 50 52 50 50 52 50 50 52 50 50 52 50 50 52 50 50 52 50 50 52 50 50 52 50 50 52 50 50 52 50 50 52 50 50 52 50 50 52 50 50 52 50 50 52 50 50 52 50 50 52 50 50 52 50 50 52 50 50 52 50 50 52 50 50 52 50 50 52 50 50 52 50 50 52 50 50 52 50 50 52 50 50 52 50 50 52 50 50 52 50 50 52 50 50 52 50 50 52 50 50 52 50 50 52 50 50 52 50 50 52 50 50 52 50 50 52 50 50 52 50 50 52 50 50 52 50 50 52 50 50 52 50 50 52 50 50 52 50 50 52 50 50 52 50 50 52 50 50 52 50 50 52 50 50 52 50 50 52 50 50 52 50 50 52 50 50 52 50 50 52 50 50 52 50 50 52 50 50 52 50 50 52 50 50 52 50 50 52 50 50 52 50 50 52 50 50 52 50 50 52 50 50 52 50 50 52 50 50 52 50 50 52 50 50 52 50 50 52 50 50 52 50 50 52 50 50 52 50 50 52 50 50 52 50 50 52 50 50 52 50 50 52 50 50 52 50 50 52 50 50 52 50 50 52 50 50 52 50 50 52 50 50 52 50 50 52 50 50 52 50 50 52 50 50 52 50 50 52 50 50 52 50 50 52 50 50 52 50 50 52 50 50 52 50 50 52 50 50 52 50 50 52 50 50 52 50 50 52 50 50 52 50 50 52 50 50 52 50 50 52 50 50 52 50 50 52 50 50 52 50 50 52 50 50 52 50 50 52 50 50 52 50 50 52 50 50 52 50 50 52 50 50 52 50 50 52 50 50 52 50 50 52 50 50 52 50 50 52 50 50 52 50 50 52 50 50 52 50 50 52 50 50 52 50 50 52 50 50 52 50 50 52 50 50 52 50 50 52 50 50 52 50 50 52 50 50 52 50 50 52 50 50 52 50 50 52 50 50 52 50 50 52 50 50 52 50 50 52 50 50 52 50 50 52 50 50 52 50 50 52 50 50 52 50 50 52 50 50 52 50 50 52 50 50 52 50 50 52 50 50 52 50 50 52 50 50 52 50 50 52 50 50 52 50 50 52 50 50 52 50 50 52 50 50 52 50 50 52 50 50 52 50 50 52 50 50 52 50 50 52 50 50 52 50 50 52 50 50 52 50 50 52 50 50 52 50 50 52 50 50 52 50 50 52 50 50 52 50 50 52 50 50 52 50 50 52 50 50 52 50 50 52 50 50 52 50 50 52 50 50 52 50 50 52 50 50 52 50 50 52 50 50 52 50 50 52 50 50 52 50 50 52 50 50 52 50 50 52 50 50 52 50 50 52 50 50 52 50 50 52 50 50 52 50 50
52 50 50 52 50 50 52 50 50 52 50 50 52 50 50 52 50 50 52 50 50 52 50 50 52 50 50 52 50 50 52 50 50 52 50 50 52 50 50 52 50 50 52 50 50 52 50 50 52 50 50 52 50 50 52 50 50 52 50 50 52 50 50 52 50 50 52 50 50 52 50 50 52 50 50 52 50 50 52 50 50 52 50 50 52 50 50 52 50 50 52 50 50 52 50 50 52 50 50 52 50 50 52 50 50 52 50 50 52 50 50 52 50 50 52 50 50 52 50 50 52 50 50 52 50 50 52 50 50 52 50 50 52 50 50 52 50 50 52 50 50 52 50 50 52 50 50 52 50 50 52 50 50 52 50 50 52 50 50 52 50 50 52 50 50 52 50 50 52 50 50 52 50 50 52 50 50 52 50 50 52 50 50 52 50 50 52 50 50 52 50 50 52 50 50 52 50 50 52 50 50 52 50 50 52 50 50 52 50 50 52 50 50 52 50 50 52 50 50 52 50 50 52 50 50 52 50 50 52 50 50 52 50 50 52 50 50 52 50 50 52 50 50 52 50 50 52 50 50 52 50 50 52 50 50 52 50 50 52 50 50 52 50 50 52 50 50 52 50 50 52 50 50 52 50 50 52 50 50 52 50 50 52 50 50 52 50 50 52 50 50 52 50 50 52 50 50 52 50 50 52 50 50 52 50 50 52 50 50 52 50 50 52 50 50 52 50 50 52 50 50 52 50 50 52 50 50 52 50 50 52 50 50 52 50 50 52 50 50 52 50 50 52 50 50 52 50 50 52 50 50 52 50 50 52 50 50 52 50 50 52 50 50 52 50 50 52 50 50 52 50 50 52 50 50 52 50 50 52 50 50 52 50 50 52 50 50 52 50 50 52 50 50 52 50 50 52 50 50 52 50 50 52 50 50 52 50 50 52 50 50 52 50 50 52 50 50 52 50 50 52 50 50 52 50 50 52 50 50 52 50 50 52 50 50 52 50 50 52 50 50 52 50 50 52 50 50 52 50 50 52 50 50 52 50 50 52 50 50 52 50 50 52 50 50 52 50 50 52 50 50 52 50 50 52 50 50 52 50 50 52 50 50 52 50 50 52 50 50 52 50 50 52 50 50 52 50 50 52 50 50 52 50 50 52 50 50 52 50 50 52 50 50 52 50 50 52 50 50 52 50 50 52 50 50 52 50 50 52 50 50 52 50 50 52 50 50 52 50 50 52 50 50 52 50 50 52 50 50 52 50 50 52 50 50 52 50 50 52 50 50 52 50 50 52 50 50 52 50 50 52 50 50 52 50 50 52 50 50 52 50 50 52 50 50 52 50 50 52 50 50 52 50 50 52 50 50 52 50 50 52 50 50 52 50 50 52 50 50 52 50 50 52 50 50 52 50 50 52 50 50 52 50 50 52 50 50 52 50 50 52 50 50 52 50 50 52 50 50 52 50 50 52 50 50 52 50 50 52 50 50 52 50 50 52 50 50 52 50 50 52 50 50 52 50 50 52 50 50 52 50 50 52 50 50 52 50 50 52 50 50 52 50 50 52 50 50 52 50 50 52 50 50 52 50 50 52 50 50 52 50 50 52 50 50 52 50 50 52 50 50 52 50 50 52 50 50 52 50 50 52 50 50 52 50 50 52 50 50 52 50 50 52 50 50 52 50 50 52 50 50 52 50 50 52 50 50 52 50 50 52 50 50 52 50 50 52 50 50 52 50 50 52 50 50 52 50 50 52 50 50 52 50 50 52 50 50 52 50 50 52 50 50 52 50 50 52 50 50 52 50 50 52 50 50 52 50 50 52 50 50 52 50 50 52 50 50 52 50 50 52 50 50 52 50 50 52 50 50 52 50 50 52 50 50 52 50 50 52 50 50 52 50 50 52 50 50 52 50 50 52 50 50 52 50 50 52 50 50 52 50 50 52 50 50 52 50 50 52 50 50 52 50 50 52 50 50 52 50 50 52 50 50 52 50 50 52 50 50 52 50 50 52 50 50 52 50 50 52 50 50 52 50 50 52 50 50 52 50 50
52 50 50 52 50 50 52 50 50 52 50 50 52 50 50 52 50 50 52 50 50 52 50 50 52 50 50 52 50 50 52 50 50 52 50 50 52 50 50 52 50 50 52 50 50 52 50 50 52 50 50 52 50 50 52 50 50 52 50 50 52 50 50 52 50 50 52 50 50 52 50 50 52 50 50 52 50 50 52 50 50 52 50 50 52 50 50 52 50 50 52 50 50 52 50 50 52 50 50 52 50 50 52 50 50 52 50 50 52 50 50 52 50 50 52 50 50 52 50 50 52 50 50 52 50 50 52 50 50 52 50 50 52 50 50 52 50 50 52 50 50 52 50 50 52 50 50 52 50 50 52 50 50 52 50 50 52 50 50 52 50 50 52 50 50 52 50 50 52 50 50 52 50 50 52 50 50 52 50 50 52 50 50 52 50 50 52 50 50 52 50 50 52 50 50 52 50 50 52 50 50 52 50 50 52 50 50 52 50 50 52 50 50 52 50 50 52 50 50 52 50 50 52 50 50 52 50 50 52 50 50 52 50 50 52 50 50 52 50 50 52 50 50 52 50 50 52 50 50 52 50 50 52 50 50 52 50 50 52 50 50 52 50 50 52 50 50 52 50 50 52 50 50 52 50 50 52 50 50 52 50 50 52 50 50 52 50 50 52 50 50 52 50 50 52 50 50 52 50 50 52 50 50 52 50 50 52 50 50 52 50 50 52 50 50 52 50 50 52 50 50 52 50 50 52 50 50 52 50 50 52 50 50 52 50 50 52 50 50 52 50 50 52 50 50 52 50 50 52 50 50 52 50 50 52 50 50 52 50 50 52 50 50 52 50 50 52 50 50 52 50 50 52 50 50 52 50 50 52 50 50 52 50 50 52 50 50 52 50 50 52 50 50 52 50 50 52 50 50 52 50 50 52 50 50 52 50 50 52 50 50 52 50 50 52 50 50 52 50 50 52 50 50 52 50 50 52 50 50 52 50 50 52 50 50 52 50 50 52 50 50 52 50 50 52 50 50 52 50 50 52 50 50 52 50 50 52 50 50 52 50 50 52 50 50 52 50 50 52 50 50 52 50 50 52 50 50 52 50 50 52 50 50 52 50 50 52 50 50 52 50 50 52 50 50 52 50 50 52 50 50 52 50 50 52 50 50 52 50 50 52 50 50 52 50 50 52 50 50 52 50 50 52 50 50 52 50 50 52 50 50 52 50 50 52 50 50 52 50 50 52 50 50 52 50 50 52 50 50 52 50 50 52 50 50 52 50 50 52 50 50 52 50 50 52 50 50 52 50 50 52 50 50 52 50 50 52 50 50 52 50 50 52 50 50 52 50 50 52 50 50 52 50 50 52 50 50 52 50 50 52 50 50 52 50 50 52 50 50 52 50 50 52 50 50 52 50 50 52 50 50 52 50 50 52 50 50 52 50 50 52 50 50 52 50 50 52 50 50 52 50 50 52 50 50 52 50 50 52 50 50 52 50 50 52 50 50 52 50 50 52 50 50 52 50 50 52 50 50 52 50 50 52 50 50 52 50 50 52 50 50 52 50 50 52 50 50 52 50 50 52 50 50 52 50 50 52 50 50 52 50 50 52 50 50 52 50 50 52 50 50 52 50 50 52 50 50 52 50 50 52 50 50 52 50 50 52 50 50 52 50 50 52 50 50 52 50 50 52 50 50 52 50 50 52 50 50 52 50 50 52 50 50 52 50 50 52 50 50 52 50 50 52 50 50 52 50 50 52 50 50 52 50 50 52 50 50 52 50 50 52 50 50 52 50 50 52 50 50 52 50 50 52 50 50 52 50 50 52 50 50 52 50 50 52 50 50 52 50 50 52 50 50 52 50 50 52 50 50 52 50 50 52 50 50 52 50 50 52 50 50 52 50 50 52 50 50 52 50 50 52 50 50 52 50 50 52 50 50 52 50 50 52 50 50 52 50 50 52 50 50 52 50 50 52 50 50 52 50 50 52 50 50 52 50 50 52 50 50 52 50 50 52 50 50 52 50 50 52 50 50 52 50 50 52 50 50 52 50 50
52 50 50 52 50 50 52 50 50 52 50 50 52 50 50 52 50 50 52 50 50 52 50 50 52 50 50 52 50 50 52 50 50 52 50 50 52 50 50 52 50 50 52 50 50 52 50 50 52 50 50 52 50 50 52 50 50 52 50 50 52 50 50 52 50 50 52 50 50 52 50 50 52 50 50 52 50 50 52 50 50 52 50 50 52 50 50 52 50 50 52 50 50 52 50 50 52 50 50 52 50 50 52 50 50 52 50 50 52 50 50 52 50 50 52 50 50 52 50 50 52 50 50 52 50 50 52 50 50 52 50 50 52 50 50 52 50 50 52 50 50 52 50 50 52 50 50 52 50 50 52 50 50 52 50 50 52 50 50 52 50 50 52 50 50 52 50 50 52 50 50 52 50 50 52 50 50 52 50 50 52 50 50 52 50 50 52 50 50 52 50 50 52 50 50 52 50 50 52 50 50 52 50 50 52 50 50 52 50 50 52 50 50 52 50 50 52 50 50 52 50 50 52 50 50 52 50 50 52 50 50 52 50 50 52 50 50 52 50 50 52 50 50 52 50 50 52 50 50 52 50 50 52 50 50 52 50 50 52 50 50 52 50 50 52 50 50 52 50 50 52 50 50 52 50 50 52 50 50 52 50 50 52 50 50 52 50 50 52 50 50 52 50 50 52 50 50 52 50 50 52 50 50 52 50 50 52 50 50 52 50 50 52 50 50 52 50 50 52 50 50 52 50 50 52 50 50 52 50 50 52 50 50 52 50 50 52 50 50 52 50 50 52 50 50 52 50 50 52 50 50 52 50 50 52 50 50 52 50 50 52 50 50 52 50 50 52 50 50 52 50 50 52 50 50 52 50 50 52 50 50 52 50 50 52 50 50 52 50 50 52 50 50 52 50 50 52 50 50 52 50 50 52 50 50 52 50 50 52 50 50 52 50 50 52 50 50 52 50 50 52 50 50 52 50 50 52 50 50 52 50 50 52 50 50 52 50 50 52 50 50 52 50 50 52 50 50 52 50 50 52 50 50 52 50 50 52 50 50 52 50 50 52 50 50 52 50 50 52 50 50 52 50 50 52 50 50 52 50 50 52 50 50 52 50 50 52 50 50 52 50 50 52 50 50 52 50 50 52 50 50 52 50 50 52 50 50 52 50 50 52 50 50 52 50 50 52 50 50 52 50 50 52 50 50 52 50 50 52 50 50 52 50 50 52 50 50 52 50 50 52 50 50 52 50 50 52 50 50 52 50 50 52 50 50 52 50 50 52 50 50 52 50 50 52 50 50 52 50 50 52 50 50 52 50 50 52 50 50 52 50 50 52 50 50 52 50 50 52 50 50 52 50 50 52 50 50 52 50 50 52 50 50 52 50 50 52 50 50 52 50 50 52 50 50 52 50 50 52 50 50 52 50 50 52 50 50 52 50 50 52 50 50 52 50 50 52 50 50 52 50 50 52 50 50 52 50 50 52 50 50 52 50 50 52 50 50 52 50 50 52 50 50 52 50 50 52 50 50 52 50 50 52 50 50 52 50 50 52 50 50 52 50 50 52 50 50 52 50 50 52 50 50 52 50 50 52 50 50 52 50 50 52 50 50 52 50 50 52 50 50 52 50 50 52 50 50 52 50 50 52 50 50 52 50 50 52 50 50 52 50 50 52 50 50 52 50 50 52 50 50 52 50 50 52 50 50 52 50 50 52 50 50 52 50 50 52 50 50 52 50 50 52 50 50 52 50 50 52 50 50 52 50 50 52 50 50 52 50 50 52 50 50 52 50 50 52 50 50 52 50 50 52 50 50 52 50 50 52 50 50 52 50 50 52 50 50 52 50 50 52 50 50 52 50 50 52 50 50 52 50 50 52 50 50 52 50 50 52 50 50 52 50 50 52 50 50 52 50 50 52 50 50 52 50 50 52 50 50 52 50 50 52 50 50 52 50 50 52 50 50 52 50 50 52 50 50 52 50 50 52 50 50 52 50 50 52 50 50 52 50 50 52 50 50 52 50 50 52 50 50 52 50 50 52 50 50 52 50 50
52 50 50 52 50 50 52 50 50 52 50 50 52 50 50 52 50 50 52 50 50 52 50 50 52 50 50 52 50 50 52 50 50 52 50 50 52 50 50 52 50 50 52 50 50 52 50 50 52 50 50 52 50 50 52 50 50 52 50 50 52 50 50 52 50 50 52 50 50 52 50 50 52 50 50 52 50 50 52 50 50 52 50 50 52 50 50 52 50 50 52 50 50 52 50 50 52 50 50 52 50 50 52 50 50 52 50 50 52 50 50 52 50 50 52 50 50 52 50 50 52 50 50 52 50 50 52 50 50 52 50 50 52 50 50 52 50 50 52 50 50 52 50 50 52 50 50 52 50 50 52 50 50 52 50 50 52 50 50 52 50 50 52 50 50 52 50 50 52 50 50 52 50 50 52 50 50 52 50 50 52 50 50 52 50 50 52 50 50 52 50 50 52 50 50 52 50 50 52 50 50 52 50 50 52 50 50 52 50 50 52 50 50 52 50 50 52 50 50 52 50 50 52 50 50 52 50 50 52 50 50 52 50 50 52 50 50 52 50 50 52 50 50 52 50 50 52 50 50 52 50 50 52 50 50 52 50 50 52 50 50 52 50 50 52 50 50 52 50 50 52 50 50 52 50 50 52 50 50 52 50 50 52 50 50 52 50 50 52 50 50 52 50 50 52 50 50 52 50 50 52 50 50 52 50 50 52 50 50 52 50 50 52 50 50 52 50 50 52 50 50 52 50 50 52 50 50 52 50 50 52 50 50 52 50 50 52 50 50 52 50 50 52 50 50 52 50 50 52 50 50 52 50 50 52 50 50 52 50 50 52 50 50 52 50 50 52 50 50 52 50 50 52 50 50 52 50 50 52 50 50 52 50 50 52 50 50 52 50 50 52 50 50 52 50 50 52 50 50 52 50 50 52 50 50 52 50 50 52 50 50 52 50 50 52 50 50 52 50 50 52 50 50 52 50 50 52 50 50 52 50 50 52 50 50 52 50 50 52 50 50 52 50 50 52 50 50 52 50 50 52 50 50 52 50 50 52 50 50 52 50 50 52 50 50 52 50 50 52 50 50 52 50 50 52 50 50 52 50 50 52 50 50 52 50 50 52 50 50 52 50 50 52 50 50 52 50 50 52 50 50 52 50 50 52 50 50 52 50 50 52 50 50 52 50 50 52 50 50 52 50 50 52 50 50 52 50 50 52 50 50 52 50 50 52 50 50 52 50 50 52 50 50 52 50 50 52 50 50 52 50 50 52 50 50 52 50 50 52 50 50 52 50 50 52 50 50 52 50 50 52 50 50 52 50 50 52 50 50 52 50 50 52 50 50 52 50 50 52 50 50 52 50 50 52 50 50 52 50 50 52 50 50 52 50 50 52 50 50 52 50 50 52 50 50 52 50 50 52 50 50 52 50 50 52 50 50 52 50 50 52 50 50 52 50 50 52 50 50 52 50 50 52 50 50 52 50 50 52 50 50 52 50 50 52 50 50 52 50 50 52 50 50 52 50 50 52 50 50 52 50 50 52 50 50 52 50 50 52 50 50 52 50 50 52 50 50 52 50 50 52 50 50 52 50 50 52 50 50 52 50 50 52 50 50 52 50 50 52 50 50 52 50 50 52 50 50 52 50 50 52 50 50 52 50 50 52 50 50 52 50 50 52 50 50 52 50 50 52 50 50 52 50 50 52 50 50 52 50 50 52 50 50 52 50 50 52 50 50 52 50 50 52 50 50 52 50 50 52 50 50 52 50 50 52 50 50 52 50 50 52 50 50 52 50 50 52 50 50 52 50 50 52 50 50 52 50 50 52 50 50 52 50 50 52 50 50 52 50 50 52 50 50 52 50 50 52 50 50 52 50 50 52 50 50 52 50 50 52 50 50 52 50 50 52 50 50 52 50 50 52 50 50 52 50 50 52 50 50 52 50 50 52 50 50 52 50 50 52 50 50 52 50 50 52 50 50 52 50 50 52 50 50 52 50 50 52 50 50 52 50 50 52 50 50 52 50 50 52 50 50 52 50 50 52 50 50 52 50 50
52 50 50 52 50 50 52 50 50 52 50 50 52 50 50 52 50 50 52 50 50 52 50 50 52 50 50 52 50 50 52 50 50 52 50 50 52 50 50 52 50 50 52 50 50 52 50 50 52 50 50 52 50 50 52 50 50 52 50 50 52 50 50 52 50 50 52 50 50 52 50 50 52 50 50 52 50 50 52 50 50 52 50 50 52 50 50 52 50 50 52 50 50 52 50 50 52 50 50 52 50 50 52 50 50 52 50 50 52 50 50 52 50 50 52 50 50 52 50 50 52 50 50 52 50 50 52 50 50 52 50 50 52 50 50 52 50 50 52 50 50 52 50 50 52 50 50 52 50 50 52 50 50 52 50 50 52 50 50 52 50 50 52 50 50 52 50 50 52 50 50 52 50 50 52 50 50 52 50 50 52 50 50 52 50 50 52 50 50 52 50 50 52 50 50 52 50 50 52 50 50 52 50 50 52 50 50 52 50 50 52 50 50 52 50 50 52 50 50 52 50 50 52 50 50 52 50 50 52 50 50 52 50 50 52 50 50 52 50 50 52 50 50 52 50 50 52 50 50 52 50 50 52 50 50 52 50 50 52 50 50 52 50 50 52 50 50 52 50 50 52 50 50 52 50 50 52 50 50 52 50 50 52 50 50 52 50 50 52 50 50 52 50 50 52 50 50 52 50 50 52 50 50 52 50 50 52 50 50 52 50 50 52 50 50 52 50 50 52 50 50 52 50 50 52 50 50 52 50 50 52 50 50 52 50 50 52 50 50 52 50 50 52 50 50 52 50 50 52 50 50 52 50 50 52 50 50 52 50 50 52 50 50 52 50 50 52 50 50 52 50 50 52 50 50 52 50 50 52 50 50 52 50 50 52 50 50 52 50 50 52 50 50 52 50 50 52 50 50 52 50 50 52 50 50 52 50 50 52 50 50 52 50 50 52 50 50 52 50 50 52 50 50 52 50 50 52 50 50 52 50 50 52 50 50 52 50 50 52 50 50 52 50 50 52 50 50 52 50 50 52 50 50 52 50 50 52 50 50 52 50 50 52 50 50 52 50 50 52 50 50 52 50 50 52 50 50 52 50 50 52 50 50 52 50 50 52 50 50 52 50 50 52 50 50 52 50 50 52 50 50 52 50 50 52 50 50 52 50 50 52 50 50 52 50 50 52 50 50 52 50 50 52 50 50 52 50 50 52 50 50 52 50 50 52 50 50 52 50 50 52 50 50 52 50 50 52 50 50 52 50 50 52 50 50 52 50 50 52 50 50 52 50 50 52 50 50 52 50 50 52 50 50 52 50 50 52 50 50 52 50 50 52 50 50 52 50 50 52 50 50 52 50 50 52 50 50 52 50 50 52 50 50 52 50 50 52 50 50 52 50 50 52 50 50 52 50 50 52 50 50 52 50 50 52 50 50 52 50 50 52 50 50 52 50 50 52 50 50 52 50 50 52 50 50 52 50 50 52 50 50 52 50 50 52 50 50 52 50 50 52 50 50 52 50 50 52 50 50 52 50 50 52 50 50 52 50 50 52 50 50 52 50 50 52 50 50 52 50 50 52 50 50 52 50 50 52 50 50 52 50 50 52 50 50 52 50 50 52 50 50 52 50 50 52 50 50 52 50 50 52 50 50 52 50 50 52 50 50 52 50 50 52 50 50 52 50 50 52 50 50 52 50 50 52 50 50 52 50 50 52 50 50 52 50 50 52 50 50 52 50 50 52 50 50 52 50 50 52 50 50 52 50 50 52 50 50 52 50 50 52 50 50 52 50 50 52 50 50 52 50 50 52 50 50 52 50 50 52 50 50 52 50 50 52 50 50 52 50 50 52 50 50 52 50 50 52 50 50 52 50 50 52 50 50 52 50 50 52 50 50 52 50 50 52 50 50 52 50 50 52 50 50 52 50 50 52 50 50 52 50 50 52 50 50 52 50 50 52 50 50 52 50 50 52 50 50 52 50 50 52 50 50 52 50 50 52 50 50 52 50 50 52 50 50 52 50 50 52 50 50 52 50 50 52 50 50 52 50 50
52 50 50 52 50 50 52 50 50 52 50 50 52 50 50 52 50 50 52 50 50 52 50 50 52 50 50 52 50 50 52 50 50 52 50 50 52 50 50 52 50 50 52 50 50 52 50 50 52 50 50 52 50 50 52 50 50 52 50 50 52 50 50 52 50 50 52 50 50 52 50 50 52 50 50 52 50 50 52 50 50 52 50 50 52 50 50 52 50 50 52 50 50 52 50 50 52 50 50 52 50 50 52 50 50 52 50 50 52 50 50 52 50 50 52 50 50 52 50 50 52 50 50 52 50 50 52 50 50 52 50 50 52 50 50 52 50 50 52 50 50 52 50 50 52 50 50 52 50 50 52 50 50 52 50 50 52 50 50 52 50 50 52 50 50 52 50 50 52 50 50 52 50 50 52 50 50 52 50 50 52 50 50 52 50 50 52 50 50 52 50 50 52 50 50 52 50 50 52 50 50 52 50 50 52 50 50 52 50 50 52 50 50 52 50 50 52 50 50 52 50 50 52 50 50 52 50 50 52 50 50 52 50 50 52 50 50 52 50 50 52 50 50 52 50 50 52 50 50 52 50 50 52 50 50 52 50 50 52 50 50 52 50 50 52 50 50 52 50 50 52 50 50 52 50 50 52 50 50 52 50 50 52 50 50 52 50 50 52 50 50 52 50 50 52 50 50 52 50 50 52 50 50 52 50 50 52 50 50 52 50 50 52 50 50 52 50 50 52 50 50 52 50 50 52 50 50 52 50 50 52 50 50 52 50 50 52 50 50 52 50 50 52 50 50 52 50 50 52 50 50 52 50 50 52 50 50 52 50 50 52 50 50 52 50 50 52 50 50 52 50 50 52 50 50 52 50 50 52 50 50 52 50 50 52 50 50 52 50 50 52 50 50 52 50 50 52 50 50 52 50 50 52 50 50 52 50 50 52 50 50 52 50 50 52 50 50 52 50 50 52 50 50 52 50 50 52 50 50 52 50 50 52 50 50 52 50 50 52 50 50 52 50 50 52 50 50 52 50 50 52 50 50 52 50 50 52 50 50 52 50 50 52 50 50 52 50 50 52 50 50 52 50 50 52 50 50 52 50 50 52 50 50 52 50 50 52 50 50 52 50 50 52 50 50 52 50 50 52 50 50 52 50 50 52 50 50 52 50 50 52 50 50 52 50 50 52 50 50 52 50 50 52 50 50 52 50 50 52 50 50 52 50 50 52 50 50 52 50 50 52 50 50 52 50 50 52 50 50 52 50 50 52 50 50 52 50 50 52 50 50 52 50 50 52 50 50 52 50 50 52 50 50 52 50 50 52 50 50 52 50 50 52 50 50 52 50 50 52 50 50 52 50 50 52 50 50 52 50 50 52 50 50 52 50 50 52 50 50 52 50 50 52 50 50 52 50 50 52 50 50 52 50 50 52 50 50 52 50 50 52 50 50 52 50 50 52 50 50 52 50 50 52 50 50 52 50 50 52 50 50 52 50 50 52 50 50 52 50 50 52 50 50 52 50 50 52 50 50 52 50 50 52 50 50 52 50 50 52 50 50 52 50 50 52 50 50 52 50 50 52 50 50 52 50 50 52 50 50 52 50 50 52 50 50 52 50 50 52 50 50 52 50 50 52 50 50 52 50 50 52 50 50 52 50 50 52 50 50 52 50 50 52 50 50 52 50 50 52 50 50 52 50 50 52 50 50 52 50 50 52 50 50 52 50 50 52 50 50 52 50 50 52 50 50 52 50 50 52 50 50 52 50 50 52 50 50 52 50 50 52 50 50 52 50 50 52 50 50 52 50 50 52 50 50 52 50 50 52 50 50 52 50 50 52 50 50 52 50 50 52 50 50 52 50 50 52 50 50 52 50 50 52 50 50 52 50 50 52 50 50 52 50 50 52 50 50 52 50 50 52 50 50 52 50 50 52 50 50 52 50 50 52 50 50 52 50 50 52 50 50 52 50 50 52 50 50 52 50 50 52 50 50 52 50 50 52 50 50 52 50 50 52 50 50 52 50 50 52 50 50 52 50 50 52 50 50 52 50 50
52 50 50 52 50 50 52 50 50 52 50 50 52 50 50 52 50 50 52 50 50 52 50 50 52 50 50 52 50 50 52 50 50 52 50 50 52 50 50 52 50 50 52 50 50 52 50 50 52 50 50 52 50 50 52 50 50 52 50 50 52 50 50 52 50 50 52 50 50 52 50 50 52 50 50 52 50 50 52 50 50 52 50 50 52 50 50 52 50 50 52 50 50 52 50 50 52 50 50 52 50 50 52 50 50 52 50 50 52 50 50 52 50 50 52 50 50 52 50 50 52 50 50 52 50 50 52 50 50 52 50 50 52 50 50 52 50 50 52 50 50 52 50 50 52 50 50 52 50 50 52 50 50 52 50 50 52 50 50 52 50 50 52 50 50 52 50 50 52 50 50 52 50 50 52 50 50 52 50 50 52 50 50 52 50 50 52 50 50 52 50 50 52 50 50 52 50 50 52 50 50 52 50 50 52 50 50 52 50 50 52 50 50 52 50 50 52 50 50 52 50 50 52 50 50 52 50 50 52 50 50 52 50 50 52 50 50 52 50 50 52 50 50 52 50 50 52 50 50 52 50 50 52 50 50 52 50 50 52 50 50 52 50 50 52 50 50 52 50 50 52 50 50 52 50 50 52 50 50 52 50 50 52 50 50 52 50 50 52 50 50 52 50 50 52 50 50 52 50 50 52 50 50 52 50 50 52 50 50 52 50 50 52 50 50 52 50 50 52 50 50 52 50 50 52 50 50 52 50 50 52 50 50 52 50 50 52 50 50 52 50 50 52 50 50 52 50 50 52 50 50 52 50 50 52 50 50 52 50 50 52 50 50 52 50 50 52 50 50 52 50 50 52 50 50 52 50 50 52 50 50 52 50 50 52 50 50 52 50 50 52 50 50 52 50 50 52 50 50 52 50 50 52 50 50 52 50 50 52 50 50 52 50 50 52 50 50 52 50 50 52 50 50 52 50 50 52 50 50 52 50 50 52 50 50 52 50 50 52 50 50 52 50 50 52 50 50 52 50 50 52 50 50 52 50 50 52 50 50 52 50 50 52 50 50 52 50 50 52 50 50 52 50 50 52 50 50 52 50 50 52 50 50 52 50 50 52 50 50 52 50 50 52 50 50 52 50 50 52 50 50 52 50 50 52 50 50 52 50 50 52 50 50 52 50 50 52 50 50 52 50 50 52 50 50 52 50 50 52 50 50 52 50 50 52 50 50 52 50 50 52 50 50 52 50 50 52 50 50 52 50 50 52 50 50 52 50 50 52 50 50 52 50 50 52 50 50 52 50 50 52 50 50 52 50 50 52 50 50 52 50 50 52 50 50 52 50 50 52 50 50 52 50 50 52 50 50 52 50 50 52 50 50 52 50 50 52 50 50 52 50 50 52 50 50 52 50 50 52 50 50 52 50 50 52 50 50 52 50 50 52 50 50 52 50 50 52 50 50 52 50 50 52 50 50 52 50 50 52 50 50 52 50 50 52 50 50 52 50 50 52 50 50 52 50 50 52 50 50 52 50 50 52 50 50 52 50 50 52 50 50 52 50 50 52 50 50 52 50 50 52 50 50 52 50 50 52 50 50 52 50 50 52 50 50 52 50 50 52 50 50 52 50 50 52 50 50 52 50 50 52 50 50 52 50 50 52 50 50 52 50 50 52 50 50 52 50 50 52 50 50 52 50 50 52 50 50 52 50 50 52 50 50 52 50 50 52 50 50 52 50 50 52 50 50 52 50 50 52 50 50 52 50 50 52 50 50 52 50 50 52 50 50 52 50 50 52 50 50 52 50 50 52 50 50 52 50 50 52 50 50 52 50 50 52 50 50 52 50 50 52 50 50 52 50 50 52 50 50 52 50 50 52 50 50 52 50 50 52 50 50 52 50 50 52 50 50 52 50 50 52 50 50 52 50 50 52 50 50 52 50 50 52 50 50 52 50 50 52 50 50 52 50 50 52 50 50 52 50 50 52 50 50 52 50 50 52 50 50 52 50 50 52 50 50 52 50 50 52 50 50 52 50 50 52 50 50 52 50 50
52 50 50 52 50 50 52 50 50 52 50 50 52 50 50 52 50 50 52 50 50 52 50 50 52 50 50 52 50 50 52 50 50 52 50 50 52 50 50 52 50 50 52 50 50 52 50 50 52 50 50 52 50 50 52 50 50 52 50 50 52 50 50 52 50 50 52 50 50 52 50 50 52 50 50 52 50 50 52 50 50 52 50 50 52 50 50 52 50 50 52 50 50 52 50 50 52 50 50 52 50 50 52 50 50 52 50 50 52 50 50 52 50 50 52 50 50 52 50 50 52 50 50 52 50 50 52 50 50 52 50 50 52 50 50 52 50 50 52 50 50 52 50 50 52 50 50 52 50 50 52 50 50 52 50 50 52 50 50 52 50 50 52 50 50 52 50 50 52 50 50 52 50 50 52 50 50 52 50 50 52 50 50 52 50 50 52 50 50 52 50 50 52 50 50 52 50 50 52 50 50 52 50 50 52 50 50 52 50 50 52 50 50 52 50 50 52 50 50 52 50 50 52 50 50 52 50 50 52 50 50 52 50 50 52 50 50 52 50 50 52 50 50 52 50 50 52 50 50 52 50 50 52 50 50 52 50 50 52 50 50 52 50 50 52 50 50 52 50 50 52 50 50 52 50 50 52 50 50 52 50 50 52 50 50 52 50 50 52 50 50 52 50 50 52 50 50 52 50 50 52 50 50 52 50 50 52 50 50 52 50 50 52 50 50 52 50 50 52 50 50 52 50 50 52 50 50 52 50 50 52 50 50 52 50 50 52 50 50 52 50 50 52 50 50 52 50 50 52 50 50 52 50 50 52 50 50 52 50 50 52 50 50 52 50 50 52 50 50 52 50 50 52 50 50 52 50 50 52 50 50 52 50 50 52 50 50 52 50 50 52 50 50 52 50 50 52 50 50 52 50 50 52 50 50 52 50 50 52 50 50 52 50 50 52 50 50 52 50 50 52 50 50 52 50 50 52 50 50 52 50 50 52 50 50 52 50 50 52 50 50 52 50 50 52 50 50 52 50 50 52 50 50 52 50 50 52 50 50 52 50 50 52 50 50 52 50 50 52 50 50 52 50 50 52 50 50 52 50 50 52 50 50 52 50 50 52 50 50 52 50 50 52 50 50 52 50 50 52 50 50 52 50 50 52 50 50 52 50 50 52 50 50 52 50 50 52 50 50 52 50 50 52 50 50 52 50 50 52 50 50 52 50 50 52 50 50 52 50 50 52 50 50 52 50 50 52 50 50 52 50 50 52 50 50 52 50 50 52 50 50 52 50 50 52 50 50 52 50 50 52 50 50 52 50 50 52 50 50 52 50 50 52 50 50 52 50 50 52 50 50 52 50 50 52 50 50 52 50 50 52 50 50 52 50 50 52 50 50 52 50 50 52 50 50 52 50 50 52 50 50 52 50 50 52 50 50 52 50 50 52 50 50 52 50 50 52 50 50 52 50 50 52 50 50 52 50 50 52 50 50 52 50 50 52 50 50 52 50 50 52 50 50 52 50 50 52 50 50 52 50 50 52 50 50 52 50 50 52 50 50 52 50 50 52 50 50 52 50 50 52 50 50 52 50 50 52 50 50 52 50 50 52 50 50 52 50 50 52 50 50 52 50 50 52 50 50 52 50 50 52 50 50 52 50 50 52 50 50 52 50 50 52 50 50 52 50 50 52 50 50 52 50 50 52 50 50 52 50 50 52 50 50 52 50 50 52 50 50 52 50 50 52 50 50 52 50 50 52 50 50 52 50 50 52 50 50 52 50 50 52 50 50 52 50 50 52 50 50 52 50 50 52 50 50 52 50 50 52 50 50 52 50 50 52 50 50 52 50 50 52 50 50 52 50 50 52 50 50 52 50 50 52 50 50 52 50 50 52 50 50 52 50 50 52 50 50 52 50 50 52 50 50 52 50 50 52 50 50 52 50 50 52 50 50 52 50 50 52 50 50 52 50 50 52 50 50 52 50 50 52 50 50 52 50 50 52 50 50 52 50 50 52 50 50 52 50 50 52 50 50 52 50 50 52 50 50 52 50 50
52 50 50 52 50 50 52 50 50 52 50 50 52 50 50 52 50 50 52 50 50 52 50 50 52 50 50 52 50 50 52 50 50 52 50 50 52 50 50 52 50 50 52 50 50 52 50 50 52 50 50 52 50 50 52 50 50 52 50 50 52 50 50 52 50 50 52 50 50 52 50 50 52 50 50 52 50 50 52 50 50 52 50 50 52 50 50 52 50 50 52 50 50 52 50 50 52 50 50 52 50 50 52 50 50 52 50 50 52 50 50 52 50 50 52 50 50 52 50 50 52 50 50 52 50 50 52 50 50 52 50 50 52 50 50 52 50 50 52 50 50 52 50 50 52 50 50 52 50 50 52 50 50 52 50 50 52 50 50 52 50 50 52 50 50 52 50 50 52 50 50 52 50 50 52 50 50 52 50 50 52 50 50 52 50 50 52 50 50 52 50 50 52 50 50 52 50 50 52 50 50 52 50 50 52 50 50 52 50 50 52 50 50 52 50 50 52 50 50 52 50 50 52 50 50 52 50 50 52 50 50 52 50 50 52 50 50 52 50 50 52 50 50 52 50 50 52 50 50 52 50 50 52 50 50 52 50 50 52 50 50 52 50 50 52 50 50 52 50 50 52 50 50 52 50 50 52 50 50 52 50 50 52 50 50 52 50 50 52 50 50 52 50 50 52 50 50 52 50 50 52 50 50 52 50 50 52 50 50 52 50 50 52 50 50 52 50 50 52 50 50 52 50 50 52 50 50 52 50 50 52 50 50 52 50 50 52 50 50 52 50 50 52 50 50 52 50 50 52 50 50 52 50 50 52 50 50 52 50 50 52 50 50 52 50 50 52 50 50 52 50 50 52 50 50 52 50 50 52 50 50 52 50 50 52 50 50 52 50 50 52 50 50 52 50 50 52 50 50 52 50 50 52 50 50 52 50 50 52 50 50 52 50 50 52 50 50 52 50 50 52 50 50 52 50 50 52 50 50 52 50 50 52 50 50 52 50 50 52 50 50 52 50 50 52 50 50 52 50 50 52 50 50 52 50 50 52 50 50 52 50 50 52 50 50 52 50 50 52 50 50 52 50 50 52 50 50 52 50 50 52 50 50 52 50 50 52 50 50 52 50 50 52 50 50 52 50 50 52 50 50 52 50 50 52 50 50 52 50 50 52 50 50 52 50 50 52 50 50 52 50 50 52 50 50 52 50 50 52 50 50 52 50 50 52 50 50 52 50 50 52 50 50 52 50 50 52 50 50 52 50 50 52 50 50 52 50 50 52 50 50 52 50 50 52 50 50 52 50 50 52 50 50 52 50 50 52 50 50 52 50 50 52 50 50 52 50 50 52 50 50 52 50 50 52 50 50 52 50 50 52 50 50 52 50 50 52 50 50 52 50 50 52 50 50 52 50 50 52 50 50 52 50 50 52 50 50 52 50 50 52 50 50 52 50 50 52 50 50 52 50 50 52 50 50 52 50 50 52 50 50 52 50 50 52 50 50 52 50 50 52 50 50 52 50 50 52 50 50 52 50 50 52 50 50 52 50 50 52 50 50 52 50 50 52 50 50 52 50 50 52 50 50 52 50 50 52 50 50 52 50 50 52 50 50 52 50 50 52 50 50 52 50 50 52 50 50 52 50 50 52 50 50 52 50 50 52 50 50 52 50 50 52 50 50 52 50 50 52 50 50 52 50 50 52 50 50 52 50 50 52 50 50 52 50 50 52 50 50 52 50 50 52 50 50 52 50 50 52 50 50 52 50 50 52 50 50 52 50 50 52 50 50 52 50 50 52 50 50 52 50 50 52 50 50 52 50 50 52 50 50 52 50 50 52 50 50 52 50 50 52 50 50 52 50 50 52 50 50 52 50 50 52 50 50 52 50 50 52 50 50 52 50 50 52 50 50 52 50 50 52 50 50 52 50 50 52 50 50 52 50 50 52 50 50 52 50 50 52 50 50 52 50 50 52 50 50 52 50 50 52 50 50 52 50 50 52 50 50 52 50 50 52 50 50 52 50 50 52 50 50 52 50 50 52 50 50 52 50 50
52 50 50 52 50 50 52 50 50 52 50 50 52 50 50 52 50 50 52 50 50 52 50 50 52 50 50 52 50 50 52 50 50 52 50 50 52 50 50 52 50 50 52 50 50 52 50 50 52 50 50 52 50 50 52 50 50 52 50 50 52 50 50 52 50 50 52 50 50 52 50 50 52 50 50 52 50 50 52 50 50 52 50 50 52 50 50 52 50 50 52 50 50 52 50 50 52 50 50 52 50 50 52 50 50 52 50 50 52 50 50 52 50 50 52 50 50 52 50 50 52 50 50 52 50 50 52 50 50 52 50 50 52 50 50 52 50 50 52 50 50 52 50 50 52 50 50 52 50 50 52 50 50 52 50 50 52 50 50 52 50 50 52 50 50 52 50 50 52 50 50 52 50 50 52 50 50 52 50 50 52 50 50 52 50 50 52 50 50 52 50 50 52 50 50 52 50 50 52 50 50 52 50 50 52 50 50 52 50 50 52 50 50 52 50 50 52 50 50 52 50 50 52 50 50 52 50 50 52 50 50 52 50 50 52 50 50 52 50 50 52 50 50 52 50 50 52 50 50 52 50 50 52 50 50 52 50 50 52 50 50 52 50 50 52 50 50 52 50 50 52 50 50 52 50 50 52 50 50 52 50 50 52 50 50 52 50 50 52 50 50 52 50 50 52 50 50 52 50 50 52 50 50 52 50 50 52 50 50 52 50 50 52 50 50 52 50 50 52 50 50 52 50 50 52 50 50 52 50 50 52 50 50 52 50 50 52 50 50 52 50 50 52 50 50 52 50 50 52 50 50 52 50 50 52 50 50 52 50 50 52 50 50 52 50 50 52 50 50 52 50 50 52 50 50 52 50 50 52 50 50 52 50 50 52 50 50 52 50 50 52 50 50 52 50 50 52 50 50 52 50 50 52 50 50 52 50 50 52 50 50 52 50 50 52 50 50 52 50 50 52 50 50 52 50 50 52 50 50 52 50 50 52 50 50 52 50 50 52 50 50 52 50 50 52 50 50 52 50 50 52 50 50 52 50 50 52 50 50 52 50 50 52 50 50 52 50 50 52 50 50 52 50 50 52 50 50 52 50 50 52 50 50 52 50 50 52 50 50 52 50 50 52 50 50 52 50 50 52 50 50 52 50 50 52 50 50 52 50 50 52 50 50 52 50 50 52 50 50 52 50 50 52 50 50 52 50 50 52 50 50 52 50 50 52 50 50 52 50 50 52 50 50 52 50 50 52 50 50 52 50 50 52 50 50 52 50 50 52 50 50 52 50 50 52 50 50 52 50 50 52 50 50 52 50 50 52 50 50 52 50 50 52 50 50 52 50 50 52 50 50 52 50 50 52 50 50 52 50 50 52 50 50 52 50 50 52 50 50 52 50 50 52 50 50 52 50 50 52 50 50 52 50 50 52 50 50 52 50 50 52 50 50 52 50 50 52 50 50 52 50 50 52 50 50 52 50 50 52 50 50 52 50 50 52 50 50 52 50 50 52 50 50 52 50 50 52 50 50 52 50 50 52 50 50 52 50 50 52 50 50 52 50 50 52 50 50 52 50 50 52 50 50 52 50 50 52 50 50 52 50 50 52 50 50 52 50 50 52 50 50 52 50 50 52 50 50 52 50 50 52 50 50 52 50 50 52 50 50 52 50 50 52 50 50 52 50 50 52 50 50 52 50 50 52 50 50 52 50 50 52 50 50 52 50 50 52 50 50 52 50 50 52 50 50 52 50 50 52 50 50 52 50 50 52 50 50 52 50 50 52 50 50 52 50 50 52 50 50 52 50 50 52 50 50 52 50 50 52 50 50 52 50 50 52 50 50 52 50 50 52 50 50 52 50 50 52 50 50 52 50 50 52 50 50 52 50 50 52 50 50 52 50 50 52 50 50 52 50 50 52 50 50 52 50 50 52 50 50 52 50 50 52 50 50 52 50 50 52 50 50 52 50 50 52 50 50 52 50 50 52 50 50 52 50 50 52 50 50 52 50 50 52 50 50 52 50 50 52 50 50 52 50 50 52 50 50 52 50 50
52 50 50 52 50 50 52 50 50 52 50 50 52 50 50 52 50 50 52 50 50 52 50 50 52 50 50 52 50 50 52 50 50 52 50 50 52 50 50 52 50 50 52 50 50 52 50 50 52 50 50 52 50 50 52 50 50 52 50 50 52 50 50 52 50 50 52 50 50 52 50 50 52 50 50 52 50 50 52 50 50 52 50 50 52 50 50 52 50 50 52 50 50 52 50 50 52 50 50 52 50 50 52 50 50 52 50 50 52 50 50 52 50 50 52 50 50 52 50 50 52 50 50 52 50 50 52 50 50 52 50 50 52 50 50 52 50 50 52 50 50 52 50 50 52 50 50 52 50 50 52 50 50 52 50 50 52 50 50 52 50 50 52 50 50 52 50 50 52 50 50 52 50 50 52 50 50 52 50 50 52 50 50 52 50 50 52 50 50 52 50 50 52 50 50 52 50 50 52 50 50 52 50 50 52 50 50 52 50 50 52 50 50 52 50 50 52 50 50 52 50 50 52 50 50 52 50 50 52 50 50 52 50 50 52 50 50 52 50 50 52 50 50 52 50 50 52 50 50 52 50 50 52 50 50 52 50 50 52 50 50 52 50 50 52 50 50 52 50 50 52 50 50 52 50 50 52 50 50 52 50 50 52 50 50 52 50 50 52 50 50 52 50 50 52 50 50 52 50 50 52 50 50 52 50 50 52 50 50 52 50 50 52 50 50 52 50 50 52 50 50 52 50 50 52 50 50 52 50 50 52 50 50 52 50 50 52 50 50 52 50 50 52 50 50 52 50 50 52 50 50 52 50 50 52 50 50 52 50 50 52 50 50 52 50 50 52 50 50 52 50 50 52 50 50 52 50 50 52 50 50 52 50 50 52 50 50 52 50 50 52 50 50 52 50 50 52 50 50 52 50 50 52 50 50 52 50 50 52 50 50 52 50 50 52 50 50 52 50 50 52 50 50 52 50 50 52 50 50 52 50 50 52 50 50 52 50 50 52 50 50 52 50 50 52 50 50 52 50 50 52 50 50 52 50 50 52 50 50 52 50 50 52 50 50 52 50 50 52 50 50 52 50 50 52 50 50 52 50 50 52 50 50 52 50 50 52 50 50 52 50 50 52 50 50 52 50 50 52 50 50 52 50 50 52 50 50 52 50 50 52 50 50 52 50 50 52 50 50 52 50 50 52 50 50 52 50 50 52 50 50 52 50 50 52 50 50 52 50 50 52 50 50 52 50 50 52 50 50 52 50 50 52 50 50 52 50 50 52 50 50 52 50 50 52 50 50 52 50 50 52 50 50 52 50 50 52 50 50 52 50 50 52 50 50 52 50 50 52 50 50 52 50 50 52 50 50 52 50 50 52 50 50 52 50 50 52 50 50 52 50 50 52 50 50 52 50 50 52 50 50 52 50 50 52 50 50 52 50 50 52 50 50 52 50 50 52 50 50 52 50 50 52 50 50 52 50 50 52 50 50 52 50 50 52 50 50 52 50 50 52 50 50 52 50 50 52 50 50 52 50 50 52 50 50 52 50 50 52 50 50 52 50 50 52 50 50 52 50 50 52 50 50 52 50 50 52 50 50 52 50 50 52 50 50 52 50 50 52 50 50 52 50 50 52 50 50 52 50 50 52 50 50 52 50 50 52 50 50 52 50 50 52 50 50 52 50 50 52 50 50 52 50 50 52 50 50 52 50 50 52 50 50 52 50 50 52 50 50 52 50 50 52 50 50 52 50 50 52 50 50 52 50 50 52 50 50 52 50 50 52 50 50 52 50 50 52 50 50 52 50 50 52 50 50 52 50 50 52 50 50 52 50 50 52 50 50 52 50 50 52 50 50 52 50 50 52 50 50 52 50 50 52 50 50 52 50 50 52 50 50 52 50 50 52 50 50 52 50 50 52 50 50 52 50 50 52 50 50 52 50 50 52 50 50 52 50 50 52 50 50 52 50 50 52 50 50 52 50 50 52 50 50 52 50 50 52 50 50 52 50 50 52 50 50 52 50 50 52 50 50 52 50 50 52 50 50 52 50 50
52 50 50 52 50 50 52 50 50 52 50 50 52 50 50 52 50 50 52 50 50 52 50 50 52 50 50 52 50 50 52 50 50 52 50 50 52 50 50 52 50 50 52 50 50 52 50 50 52 50 50 52 50 50 52 50 50 52 50 50 52 50 50 52 50 50 52 50 50 52 50 50 52 50 50 52 50 50 52 50 50 52 50 50 52 50 50 52 50 50 52 50 50 52 50 50 52 50 50 52 50 50 52 50 50 52 50 50 52 50 50 52 50 50 52 50 50 52 50 50 52 50 50 52 50 50 52 50 50 52 50 50 52 50 50 52 50 50 52 50 50 52 50 50 52 50 50 52 50 50 52 50 50 52 50 50 52 50 50 52 50 50 52 50 50 52 50 50 52 50 50 52 50 50 52 50 50 52 50 50 52 50 50 52 50 50 52 50 50 52 50 50 52 50 50 52 50 50 52 50 50 52 50 50 52 50 50 52 50 50 52 50 50 52 50 50 52 50 50 52 50 50 52 50 50 52 50 50 52 50 50 52 50 50 52 50 50 52 50 50 52 50 50 52 50 50 52 50 50 52 50 50 52 50 50 52 50 50 52 50 50 52 50 50 52 50 50 52 50 50 52 50 50 52 50 50 52 50 50 52 50 50 52 50 50 52 50 50 52 50 50 52 50 50 52 50 50 52 50 50 52 50 50 52 50 50 52 50 50 52 50 50 52 50 50 52 50 50 52 50 50 52 50 50 52 50 50 52 50 50 52 50 50 52 50 50 52 50 50 52 50 50 52 50 50 52 50 50 52 50 50 52 50 50 52 50 50 52 50 50 52 50 50 52 50 50 52 50 50 52 50 50 52 50 50 52 50 50 52 50 50 52 50 50 52 50 50 52 50 50 52 50 50 52 50 50 52 50 50 52 50 50 52 50 50 52 50 50 52 50 50 52 50 50 52 50 50 52 50 50 52 50 50 52 50 50 52 50 50 52 50 50 52 50 50 52 50 50 52 50 50 52 50 50 52 50 50 52 50 50 52 50 50 52 50 50 52 50 50 52 50 50 52 50 50 52 50 50 52 50 50 52 50 50 52 50 50 52 50 50 52 50 50 52 50 50 52 50 50 52 50 50 52 50 50 52 50 50 52 50 50 52 50 50 52 50 50 52 50 50 52 50 50 52 50 50 52 50 50 52 50 50 52 50 50 52 50 50 52 50 50 52 50 50 52 50 50 52 50 50 52 50 50 52 50 50 52 50 50 52 50 50 52 50 50 52 50 50 52 50 50 52 50 50 52 50 50 52 50 50 52 50 50 52 50 50 52 50 50 52 50 50 52 50 50 52 50 50 52 50 50 52 50 50 52 50 50 52 50 50 52 50 50 52 50 50 52 50 50 52 50 50 52 50 50 52 50 50 52 50 50 52 50 50 52 50 50 52 50 50 52 50 50 52 50 50 52 50 50 52 50 50 52 50 50 52 50 50 52 50 50 52 50 50 52 50 50 52 50 50 52 50 50 52 50 50 52 50 50 52 50 50 52 50 50 52 50 50 52 50 50 52 50 50 52 50 50 52 50 50 52 50 50 52 50 50 52 50 50 52 50 50 52 50 50 52 50 50 52 50 50 52 50 50 52 50 50 52 50 50 52 50 50 52 50 50 52 50 50 52 50 50 52 50 50 52 50 50 52 50 50 52 50 50 52 50 50 52 50 50 52 50 50 52 50 50 52 50 50 52 50 50 52 50 50 52 50 50 52 50 50 52 50 50 52 50 50 52 50 50 52 50 50 52 50 50 52 50 50 52 50 50 52 50 50 52 50 50 52 50 50 52 50 50 52 50 50 52 50 50 52 50 50 52 50 50 52 50 50 52 50 50 52 50 50 52 50 50 52 50 50 52 50 50 52 50 50 52 50 50 52 50 50 52 50 50 52 50 50 52 50 50 52 50 50 52 50 50 52 50 50 52 50 50 52 50 50 52 50 50 52 50 50 52 50 50 52 50 50 52 50 50 52 50 50 52 50 50 52 50 50 52 50 50 52 50 50 52 50 50
52 50 50 52 50 50 52 50 50 52 50 50 52 50 50 52 50 50 52 50 50 52 50 50 52 50 50 52 50 50 52 50 50 52 50 50 52 50 50 52 50 50 52 50 50 52 50 50 52 50 50 52 50 50 52 50 50 52 50 50 52 50 50 52 50 50 52 50 50 52 50 50 52 50 50 52 50 50 52 50 50 52 50 50 52 50 50 52 50 50 52 50 50 52 50 50 52 50 50 52 50 50 52 50 50 52 50 50 52 50 50 52 50 50 52 50 50 52 50 50 52 50 50 52 50 50 52 50 50 52 50 50 52 50 50 52 50 50 52 50 50 52 50 50 52 50 50 52 50 50 52 50 50 52 50 50 52 50 50 52 50 50 52 50 50 52 50 50 52 50 50 52 50 50 52 50 50 52 50 50 52 50 50 52 50 50 52 50 50 52 50 50 52 50 50 52 50 50 52 50 50 52 50 50 52 50 50 52 50 50 52 50 50 52 50 50 52 50 50 52 50 50 52 50 50 52 50 50 52 50 50 52 50 50 52 50 50 52 50 50 52 50 50 52 50 50 52 50 50 52 50 50 52 50 50 52 50 50 52 50 50 52 50 50 52 50 50 52 50 50 52 50 50 52 50 50 52 50 50 52 50 50 52 50 50 52 50 50 52 50 50 52 50 50 52 50 50 52 50 50 52 50 50 52 50 50 52 50 50 52 50 50 52 50 50 52 50 50 52 50 50 52 50 50 52 50 50 52 50 50 52 50 50 52 50 50 52 50 50 52 50 50 52 50 50 52 50 50 52 50 50 52 50 50 52 50 50 52 50 50 52 50 50 52 50 50 52 50 50 52 50 50 52 50 50 52 50 50 52 50 50 52 50 50 52 50 50 52 50 50 52 50 50 52 50 50 52 50 50 52 50 50 52 50 50 52 50 50 52 50 50 52 50 50 52 50 50 52 50 50 52 50 50 52 50 50 52 50 50 52 50 50 52 50 50 52 50 50 52 50 50 52 50 50 52 50 50 52 50 50 52 50 50 52 50 50 52 50 50 52 50 50 52 50 50 52 50 50 52 50 50 52 50 50 52 50 50 52 50 50 52 50 50 52 50 50 52 50 50 52 50 50 52 50 50 52 50 50 52 50 50 52 50 50 52 50 50 52 50 50 52 50 50 52 50 50 52 50 50 52 50 50 52 50 50 52 50 50 52 50 50 52 50 50 52 50 50 52 50 50 52 50 50 52 50 50 52 50 50 52 50 50 52 50 50 52 50 50 52 50 50 52 50 50 52 50 50 52 50 50 52 50 50 52 50 50 52 50 50 52 50 50 52 50 50 52 50 50 52 50 50 52 50 50 52 50 50 52 50 50 52 50 50 52 50 50 52 50 50 52 50 50 52 50 50 52 50 50 52 50 50 52 50 50 52 50 50 52 50 50 52 50 50 52 50 50 52 50 50 52 50 50 52 50 50 52 50 50 52 50 50 52 50 50 52 50 50 52 50 50 52 50 50 52 50 50 52 50 50 52 50 50 52 50 50 52 50 50 52 50 50 52 50 50 52 50 50 52 50 50 52 50 50 52 50 50 52 50 50 52 50 50 52 50 50 52 50 50 52 50 50 52 50 50 52 50 50 52 50 50 52 50 50 52 50 50 52 50 50 52 50 50 52 50 50 52 50 50 52 50 50 52 50 50 52 50 50 52 50 50 52 50 50 52 50 50 52 50 50 52 50 50 52 50 50 52 50 50 52 50 50 52 50 50 52 50 50 52 50 50 52 50 50 52 50 50 52 50 50 52 50 50 52 50 50 52 50 50 52 50 50 52 50 50 52 50 50 52 50 50 52 50 50 52 50 50 52 50 50 52 50 50 52 50 50 52 50 50 52 50 50 52 50 50 52 50 50 52 50 50 52 50 50 52 50 50 52 50 50 52 50 50 52 50 50 52 50 50 52 50 50 52 50 50 52 50 50 52 50 50 52 50 50 52 50 50 52 50 50 52 50 50 52 50 50 52 50 50 52 50 50 52 50 50 52 50 50 52 50 50
52 50 50 52 50 50 52 50 50 52 50 50 52 50 50 52 50 50 52 50 50 52 50 50 52 50 50 52 50 50 52 50 50 52 50 50 52 50 50 52 50 50 52 50 50 52 50 50 52 50 50 52 50 50 52 50 50 52 50 50 52 50 50 52 50 50 52 50 50 52 50 50 52 50 50 52 50 50 52 50 50 52 50 50 52 50 50 52 50 50 52 50 50 52 50 50 52 50 50 52 50 50 52 50 50 52 50 50 52 50 50 52 50 50 52 50 50 52 50 50 52 50 50 52 50 50 52 50 50 52 50 50 52 50 50 52 50 50 52 50 50 52 50 50 52 50 50 52 50 50 52 50 50 52 50 50 52 50 50 52 50 50 52 50 50 52 50 50 52 50 50 52 50 50 52 50 50 52 50 50 52 50 50 52 50 50 52 50 50 52 50 50 52 50 50 52 50 50 52 50 50 52 50 50 52 50 50 52 50 50 52 50 50 52 50 50 52 50 50 52 50 50 52 50 50 52 50 50 52 50 50 52 50 50 52 50 50 52 50 50 52 50 50 52 50 50 52 50 50 52 50 50 52 50 50 52 50 50 52 50 50 52 50 50 52 50 50 52 50 50 52 50 50 52 50 50 52 50 50 52 50 50 52 50 50 52 50 50 52 50 50 52 50 50 52 50 50 52 50 50 52 50 50 52 50 50 52 50 50 52 50 50 52 50 50 52 50 50 52 50 50 52 50 50 52 50 50 52 50 50 52 50 50 52 50 50 52 50 50 52 50 50 52 50 50 52 50 50 52 50 50 52 50 50 52 50 50 52 50 50 52 50 50 52 50 50 52 50 50 52 50 50 52 50 50 52 50 50 52 50 50 52 50 50 52 50 50 52 50 50 52 50 50 52 50 50 52 50 50 52 50 50 52 50 50 52 50 50 52 50 50 52 50 50 52 50 50 52 50 50 52 50 50 52 50 50 52 50 50 52 50 50 52 50 50 52 50 50 52 50 50 52 50 50 52 50 50 52 50 50 52 50 50 52 50 50 52 50 50 52 50 50 52 50 50 52 50 50 52 50 50 52 50 50 52 50 50 52 50 50 52 50 50 52 50 50 52 50 50 52 50 50 52 50 50 52 50 50 52 50 50 52 50 50 52 50 50 52 50 50 52 50 50 52 50 50 52 50 50 52 50 50 52 50 50 52 50 50 52 50 50 52 50 50 52 50 50 52 50 50 52 50 50 52 50 50 52 50 50 52 50 50 52 50 50 52 50 50 52 50 50 52 50 50 52 50 50 52 50 50 52 50 50 52 50 50 52 50 50 52 50 50 52 50 50 52 50 50 52 50 50 52 50 50 52 50 50 52 50 50 52 50 50 52 50 50 52 50 50 52 50 50 52 50 50 52 50 50 52 50 50 52 50 50 52 50 50 52 50 50 52 50 50 52 50 50 52 50 50 52 50 50 52 50 50 52 50 50 52 50 50 52 50 50 52 50 50 52 50 50 52 50 50 52 50 50 52 50 50 52 50 50 52 50 50 52 50 50 52 50 50 52 50 50 52 50 50 52 50 50 52 50 50 52 50 50 52 50 50 52 50 50 52 50 50 52 50 50 52 50 50 52 50 50 52 50 50 52 50 50 52 50 50 52 50 50 52 50 50 52 50 50 52 50 50 52 50 50 52 50 50 52 50 50 52 50 50 52 50 50 52 50 50 52 50 50 52 50 50 52 50 50 52 50 50 52 50 50 52 50 50 52 50 50 52 50 50 52 50 50 52 50 50 52 50 50 52 50 50 52 50 50 52 50 50 52 50 50 52 50 50 52 50 50 52 50 50 52 50 50 52 50 50 52 50 50 52 50 50 52 50 50 52 50 50 52 50 50 52 50 50 52 50 50 52 50 50 52 50 50 52 50 50 52 50 50 52 50 50 52 50 50 52 50 50 52 50 50 52 50 50 52 50 50 52 50 50 52 50 50 52 50 50 52 50 50 52 50 50 52 50 50 52 50 50 52 50 50 52 50 50 52 50 50 52 50 50 52 50 50
52 50 50 52 50 50 52 50 50 52 50 50 52 50 50 52 50 50 52 50 50 52 50 50 52 50 50 52 50 50 52 50 50 52 50 50 52 50 50 52 50 50 52 50 50 52 50 50 52 50 50 52 50 50 52 50 50 52 50 50 52 50 50 52 50 50 52 50 50 52 50 50 52 50 50 52 50 50 52 50 50 52 50 50 52 50 50 52 50 50 52 50 50 52 50 50 52 50 50 52 50 50 52 50 50 52 50 50 52 50 50 52 50 50 52 50 50 52 50 50 52 50 50 52 50 50 52 50 50 52 50 50 52 50 50 52 50 50 52 50 50 52 50 50 52 50 50 52 50 50 52 50 50 52 50 50 52 50 50 52 50 50 52 50 50 52 50 50 52 50 50 52 50 50 52 50 50 52 50 50 52 50 50 52 50 50 52 50 50 52 50 50 52 50 50 52 50 50 52 50 50 52 50 50 52 50 50 52 50 50 52 50 50 52 50 50 52 50 50 52 50 50 52 50 50 52 50 50 52 50 50 52 50 50 52 50 50 52 50 50 52 50 50 52 50 50 52 50 50 52 50 50 52 50 50 52 50 50 52 50 50 52 50 50 52 50 50 52 50 50 52 50 50 52 50 50 52 50 50 52 50 50 52 50 50 52 50 50 52 50 50 52 50 50 52 50 50 52 50 50 52 50 50 52 50 50 52 50 50 52 50 50 52 50 50 52 50 50 52 50 50 52 50 50 52 50 50 52 50 50 52 50 50 52 50 50 52 50 50 52 50 50 52 50 50 52 50 50 52 50 50 52 50 50 52 50 50 52 50 50 52 50 50 52 50 50 52 50 50 52 50 50 52 50 50 52 50 50 52 50 50 52 50 50 52 50 50 52 50 50 52 50 50 52 50 50 52 50 50 52 50 50 52 50 50 52 50 50 52 50 50 52 50 50 52 50 50 52 50 50 52 50 50 52 50 50 52 50 50 52 50 50 52 50 50 52 50 50 52 50 50 52 50 50 52 50 50 52 50 50 52 50 50 52 50 50 52 50 50 52 50 50 52 50 50 52 50 50 52 50 50 52 50 50 52 50 50 52 50 50 52 50 50 52 50 50 52 50 50 52 50 50 52 50 50 52 50 50 52 50 50 52 50 50 52 50 50 52 50 50 52 50 50 52 50 50 52 50 50 52 50 50 52 50 50 52 50 50 52 50 50 52 50 50 52 50 50 52 50 50 52 50 50 52 50 50 52 50 50 52 50 50 52 50 50 52 50 50 52 50 50 52 50 50 52 50 50 52 50 50 52 50 50 52 50 50 52 50 50 52 50 50 52 50 50 52 50 50 52 50 50 52 50 50 52 50 50 52 50 50 52 50 50 52 50 50 52 50 50 52 50 50 52 50 50 52 50 50 52 50 50 52 50 50 52 50 50 52 50 50 52 50 50 52 50 50 52 50 50 52 50 50 52 50 50 52 50 50 52 50 50 52 50 50 52 50 50 52 50 50 52 50 50 52 50 50 52 50 50 52 50 50 52 50 50 52 50 50 52 50 50 52 50 50 52 50 50 52 50 50 52 50 50 52 50 50 52 50 50 52 50 50 52 50 50 52 50 50 52 50 50 52 50 50 52 50 50 52 50 50 52 50 50 52 50 50 52 50 50 52 50 50 52 50 50 52 50 50 52 50 50 52 50 50 52 50 50 52 50 50 52 50 50 52 50 50 52 50 50 52 50 50 52 50 50 52 50 50 52 50 50 52 50 50 52 50 50 52 50 50 52 50 50 52 50 50 52 50 50 52 50 50 52 50 50 52 50 50 52 50 50 52 50 50 52 50 50 52 50 50 52 50 50 52 50 50 52 50 50 52 50 50 52 50 50 52 50 50 52 50 50 52 50 50 52 50 50 52 50 50 52 50 50 52 50 50 52 50 50 52 50 50 52 50 50 52 50 50 52 50 50 52 50 50 52 50 50 52 50 50 52 50 50 52 50 50 52 50 50 52 50 50 52 50 50 52 50 50 52 50 50 52 50 50 52 50 50 52 50 50
52 50 50 52 50 50 52 50 50 52 50 50 52 50 50 52 50 50 52 50 50 52 50 50 52 50 50 52 50 50 52 50 50 52 50 50 52 50 50 52 50 50 52 50 50 52 50 50 52 50 50 52 50 50 52 50 50 52 50 50 52 50 50 52 50 50 52 50 50 52 50 50 52 50 50 52 50 50 52 50 50 52 50 50 52 50 50 52 50 50 52 50 50 52 50 50 52 50 50 52 50 50 52 50 50 52 50 50 52 50 50 52 50 50 52 50 50 52 50 50 52 50 50 52 50 50 52 50 50 52 50 50 52 50 50 52 50 50 52 50 50 52 50 50 52 50 50 52 50 50 52 50 50 52 50 50 52 50 50 52 50 50 52 50 50 52 50 50 52 50 50 52 50 50 52 50 50 52 50 50 52 50 50 52 50 50 52 50 50 52 50 50 52 50 50 52 50 50 52 50 50 52 50 50 52 50 50 52 50 50 52 50 50 52 50 50 52 50 50 52 50 50 52 50 50 52 50 50 52 50 50 52 50 50 52 50 50 52 50 50 52 50 50 52 50 50 52 50 50 52 50 50 52 50 50 52 50 50 52 50 50 52 50 50 52 50 50 52 50 50 52 50 50 52 50 50 52 50 50 52 50 50 52 50 50 52 50 50 52 50 50 52 50 50 52 50 50 52 50 50 52 50 50 52 50 50 52 50 50 52 50 50 52 50 50 52 50 50 52 50 50 52 50 50 52 50 50 52 50 50 52 50 50 52 50 50 52 50 50 52 50 50 52 50 50 52 50 50 52 50 50 52 50 50 52 50 50 52 50 50 52 50 50 52 50 50 52 50 50 52 50 50 52 50 50 52 50 50 52 50 50 52 50 50 52 50 50 52 50 50 52 50 50 52 50 50 52 50 50 52 50 50 52 50 50 52 50 50 52 50 50 52 50 50 52 50 50 52 50 50 52 50 50 52 50 50 52 50 50 52 50 50 52 50 50 52 50 50 52 50 50 52 50 50 52 50 50 52 50 50 52 50 50 52 50 50 52 50 50 52 50 50 52 50 50 52 50 50 52 50 50 52 50 50 52 50 50 52 50 50 52 50 50 52 50 50 52 50 50 52 50 50 52 50 50 52 50 50 52 50 50 52 50 50 52 50 50 52 50 50 52 50 50 52 50 50 52 50 50 52 50 50 52 50 50 52 50 50 52 50 50 52 50 50 52 50 50 52 50 50 52 50 50 52 50 50 52 50 50 52 50 50 52 50 50 52 50 50 52 50 50 52 50 50 52 50 50 52 50 50 52 50 50 52 50 50 52 50 50 52 50 50 52 50 50 52 50 50 52 50 50 52 50 50 52 50 50 52 50 50 52 50 50 52 50 50 52 50 50 52 50 50 52 50 50 52 50 50 52 50 50 52 50 50 52 50 50 52 50 50 52 50 50 52 50 50 52 50 50 52 50 50 52 50 50 52 50 50 52 50 50 52 50 50 52 50 50 52 50 50 52 50 50 52 50 50 52 50 50 52 50 50 52 50 50 52 50 50 52 50 50 52 50 50 52 50 50 52 50 50 52 50 50 52 50 50 52 50 50 52 50 50 52 50 50 52 50 50 52 50 50 52 50 50 52 50 50 52 50 50 52 50 50 52 50 50 52 50 50 52 50 50 52 50 50 52 50 50 52 50 50 52 50 50 52 50 50 52 50 50 52 50 50 52 50 50 52 50 50 52 50 50 52 50 50 52 50 50 52 50 50 52 50 50 52 50 50 52 50 50 52 50 50 52 50 50 52 50 50 52 50 50 52 50 50 52 50 50 52 50 50 52 50 50 52 50 50 52 50 50 52 50 50 52 50 50 52 50 50 52 50 50 52 50 50 52 50 50 52 50 50 52 50 50 52 50 50 52 50 50 52 50 50 52 50 50 52 50 50 52 50 50 52 50 50 52 50 50 52 50 50 52 50 50 52 50 50 52 50 50 52 50 50 52 50 50 52 50 50 52 50 50 52 50 50 52 50 50 52 50 50 52 50 50 52 50 50 52 50 50
52 50 50 52 50 50 52 50 50 52 50 50 52 50 50 52 50 50 52 50 50 52 50 50 52 50 50 52 50 50 52 50 50 52 50 50 52 50 50 52 50 50 52 50 50 52 50 50 52 50 50 52 50 50 52 50 50 52 50 50 52 50 50 52 50 50 52 50 50 52 50 50 52 50 50 52 50 50 52 50 50 52 50 50 52 50 50 52 50 50 52 50 50 52 50 50 52 50 50 52 50 50 52 50 50 52 50 50 52 50 50 52 50 50 52 50 50 52 50 50 52 50 50 52 50 50 52 50 50 52 50 50 52 50 50 52 50 50 52 50 50 52 50 50 52 50 50 52 50 50 52 50 50 52 50 50 52 50 50 52 50 50 52 50 50 52 50 50 52 50 50 52 50 50 52 50 50 52 50 50 52 50 50 52 50 50 52 50 50 52 50 50 52 50 50 52 50 50 52 50 50 52 50 50 52 50 50 52 50 50 52 50 50 52 50 50 52 50 50 52 50 50 52 50 50 52 50 50 52 50 50 52 50 50 52 50 50 52 50 50 52 50 50 52 50 50 52 50 50 52 50 50 52 50 50 52 50 50 52 50 50 52 50 50 52 50 50 52 50 50 52 50 50 52 50 50 52 50 50 52 50 50 52 50 50 52 50 50 52 50 50 52 50 50 52 50 50 52 50 50 52 50 50 52 50 50 52 50 50 52 50 50 52 50 50 52 50 50 52 50 50 52 50 50 52 50 50 52 50 50 52 50 50 52 50 50 52 50 50 52 50 50 52 50 50 52 50 50 52 50 50 52 50 50 52 50 50 52 50 50 52 50 50 52 50 50 52 50 50 52 50 50 52 50 50 52 50 50 52 50 50 52 50 50 52 50 50 52 50 50 52 50 50 52 50 50 52 50 50 52 50 50 52 50 50 52 50 50 52 50 50 52 50 50 52 50 50 52 50 50 52 50 50 52 50 50 52 50 50 52 50 50 52 50 50 52 50 50 52 50 50 52 50 50 52 50 50 52 50 50 52 50 50 52 50 50 52 50 50 52 50 50 52 50 50 52 50 50 52 50 50 52 50 50 52 50 50 52 50 50 52 50 50 52 50 50 52 50 50 52 50 50 52 50 50 52 50 50 52 50 50 52 50 50 52 50 50 52 50 50 52 50 50 52 50 50 52 50 50 52 50 50 52 50 50 52 50 50 52 50 50 52 50 50 52 50 50 52 50 50 52 50 50 52 50 50 52 50 50 52 50 50 52 50 50 52 50 50 52 50 50 52 50 50 52 50 50 52 50 50 52 50 50 52 50 50 52 50 50 52 50 50 52 50 50 52 50 50 52 50 50 52 50 50 52 50 50 52 50 50 52 50 50 52 50 50 52 50 50 52 50 50 52 50 50 52 50 50 52 50 50 52 50 50 52 50 50 52 50 50 52 50 50 52 50 50 52 50 50 52 50 50 52 50 50 52 50 50 52 50 50 52 50 50 52 50 50 52 50 50 52 50 50 52 50 50 52 50 50 52 50 50 52 50 50 52 50 50 52 50 50 52 50 50 52 50 50 52 50 50 52 50 50 52 50 50 52 50 50 52 50 50 52 50 50 52 50 50 52 50 50 52 50 50 52 50 50 52 50 50 52 50 50 52 50 50 52 50 50 52 50 50 52 50 50 52 50 50 52 50 50 52 50 50 52 50 50 52 50 50 52 50 50 52 50 50 52 50 50 52 50 50 52 50 50 52 50 50 52 50 50 52 50 50 52 50 50 52 50 50 52 50 50 52 50 50 52 50 50 52 50 50 52 50 50 52 50 50 52 50 50 52 50 50 52 50 50 52 50 50 52 50 50 52 50 50 52 50 50 52 50 50 52 50 50 52 50 50 52 50 50 52 50 50 52 50 50 52 50 50 52 50 50 52 50 50 52 50 50 52 50 50 52 50 50 52 50 50 52 50 50 52 50 50 52 50 50 52 50 50 52 50 50 52 50 50 52 50 50 52 50 50 52 50 50 52 50 50 52 50 50 52 50 50 52 50 50 52 50 50
52 50 50 52 50 50 52 50 50 52 50 50 52 50 50 52 50 50 52 50 50 52 50 50 52 50 50 52 50 50 52 50 50 52 50 50 52 50 50 52 50 50 52 50 50 52 50 50 52 50 50 52 50 50 52 50 50 52 50 50 52 50 50 52 50 50 52 50 50 52 50 50 52 50 50 52 50 50 52 50 50 52 50 50 52 50 50 52 50 50 52 50 50 52 50 50 52 50 50 52 50 50 52 50 50 52 50 50 52 50 50 52 50 50 52 50 50 52 50 50 52 50 50 52 50 50 52 50 50 52 50 50 52 50 50 52 50 50 52 50 50 52 50 50 52 50 50 52 50 50 52 50 50 52 50 50 52 50 50 52 50 50 52 50 50 52 50 50 52 50 50 52 50 50 52 50 50 52 50 50 52 50 50 52 50 50 52 50 50 52 50 50 52 50 50 52 50 50 52 50 50 52 50 50 52 50 50 52 50 50 52 50 50 52 50 50 52 50 50 52 50 50 52 50 50 52 50 50 52 50 50 52 50 50 52 50 50 52 50 50 52 50 50 52 50 50 52 50 50 52 50 50 52 50 50 52 50 50 52 50 50 52 50 50 52 50 50 52 50 50 52 50 50 52 50 50 52 50 50 52 50 50 52 50 50 52 50 50 52 50 50 52 50 50 52 50 50 52 50 50 52 50 50 52 50 50 52 50 50 52 50 50 52 50 50 52 50 50 52 50 50 52 50 50 52 50 50 52 50 50 52 50 50 52 50 50 52 50 50 52 50 50 52 50 50 52 50 50 52 50 50 52 50 50 52 50 50 52 50 50 52 50 50 52 50 50 52 50 50 52 50 50 52 50 50 52 50 50 52 50 50 52 50 50 52 50 50 52 50 50 52 50 50 52 50 50 52 50 50 52 50 50 52 50 50 52 50 50 52 50 50 52 50 50 52 50 50 52 50 50 52 50 50 52 50 50 52 50 50 52 50 50 52 50 50 52 50 50 52 50 50 52 50 50 52 50 50 52 50 50 52 50 50 52 50 50 52 50 50 52 50 50 52 50 50 52 50 50 52 50 50 52 50 50 52 50 50 52 50 50 52 50 50 52 50 50 52 50 50 52 50 50 52 50 50 52 50 50 52 50 50 52 50 50 52 50 50 52 50 50 52 50 50 52 50 50 52 50 50 52 50 50 52 50 50 52 50 50 52 50 50 52 50 50 52 50 50 52 50 50 52 50 50 52 50 50 52 50 50 52 50 50 52 50 50 52 50 50 52 50 50 52 50 50 52 50 50 52 50 50 52 50 50 52 50 50 52 50 50 52 50 50 52 50 50 52 50 50 52 50 50 52 50 50 52 50 50 52 50 50 52 50 50 52 50 50 52 50 50 52 50 50 52 50 50 52 50 50 52 50 50 52 50 50 52 50 50 52 50 50 52 50 50 52 50 50 52 50 50 52 50 50 52 50 50 52 50 50 52 50 50 52 50 50 52 50 50 52 50 50 52 50 50 52 50 50 52 50 50 52 50 50 52 50 50 52 50 50 52 50 50 52 50 50 52 50 50 52 50 50 52 50 50 52 50 50 52 50 50 52 50 50 52 50 50 52 50 50 52 50 50 52 50 50 52 50 50 52 50 50 52 50 50 52 50 50 52 50 50 52 50 50 52 50 50 52 50 50 52 50 50 52 50 50 52 50 50 52 50 50 52 50 50 52 50 50 52 50 50 52 50 50 52 50 50 52 50 50 52 50 50 52 50 50 52 50 50 52 50 50 52 50 50 52 50 50 52 50 50 52 50 50 52 50 50 52 50 50 52 50 50 52 50 50 52 50 50 52 50 50 52 50 50 52 50 50 52 50 50 52 50 50 52 50 50 52 50 50 52 50 50 52 50 50 52 50 50 52 50 50 52 50 50 52 50 50 52 50 50 52 50 50 52 50 50 52 50 50 52 50 50 52 50 50 52 50 50 52 50 50 52 50 50 52 50 50 52 50 50 52 50 50 52 50 50 52 50 50 52 50 50 52 50 50 52 50 50 52 50 50
52 50 50 52 50 50 52 50 50 52 50 50 52 50 50 52 50 50 52 50 50 52 50 50 52 50 50 52 50 50 52 50 50 52 50 50 52 50 50 52 50 50 52 50 50 52 50 50 52 50 50 52 50 50 52 50 50 52 50 50 52 50 50 52 50 50 52 50 50 52 50 50 52 50 50 52 50 50 52 50 50 52 50 50 52 50 50 52 50 50 52 50 50 52 50 50 52 50 50 52 50 50 52 50 50 52 50 50 52 50 50 52 50 50 52 50 50 52 50 50 52 50 50 52 50 50 52 50 50 52 50 50 52 50 50 52 50 50 52 50 50 52 50 50 52 50 50 52 50 50 52 50 50 52 50 50 52 50 50 52 50 50 52 50 50 52 50 50 52 50 50 52 50 50 52 50 50 52 50 50 52 50 50 52 50 50 52 50 50 52 50 50 52 50 50 52 50 50 52 50 50 52 50 50 52 50 50 52 50 50 52 50 50 52 50 50 52 50 50 52 50 50 52 50 50 52 50 50 52 50 50 52 50 50 52 50 50 52 50 50 52 50 50 52 50 50 52 50 50 52 50 50 52 50 50 52 50 50 52 50 50 52 50 50 52 50 50 52 50 50 52 50 50 52 50 50 52 50 50 52 50 50 52 50 50 52 50 50 52 50 50 52 50 50 52 50 50 52 50 50 52 50 50 52 50 50 52 50 50 52 50 50 52 50 50 52 50 50 52 50 50 52 50 50 52 50 50 52 50 50 52 50 50 52 50 50 52 50 50 52 50 50 52 50 50 52 50 50 52 50 50 52 50 50 52 50 50 52 50 50 52 50 50 52 50 50 52 50 50 52 50 50 52 50 50 52 50 50 52 50 50 52 50 50 52 50 50 52 50 50 52 50 50 52 50 50 52 50 50 52 50 50 52 50 50 52 50 50 52 50 50 52 50 50 52 50 50 52 50 50 52 50 50 52 50 50 52 50 50 52 50 50 52 50 50 52 50 50 52 50 50 52 50 50 52 50 50 52 50 50 52 50 50 52 50 50 52 50 50 52 50 50 52 50 50 52 50 50 52 50 50 52 50 50 52 50 50 52 50 50 52 50 50 52 50 50 52 50 50 52 50 50 52 50 50 52 50 50 52 50 50 52 50 50 52 50 50 52 50 50 52 50 50 52 50 50 52 50 50 52 50 50 52 50 50 52 50 50 52 50 50 52 50 50 52 50 50 52 50 50 52 50 50 52 50 50 52 50 50 52 50 50 52 50 50 52 50 50 52 50 50 52 50 50 52 50 50 52 50 50 52 50 50 52 50 50 52 50 50 52 50 50 52 50 50 52 50 50 52 50 50 52 50 50 52 50 50 52 50 50 52 50 50 52 50 50 52 50 50 52 50 50 52 50 50 52 50 50 52 50 50 52 50 50 52 50 50 52 50 50 52 50 50 52 50 50 52 50 50 52 50 50 52 50 50 52 50 50 52 50 50 52 50 50 52 50 50 52 50 50 52 50 50 52 50 50 52 50 50 52 50 50 52 50 50 52 50 50 52 50 50 52 50 50 52 50 50 52 50 50 52 50 50 52 50 50 52 50 50 52 50 50 52 50 50 52 50 50 52 50 50 52 50 50 52 50 50 52 50 50 52 50 50 52 50 50 52 50 50 52 50 50 52 50 50 52 50 50 52 50 50 52 50 50 52 50 50 52 50 50 52 50 50 52 50 50 52 50 50 52 50 50 52 50 50 52 50 50 52 50 50 52 50 50 52 50 50 52 50 50 52 50 50 52 50 50 52 50 50 52 50 50 52 50 50 52 50 50 52 50 50 52 50 50 52 50 50 52 50 50 52 50 50 52 50 50 52 50 50 52 50 50 52 50 50 52 50 50 52 50 50 52 50 50 52 50 50 52 50 50 52 50 50 52 50 50 52 50 50 52 50 50 52 50 50 52 50 50 52 50 50 52 50 50 52 50 50 52 50 50 52 50 50 52 50 50 52 50 50 52 50 50 52 50 50 52 50 50 52 50 50 52 50 50 52 50 50 52 50 50
52 50 50 52 50 50 52 50 50 52 50 50 52 50 50 52 50 50 52 50 50 52 50 50 52 50 50 52 50 50 52 50 50 52 50 50 52 50 50 52 50 50 52 50 50 52 50 50 52 50 50 52 50 50 52 50 50 52 50 50 52 50 50 52 50 50 52 50 50 52 50 50 52 50 50 52 50 50 52 50 50 52 50 50 52 50 50 52 50 50 52 50 50 52 50 50 52 50 50 52 50 50 52 50 50 52 50 50 52 50 50 52 50 50 52 50 50 52 50 50 52 50 50 52 50 50 52 50 50 52 50 50 52 50 50 52 50 50 52 50 50 52 50 50 52 50 50 52 50 50 52 50 50 52 50 50 52 50 50 52 50 50 52 50 50 52 50 50 52 50 50 52 50 50 52 50 50 52 50 50 52 50 50 52 50 50 52 50 50 52 50 50 52 50 50 52 50 50 52 50 50 52 50 50 52 50 50 52 50 50 52 50 50 52 50 50 52 50 50 52 50 50 52 50 50 52 50 50 52 50 50 52 50 50 52 50 50 52 50 50 52 50 50 52 50 50 52 50 50 52 50 50 52 50 50 52 50 50 52 50 50 52 50 50 52 50 50 52 50 50 52 50 50 52 50 50 52 50 50 52 50 50 52 50 50 52 50 50 52 50 50 52 50 50 52 50 50 52 50 50 52 50 50 52 50 50 52 50 50 52 50 50 52 50 50 52 50 50 52 50 50 52 50 50 52 50 50 52 50 50 52 50 50 52 50 50 52 50 50 52 50 50 52 50 50 52 50 50 52 50 50 52 50 50 52 50 50 52 50 50 52 50 50 52 50 50 52 50 50 52 50 50 52 50 50 52 50 50 52 50 50 52 50 50 52 50 50 52 50 50 52 50 50 52 50 50 52 50 50 52 50 50 52 50 50 52 50 50 52 50 50 52 50 50 52 50 50 52 50 50 52 50 50 52 50 50 52 50 50 52 50 50 52 50 50 52 50 50 52 50 50 52 50 50 52 50 50 52 50 50 52 50 50 52 50 50 52 50 50 52 50 50 52 50 50 52 50 50 52 50 50 52 50 50 52 50 50 52 50 50 52 50 50 52 50 50 52 50 50 52 50 50 52 50 50 52 50 50 52 50 50 52 50 50 52 50 50 52 50 50 52 50 50 52 50 50 52 50 50 52 50 50 52 50 50 52 50 50 52 50 50 52 50 50 52 50 50 52 50 50 52 50 50 52 50 50 52 50 50 52 50 50 52 50 50 52 50 50 52 50 50 52 50 50 52 50 50 52 50 50 52 50 50 52 50 50 52 50 50 52 50 50 52 50 50 52 50 50 52 50 50 52 50 50 52 50 50 52 50 50 52 50 50 52 50 50 52 50 50 52 50 50 52 50 50 52 50 50 52 50 50 52 50 50 52 50 50 52 50 50 52 50 50 52 50 50 52 50 50 52 50 50 52 50 50 52 50 50 52 50 50 52 50 50 52 50 50 52 50 50 52 50 50 52 50 50 52 50 50 52 50 50 52 50 50 52 50 50 52 50 50 52 50 50 52 50 50 52 50 50 52 50 50 52 50 50 52 50 50 52 50 50 52 50 50 52 50 50 52 50 50 52 50 50 52 50 50 52 50 50 52 50 50 52 50 50 52 50 50 52 50 50 52 50 50 52 50 50 52 50 50 52 50 50 52 50 50 52 50 50 52 50 50 52 50 50 52 50 50 52 50 50 52 50 50 52 50 50 52 50 50 52 50 50 52 50 50 52 50 50 52 50 50 52 50 50 52 50 50 52 50 50 52 50 50 52 50 50 52 50 50 52 50 50 52 50 50 52 50 50 52 50 50 52 50 50 52 50 50 52 50 50 52 50 50 52 50 50 52 50 50 52 50 50 52 50 50 52 50 50 52 50 50 52 50 50 52 50 50 52 50 50 52 50 50 52 50 50 52 50 50 52 50 50 52 50 50 52 50 50 52 50 50 52 50 50 52 50 50 52 50 50 52 50 50 52 50 50 52 50 50 52 50 50 52 50 50 52 50 50
52 50 50 52 50 50 52 50 50 52 50 50 52 50 50 52 50 50 52 50 50 52 50 50 52 50 50 52 50 50 52 50 50 52 50 50 52 50 50 52 50 50 52 50 50 52 50 50 52 50 50 52 50 50 52 50 50 52 50 50 52 50 50 52 50 50 52 50 50 52 50 50 52 50 50 52 50 50 52 50 50 52 50 50 52 50 50 52 50 50 52 50 50 52 50 50 52 50 50 52 50 50 52 50 50 52 50 50 52 50 50 52 50 50 52 50 50 52 50 50 52 50 50 52 50 50 52 50 50 52 50 50 52 50 50 52 50 50 52 50 50 52 50 50 52 50 50 52 50 50 52 50 50 52 50 50 52 50 50 52 50 50 52 50 50 52 50 50 52 50 50 52 50 50 52 50 50 52 50 50 52 50 50 52 50 50 52 50 50 52 50 50 52 50 50 52 50 50 52 50 50 52 50 50 52 50 50 52 50 50 52 50 50 52 50 50 52 50 50 52 50 50 52 50 50 52 50 50 52 50 50 52 50 50 52 50 50 52 50 50 52 50 50 52 50 50 52 50 50 52 50 50 52 50 50 52 50 50 52 50 50 52 50 50 52 50 50 52 50 50 52 50 50 52 50 50 52 50 50 52 50 50 52 50 50 52 50 50 52 50 50 52 50 50 52 50 50 52 50 50 52 50 50 52 50 50 52 50 50 52 50 50 52 50 50 52 50 50 52 50 50 52 50 50 52 50 50 52 50 50 52 50 50 52 50 50 52 50 50 52 50 50 52 50 50 52 50 50 52 50 50 52 50 50 52 50 50 52 50 50 52 50 50 52 50 50 52 50 50 52 50 50 52 50 50 52 50 50 52 50 50 52 50 50 52 50 50 52 50 50 52 50 50 52 50 50 52 50 50 52 50 50 52 50 50 52 50 50 52 50 50 52 50 50 52 50 50 52 50 50 52 50 50 52 50 50 52 50 50 52 50 50 52 50 50 52 50 50 52 50 50 52 50 50 52 50 50 52 50 50 52 50 50 52 50 50 52 50 50 52 50 50 52 50 50 52 50 50 52 50 50 52 50 50 52 50 50 52 50 50 52 50 50 52 50 50 52 50 50 52 50 50 52 50 50 52 50 50 52 50 50 52 50 50 52 50 50 52 50 50 52 50 50 52 50 50 52 50 50 52 50 50 52 50 50 52 50 50 52 50 50 52 50 50 52 50 50 52 50 50 52 50 50 52 50 50 52 50 50 52 50 50 52 50 50 52 50 50 52 50 50 52 50 50 52 50 50 52 50 50 52 50 50 52 50 50 52 50 50 52 50 50 52 50 50 52 50 50 52 50 50 52 50 50 52 50 50 52 50 50 52 50 50 52 50 50 52 50 50 52 50 50 52 50 50 52 50 50 52 50 50 52 50 50 52 50 50 52 50 50 52 50 50 52 50 50 52 50 50 52 50 50 52 50 50 52 50 50 52 50 50 52 50 50 52 50 50 52 50 50 52 50 50 52 50 50 52 50 50 52 50 50 52 50 50 52 50 50 52 50 50 52 50 50 52 50 50 52 50 50 52 50 50 52 50 50 52 50 50 52 50 50 52 50 50 52 50 50 52 50 50 52 50 50 52 50 50 52 50 50 52 50 50 52 50 50 52 50 50 52 50 50 52 50 50 52 50 50 52 50 50 52 50 50 52 50 50 52 50 50 52 50 50 52 50 50 52 50 50 52 50 50 52 50 50 52 50 50 52 50 50 52 50 50 52 50 50 52 50 50 52 50 50 52 50 50 52 50 50 52 50 50 52 50 50 52 50 50 52 50 50 52 50 50 52 50 50 52 50 50 52 50 50 52 50 50 52 50 50 52 50 50 52 50 50 52 50 50 52 50 50 52 50 50 52 50 50 52 50 50 52 50 50 52 50 50 52 50 50 52 50 50 52 50 50 52 50 50 52 50 50 52 50 50 52 50 50 52 50 50 52 50 50 52 50 50 52 50 50 52 50 50 52 50 50 52 50 50 52 50 50 52 50 50 52 50 50 52 50 50
52 50 50 52 50 50 52 50 50 52 50 50 52 50 50 52 50 50 52 50 50 52 50 50 52 50 50 52 50 50 52 50 50 52 50 50 52 50 50 52 50 50 52 50 50 52 50 50 52 50 50 52 50 50 52 50 50 52 50 50 52 50 50 52 50 50 52 50 50 52 50 50 52 50 50 52 50 50 52 50 50 52 50 50 52 50 50 52 50 50 52 50 50 52 50 50 52 50 50 52 50 50 52 50 50 52 50 50 52 50 50 52 50 50 52 50 50 52 50 50 52 50 50 52 50 50 52 50 50 52 50 50 52 50 50 52 50 50 52 50 50 52 50 50 52 50 50 52 50 50 52 50 50 52 50 50 52 50 50 52 50 50 52 50 50 52 50 50 52 50 50 52 50 50 52 50 50 52 50 50 52 50 50 52 50 50 52 50 50 52 50 50 52 50 50 52 50 50 52 50 50 52 50 50 52 50 50 52 50 50 52 50 50 52 50 50 52 50 50 52 50 50 52 50 50 52 50 50 52 50 50 52 50 50 52 50 50 52 50 50 52 50 50 52 50 50 52 50 50 52 50 50 52 50 50 52 50 50 52 50 50 52 50 50 52 50 50 52 50 50 52 50 50 52 50 50 52 50 50 52 50 50 52 50 50 52 50 50 52 50 50 52 50 50 52 50 50 52 50 50 52 50 50 52 50 50 52 50 50 52 50 50 52 50 50 52 50 50 52 50 50 52 50 50 52 50 50 52 50 50 52 50 50 52 50 50 52 50 50 52 50 50 52 50 50 52 50 50 52 50 50 52 50 50 52 50 50 52 50 50 52 50 50 52 50 50 52 50 50 52 50 50 52 50 50 52 50 50 52 50 50 52 50 50 52 50 50 52 50 50 52 50 50 52 50 50 52 50 50 52 50 50 52 50 50 52 50 50 52 50 50 52 50 50 52 50 50 52 50 50 52 50 50 52 50 50 52 50 50 52 50 50 52 50 50 52 50 50 52 50 50 52 50 50 52 50 50 52 50 50 52 50 50 52 50 50 52 50 50 52 50 50 52 50 50 52 50 50 52 50 50 52 50 50 52 50 50 52 50 50 52 50 50 52 50 50 52 50 50 52 50 50 52 50 50 52 50 50 52 50 50 52 50 50 52 50 50 52 50 50 52 50 50 52 50 50 52 50 50 52 50 50 52 50 50 52 50 50 52 50 50 52 50 50 52 50 50 52 50 50 52 50 50 52 50 50 52 50 50 52 50 50 52 50 50 52 50 50 52 50 50 52 50 50 52 50 50 52 50 50 52 50 50 52 50 50 52 50 50 52 50 50 52 50 50 52 50 50 52 50 50 52 50 50 52 50 50 52 50 50 52 50 50 52 50 50 52 50 50 52 50 50 52 50 50 52 50 50 52 50 50 52 50 50 52 50 50 52 50 50 52 50 50 52 50 50 52 50 50 52 50 50 52 50 50 52 50 50 52 50 50 52 50 50 52 50 50 52 50 50 52 50 50 52 50 50 52 50 50 52 50 50 52 50 50 52 50 50 52 50 50 52 50 50 52 50 50 52 50 50 52 50 50 52 50 50 52 50 50 52 50 50 52 50 50 52 50 50 52 50 50 52 50 50 52 50 50 52 50 50 52 50 50 52 50 50 52 50 50 52 50 50 52 50 50 52 50 50 52 50 50 52 50 50 52 50 50 52 50 50 52 50 50 52 50 50 52 50 50 52 50 50 52 50 50 52 50 50 52 50 50 52 50 50 52 50 50 52 50 50 52 50 50 52 50 50 52 50 50 52 50 50 52 50 50 52 50 50 52 50 50 52 50 50 52 50 50 52 50 50 52 50 50 52 50 50 52 50 50 52 50 50 52 50 50 52 50 50 52 50 50 52 50 50 52 50 50 52 50 50 52 50 50 52 50 50 52 50 50 52 50 50 52 50 50 52 50 50 52 50 50 52 50 50 52 50 50 52 50 50 52 50 50 52 50 50 52 50 50 52 50 50 52 50 50 52 50 50 52 50 50 52 50 50 52 50 50 52 50 50
52 50 50 52 50 50 52 50 50 52 50 50 52 50 50 52 50 50 52 50 50 52 50 50 52 50 50 52 50 50 52 50 50 52 50 50 52 50 50 52 50 50 52 50 50 52 50 50 52 50 50 52 50 50 52 50 50 52 50 50 52 50 50 52 50 50 52 50 50 52 50 50 52 50 50 52 50 50 52 50 50 52 50 50 52 50 50 52 50 50 52 50 50 52 50 50 52 50 50 52 50 50 52 50 50 52 50 50 52 50 50 52 50 50 52 50 50 52 50 50 52 50 50 52 50 50 52 50 50 52 50 50 52 50 50 52 50 50 52 50 50 52 50 50 52 50 50 52 50 50 52 50 50 52 50 50 52 50 50 52 50 50 52 50 50 52 50 50 52 50 50 52 50 50 52 50 50 52 50 50 52 50 50 52 50 50 52 50 50 52 50 50 52 50 50 52 50 50 52 50 50 52 50 50 52 50 50 52 50 50 52 50 50 52 50 50 52 50 50 52 50 50 52 50 50 52 50 50 52 50 50 52 50 50 52 50 50 52 50 50 52 50 50 52 50 50 52 50 50 52 50 50 52 50 50 52 50 50 52 50 50 52 50 50 52 50 50 52 50 50 52 50 50 52 50 50 52 50 50 52 50 50 52 50 50 52 50 50 52 50 50 52 50 50 52 50 50 52 50 50 52 50 50 52 50 50 52 50 50 52 50 50 52 50 50 52 50 50 52 50 50 52 50 50 52 50 50 52 50 50 52 50 50 52 50 50 52 50 50 52 50 50 52 50 50 52 50 50 52 50 50 52 50 50 52 50 50 52 50 50 52 50 50 52 50 50 52 50 50 52 50 50 52 50 50 52 50 50 52 50 50 52 50 50 52 50 50 52 50 50 52 50 50 52 50 50 52 50 50 52 50 50 52 50 50 52 50 50 52 50 50 52 50 50 52 50 50 52 50 50 52 50 50 52 50 50 52 50 50 52 50 50 52 50 50 52 50 50 52 50 50 52 50 50 52 50 50 52 50 50 52 50 50 52 50 50 52 50 50 52 50 50 52 50 50 52 50 50 52 50 50 52 50 50 52 50 50 52 50 50 52 50 50 52 50 50 52 50 50 52 50 50 52 50 50 52 50 50 52 50 50 52 50 50 52 50 50 52 50 50 52 50 50 52 50 50 52 50 50 52 50 50 52 50 50 52 50 50 52 50 50 52 50 50 52 50 50 52 50 50 52 50 50 52 50 50 52 50 50 52 50 50 52 50 50 52 50 50 52 50 50 52 50 50 52 50 50 52 50 50 52 50 50 52 50 50 52 50 50 52 50 50 52 50 50 52 50 50 52 50 50 52 50 50 52 50 50 52 50 50 52 50 50 52 50 50 52 50 50 52 50 50 52 50 50 52 50 50 52 50 50 52 50 50 52 50 50 52 50 50 52 50 50 52 50 50 52 50 50 52 50 50 52 50 50 52 50 50 52 50 50 52 50 50 52 50 50 52 50 50 52 50 50 52 50 50 52 50 50 52 50 50 52 50 50 52 50 50 52 50 50 52 50 50 52 50 50 52 50 50 52 50 50 52 50 50 52 50 50 52 50 50 52 50 50 52 50 50 52 50 50 52 50 50 52 50 50 52 50 50 52 50 50 52 50 50 52 50 50 52 50 50 52 50 50 52 50 50 52 50 50 52 50 50 52 50 50 52 50 50 52 50 50 52 50 50 52 50 50 52 50 50 52 50 50 52 50 50 52 50 50 52 50 50 52 50 50 52 50 50 52 50 50 52 50 50 52 50 50 52 50 50 52 50 50 52 50 50 52 50 50 52 50 50 52 50 50 52 50 50 52 50 50 52 50 50 52 50 50 52 50 50 52 50 50 52 50 50 52 50 50 52 50 50 52 50 50 52 50 50 52 50 50 52 50 50 52 50 50 52 50 50 52 50 50 52 50 50 52 50 50 52 50 50 52 50 50 52 50 50 52 50 50 52 50 50 52 50 50 52 50 50 52 50 50 52 50 50 52 50 50 52 50 50 52 50 50 52 50 50
52 50 50 52 50 50 52 50 50 52 50 50 52 50 50 52 50 50 52 50 50 52 50 50 52 50 50 52 50 50 52 50 50 52 50 50 52 50 50 52 50 50 52 50 50 52 50 50 52 50 50 52 50 50 52 50 50 52 50 50 52 50 50 52 50 50 52 50 50 52 50 50 52 50 50 52 50 50 52 50 50 52 50 50 52 50 50 52 50 50 52 50 50 52 50 50 52 50 50 52 50 50 52 50 50 52 50 50 52 50 50 52 50 50 52 50 50 52 50 50 52 50 50 52 50 50 52 50 50 52 50 50 52 50 50 52 50 50 52 50 50 52 50 50 52 50 50 52 50 50 52 50 50 52 50 50 52 50 50 52 50 50 52 50 50 52 50 50 52 50 50 52 50 50 52 50 50 52 50 50 52 50 50 52 50 50 52 50 50 52 50 50 52 50 50 52 50 50 52 50 50 52 50 50 52 50 50 52 50 50 52 50 50 52 50 50 52 50 50 52 50 50 52 50 50 52 50 50 52 50 50 52 50 50 52 50 50 52 50 50 52 50 50 52 50 50 52 50 50 52 50 50 52 50 50 52 50 50 52 50 50 52 50 50 52 50 50 52 50 50 52 50 50 52 50 50 52 50 50 52 50 50 52 50 50 52 50 50 52 50 50 52 50 50 52 50 50 52 50 50 52 50 50 52 50 50 52 50 50 52 50 50 52 50 50 52 50 50 52 50 50 52 50 50 52 50 50 52 50 50 52 50 50 52 50 50 52 50 50 52 50 50 52 50 50 52 50 50 52 50 50 52 50 50 52 50 50 52 50 50 52 50 50 52 50 50 52 50 50 52 50 50 52 50 50 52 50 50 52 50 50 52 50 50 52 50 50 52 50 50 52 50 50 52 50 50 52 50 50 52 50 50 52 50 50 52 50 50 52 50 50 52 50 50 52 50 50 52 50 50 52 50 50 52 50 50 52 50 50 52 50 50 52 50 50 52 50 50 52 50 50 52 50 50 52 50 50 52 50 50 52 50 50 52 50 50 52 50 50 52 50 50 52 50 50 52 50 50 52 50 50 52 50 50 52 50 50 52 50 50 52 50 50 52 50 50 52 50 50 52 50 50 52 50 50 52 50 50 52 50 50 52 50 50 52 50 50 52 50 50 52 50 50 52 50 50 52 50 50 52 50 50 52 50 50 52 50 50 52 50 50 52 50 50 52 50 50 52 50 50 52 50 50 52 50 50 52 50 50 52 50 50 52 50 50 52 50 50 52 50 50 52 50 50 52 50 50 52 50 50 52 50 50 52 50 50 52 50 50 52 50 50 52 50 50 52 50 50 52 50 50 52 50 50 52 50 50 52 50 50 52 50 50 52 50 50 52 50 50 52 50 50 52 50 50 52 50 50 52 50 50 52 50 50 52 50 50 52 50 50 52 50 50 52 50 50 52 50 50 52 50 50 52 50 50 52 50 50 52 50 50 52 50 50 52 50 50 52 50 50 52 50 50 52 50 50 52 50 50 52 50 50 52 50 50 52 50 50 52 50 50 52 50 50 52 50 50 52 50 50 52 50 50 52 50 50 52 50 50 52 50 50 52 50 50 52 50 50 52 50 50 52 50 50 52 50 50 52 50 50 52 50 50 52 50 50 52 50 50 52 50 50 52 50 50 52 50 50 52 50 50 52 50 50 52 50 50 52 50 50 52 50 50 52 50 50 52 50 50 52 50 50 52 50 50 52 50 50 52 50 50 52 50 50 52 50 50 52 50 50 52 50 50 52 50 50 52 50 50 52 50 50 52 50 50 52 50 50 52 50 50 52 50 50 52 50 50 52 50 50 52 50 50 52 50 50 52 50 50 52 50 50 52 50 50 52 50 50 52 50 50 52 50 50 52 50 50 52 50 50 52 50 50 52 50 50 52 50 50 52 50 50 52 50 50 52 50 50 52 50 50 52 50 50 52 50 50 52 50 50 52 50 50 52 50 50 52 50 50 52 50 50 52 50 50 52 50 50 52 50 50 52 50 50 52 50 50 52 50 50
52 50 50 52 50 50 52 50 50 52 50 50 52 50 50 52 50 50 52 50 50 52 50 50 52 50 50 52 50 50 52 50 50 52 50 50 52 50 50 52 50 50 52 50 50 52 50 50 52 50 50 52 50 50 52 50 50 52 50 50 52 50 50 52 50 50 52 50 50 52 50 50 52 50 50 52 50 50 52 50 50 52 50 50 52 50 50 52 50 50 52 50 50 52 50 50 52 50 50 52 50 50 52 50 50 52 50 50 52 50 50 52 50 50 52 50 50 52 50 50 52 50 50 52 50 50 52 50 50 52 50 50 52 50 50 52 50 50 52 50 50 52 50 50 52 50 50 52 50 50 52 50 50 52 50 50 52 50 50 52 50 50 52 50 50 52 50 50 52 50 50 52 50 50 52 50 50 52 50 50 52 50 50 52 50 50 52 50 50 52 50 50 52 50 50 52 50 50 52 50 50 52 50 50 52 50 50 52 50 50 52 50 50 52 50 50 52 50 50 52 50 50 52 50 50 52 50 50 52 50 50 52 50 50 52 50 50 52 50 50 52 50 50 52 50 50 52 50 50 52 50 50 52 50 50 52 50 50 52 50 50 52 50 50 52 50 50 52 50 50 52 50 50 52 50 50 52 50 50 52 50 50 52 50 50 52 50 50 52 50 50 52 50 50 52 50 50 52 50 50 52 50 50 52 50 50 52 50 50 52 50 50 52 50 50 52 50 50 52 50 50 52 50 50 52 50 50 52 50 50 52 50 50 52 50 50 52 50 50 52 50 50 52 50 50 52 50 50 52 50 50 52 50 50 52 50 50 52 50 50 52 50 50 52 50 50 52 50 50 52 50 50 52 50 50 52 50 50 52 50 50 52 50 50 52 50 50 52 50 50 52 50 50 52 50 50 52 50 50 52 50 50 52 50 50 52 50 50 52 50 50 52 50 50 52 50 50 52 50 50 52 50 50 52 50 50 52 50 50 52 50 50 52 50 50 52 50 50 52 50 50 52 50 50 52 50 50 52 50 50 52 50 50 52 50 50 52 50 50 52 50 50 52 50 50 52 50 50 52 50 50 52 50 50 52 50 50 52 50 50 52 50 50 52 50 50 52 50 50 52 50 50 52 50 50 52 50 50 52 50 50 52 50 50 52 50 50 52 50 50 52 50 50 52 50 50 52 50 50 52 50 50 52 50 50 52 50 50 52 50 50 52 50 50 52 50 50 52 50 50 52 50 50 52 50 50 52 50 50 52 50 50 52 50 50 52 50 50 52 50 50 52 50 50 52 50 50 52 50 50 52 50 50 52 50 50 52 50 50 52 50 50 52 50 50 52 50 50 52 50 50 52 50 50 52 50 50 52 50 50 52 50 50 52 50 50 52 50 50 52 50 50 52 50 50 52 50 50 52 50 50 52 50 50 52 50 50 52 50 50 52 50 50 52 50 50 52 50 50 52 50 50 52 50 50 52 50 50 52 50 50 52 50 50 52 50 50 52 50 50 52 50 50 52 50 50 52 50 50 52 50 50 52 50 50 52 50 50 52 50 50 52 50 50 52 50 50 52 50 50 52 50 50 52 50 50 52 50 50 52 50 50 52 50 50 52 50 50 52 50 50 52 50 50 52 50 50 52 50 50 52 50 50 52 50 50 52 50 50 52 50 50 52 50 50 52 50 50 52 50 50 52 50 50 52 50 50 52 50 50 52 50 50 52 50 50 52 50 50 52 50 50 52 50 50 52 50 50 52 50 50 52 50 50 52 50 50 52 50 50 52 50 50 52 50 50 52 50 50 52 50 50 52 50 50 52 50 50 52 50 50 52 50 50 52 50 50 52 50 50 52 50 50 52 50 50 52 50 50 52 50 50 52 50 50 52 50 50 52 50 50 52 50 50 52 50 50 52 50 50 52 50 50 52 50 50 52 50 50 52 50 50 52 50 50 52 50 50 52 50 50 52 50 50 52 50 50 52 50 50 52 50 50 52 50 50 52 50 50 52 50 50 52 50 50 52 50 50 52 50 50 52 50 50 52 50 50 52 50 50
52 50 50 52 50 50 52 50 50 52 50 50 52 50 50 52 50 50 52 50 50 52 50 50 52 50 50 52 50 50 52 50 50 52 50 50 52 50 50 52 50 50 52 50 50 52 50 50 52 50 50 52 50 50 52 50 50 52 50 50 52 50 50 52 50 50 52 50 50 52 50 50 52 50 50 52 50 50 52 50 50 52 50 50 52 50 50 52 50 50 52 50 50 52 50 50 52 50 50 52 50 50 52 50 50 52 50 50 52 50 50 52 50 50 52 50 50 52 50 50 52 50 50 52 50 50 52 50 50 52 50 50 52 50 50 52 50 50 52 50 50 52 50 50 52 50 50 52 50 50 52 50 50 52 50 50 52 50 50 52 50 50 52 50 50 52 50 50 52 50 50 52 50 50 52 50 50 52 50 50 52 50 50 52 50 50 52 50 50 52 50 50 52 50 50 52 50 50 52 50 50 52 50 50 52 50 50 52 50 50 52 50 50 52 50 50 52 50 50 52 50 50 52 50 50 52 50 50 52 50 50 52 50 50 52 50 50 52 50 50 52 50 50 52 50 50 52 50 50 52 50 50 52 50 50 52 50 50 52 50 50 52 50 50 52 50 50 52 50 50 52 50 50 52 50 50 52 50 50 52 50 50 52 50 50 52 50 50 52 50 50 52 50 50 52 50 50 52 50 50 52 50 50 52 50 50 52 50 50 52 50 50 52 50 50 52 50 50 52 50 50 52 50 50 52 50 50 52 50 50 52 50 50 52 50 50 52 50 50 52 50 50 52 50 50 52 50 50 52 50 50 52 50 50 52 50 50 52 50 50 52 50 50 52 50 50 52 50 50 52 50 50 52 50 50 52 50 50 52 50 50 52 50 50 52 50 50 52 50 50 52 50 50 52 50 50 52 50 50 52 50 50 52 50 50 52 50 50 52 50 50 52 50 50 52 50 50 52 50 50 52 50 50 52 50 50 52 50 50 52 50 50 52 50 50 52 50 50 52 50 50 52 50 50 52 50 50 52 50 50 52 50 50 52 50 50 52 50 50 52 50 50 52 50 50 52 50 50 52 50 50 52 50 50 52 50 50 52 50 50 52 50 50 52 50 50 52 50 50 52 50 50 52 50 50 52 50 50 52 50 50 52 50 50 52 50 50 52 50 50 52 50 50 52 50 50 52 50 50 52 50 50 52 50 50 52 50 50 52 50 50 52 50 50 52 50 50 52 50 50 52 50 50 52 50 50 52 50 50 52 50 50 52 50 50 52 50 50 52 50 50 52 50 50 52 50 50 52 50 50 52 50 50 52 50 50 52 50 50 52 50 50 52 50 50 52 50 50 52 50 50 52 50 50 52 50 50 52 50 50 52 50 50 52 50 50 52 50 50 52 50 50 52 50 50 52 50 50 52 50 50 52 50 50 52 50 50 52 50 50 52 50 50 52 50 50 52 50 50 52 50 50 52 50 50 52 50 50 52 50 50 52 50 50 52 50 50 52 50 50 52 50 50 52 50 50 52 50 50 52 50 50 52 50 50 52 50 50 52 50 50 52 50 50 52 50 50 52 50 50 52 50 50 52 50 50 52 50 50 52 50 50 52 50 50 52 50 50 52 50 50 52 50 50 52 50 50 52 50 50 52 50 50 52 50 50 52 50 50 52 50 50 52 50 50 52 50 50 52 50 50 52 50 50 52 50 50 52 50 50 52 50 50 52 50 50 52 50 50 52 50 50 52 50 50 52 50 50 52 50 50 52 50 50 52 50 50 52 50 50 52 50 50 52 50 50 52 50 50 52 50 50 52 50 50 52 50 50 52 50 50 52 50 50 52 50 50 52 50 50 52 50 50 52 50 50 52 50 50 52 50 50 52 50 50 52 50 50 52 50 50 52 50 50 52 50 50 52 50 50 52 50 50 52 50 50 52 50 50 52 50 50 52 50 50 52 50 50 52 50 50 52 50 50 52 50 50 52 50 50 52 50 50 52 50 50 52 50 50 52 50 50 52 50 50 52 50 50 52 50 50 52 50 50 52 50 50 52 50 50
52 50 50 52 50 50 52 50 50 52 50 50 52 50 50 52 50 50 52 50 50 52 50 50 52 50 50 52 50 50 52 50 50 52 50 50 52 50 50 52 50 50 52 50 50 52 50 50 52 50 50 52 50 50 52 50 50 52 50 50 52 50 50 52 50 50 52 50 50 52 50 50 52 50 50 52 50 50 52 50 50 52 50 50 52 50 50 52 50 50 52 50 50 52 50 50 52 50 50 52 50 50 52 50 50 52 50 50 52 50 50 52 50 50 52 50 50 52 50 50 52 50 50 52 50 50 52 50 50 52 50 50 52 50 50 52 50 50 52 50 50 52 50 50 52 50 50 52 50 50 52 50 50 52 50 50 52 50 50 52 50 50 52 50 50 52 50 50 52 50 50 52 50 50 52 50 50 52 50 50 52 50 50 52 50 50 52 50 50 52 50 50 52 50 50 52 50 50 52 50 50 52 50 50 52 50 50 52 50 50 52 50 50 52 50 50 52 50 50 52 50 50 52 50 50 52 50 50 52 50 50 52 50 50 52 50 50 52 50 50 52 50 50 52 50 50 52 50 50 52 50 50 52 50 50 52 50 50 52 50 50 52 50 50 52 50 50 52 50 50 52 50 50 52 50 50 52 50 50 52 50 50 52 50 50 52 50 50 52 50 50 52 50 50 52 50 50 52 50 50 52 50 50 52 50 50 52 50 50 52 50 50 52 50 50 52 50 50 52 50 50 52 50 50 52 50 50 52 50 50 52 50 50 52 50 50 52 50 50 52 50 50 52 50 50 52 50 50 52 50 50 52 50 50 52 50 50 52 50 50 52 50 50 52 50 50 52 50 50 52 50 50 52 50 50 52 50 50 52 50 50 52 50 50 52 50 50 52 50 50 52 50 50 52 50 50 52 50 50 52 50 50 52 50 50 52 50 50 52 50 50 52 50 50 52 50 50 52 50 50 52 50 50 52 50 50 52 50 50 52 50 50 52 50 50 52 50 50 52 50 50 52 50 50 52 50 50 52 50 50 52 50 50 52 50 50 52 50 50 52 50 50 52 50 50 52 50 50 52 50 50 52 50 50 52 50 50 52 50 50 52 50 50 52 50 50 52 50 50 52 50 50 52 50 50 52 50 50 52 50 50 52 50 50 52 50 50 52 50 50 52 50 50 52 50 50 52 50 50 52 50 50 52 50 50 52 50 50 52 50 50 52 50 50 52 50 50 52 50 50 52 50 50 52 50 50 52 50 50 52 50 50 52 50 50 52 50 50 52 50 50 52 50 50 52 50 50 52 50 50 52 50 50 52 50 50 52 50 50 52 50 50 52 50 50 52 50 50 52 50 50 52 50 50 52 50 50 52 50 50 52 50 50 52 50 50 52 50 50 52 50 50 52 50 50 52 50 50 52 50 50 52 50 50 52 50 50 52 50 50 52 50 50 52 50 50 52 50 50 52 50 50 52 50 50 52 50 50 52 50 50 52 50 50 52 50 50 52 50 50 52 50 50 52 50 50 52 50 50 52 50 50 52 50 50 52 50 50 52 50 50 52 50 50 52 50 50 52 50 50 52 50 50 52 50 50 52 50 50 52 50 50 52 50 50 52 50 50 52 50 50 52 50 50 52 50 50 52 50 50 52 50 50 52 50 50 52 50 50 52 50 50 52 50 50 52 50 50 52 50 50 52 50 50 52 50 50 52 50 50 52 50 50 52 50 50 52 50 50 52 50 50 52 50 50 52 50 50 52 50 50 52 50 50 52 50 50 52 50 50 52 50 50 52 50 50 52 50 50 52 50 50 52 50 50 52 50 50 52 50 50 52 50 50 52 50 50 52 50 50 52 50 50 52 50 50 52 50 50 52 50 50 52 50 50 52 50 50 52 50 50 52 50 50 52 50 50 52 50 50 52 50 50 52 50 50 52 50 50 52 50 50 52 50 50 52 50 50 52 50 50 52 50 50 52 50 50 52 50 50 52 50 50 52 50 50 52 50 50 52 50 50 52 50 50 52 50 50 52 50 50 52 50 50 52 50 50 52 50 50
52 50 50 52 50 50 52 50 50 52 50 50 52 50 50 52 50 50 52 50 50 52 50 50 52 50 50 52 50 50 52 50 50 52 50 50 52 50 50 52 50 50 52 50 50 52 50 50 52 50 50 52 50 50 52 50 50 52 50 50 52 50 50 52 50 50 52 50 50 52 50 50 52 50 50 52 50 50 52 50 50 52 50 50 52 50 50 52 50 50 52 50 50 52 50 50 52 50 50 52 50 50 52 50 50 52 50 50 52 50 50 52 50 50 52 50 50 52 50 50 52 50 50 52 50 50 52 50 50 52 50 50 52 50 50 52 50 50 52 50 50 52 50 50 52 50 50 52 50 50 52 50 50 52 50 50 52 50 50 52 50 50 52 50 50 52 50 50 52 50 50 52 50 50 52 50 50 52 50 50 52 50 50 52 50 50 52 50 50 52 50 50 52 50 50 52 50 50 52 50 50 52 50 50 52 50 50 52 50 50 52 50 50 52 50 50 52 50 50 52 50 50 52 50 50 52 50 50 52 50 50 52 50 50 52 50 50 52 50 50 52 50 50 52 50 50 52 50 50 52 50 50 52 50 50 52 50 50 52 50 50 52 50 50 52 50 50 52 50 50 52 50 50 52 50 50 52 50 50 52 50 50 52 50 50 52 50 50 52 50 50 52 50 50 52 50 50 52 50 50 52 50 50 52 50 50 52 50 50 52 50 50 52 50 50 52 50 50 52 50 50 52 50 50 52 50 50 52 50 50 52 50 50 52 50 50 52 50 50 52 50 50 52 50 50 52 50 50 52 50 50 52 50 50 52 50 50 52 50 50 52 50 50 52 50 50 52 50 50 52 50 50 52 50 50 52 50 50 52 50 50 52 50 50 52 50 50 52 50 50 52 50 50 52 50 50 52 50 50 52 50 50 52 50 50 52 50 50 52 50 50 52 50 50 52 50 50 52 50 50 52 50 50 52 50 50 52 50 50 52 50 50 52 50 50 52 50 50 52 50 50 52 50 50 52 50 50 52 50 50 52 50 50 52 50 50 52 50 50 52 50 50 52 50 50 52 50 50 52 50 50 52 50 50 52 50 50 52 50 50 52 50 50 52 50 50 52 50 50 52 50 50 52 50 50 52 50 50 52 50 50 52 50 50 52 50 50 52 50 50 52 50 50 52 50 50 52 50 50 52 50 50 52 50 50 52 50 50 52 50 50 52 50 50 52 50 50 52 50 50 52 50 50 52 50 50 52 50 50 52 50 50 52 50 50 52 50 50 52 50 50 52 50 50 52 50 50 52 50 50 52 50 50 52 50 50 52 50 50 52 50 50 52 50 50 52 50 50 52 50 50 52 50 50 52 50 50 52 50 50 52 50 50 52 50 50 52 50 50 52 50 50 52 50 50 52 50 50 52 50 50 52 50 50 52 50 50 52 50 50 52 50 50 52 50 50 52 50 50 52 50 50 52 50 50 52 50 50 52 50 50 52 50 50 52 50 50 52 50 50 52 50 50 52 50 50 52 50 50 52 50 50 52 50 50 52 50 50 52 50 50 52 50 50 52 50 50 52 50 50 52 50 50 52 50 50 52 50 50 52 50 50 52 50 50 52 50 50 52 50 50 52 50 50 52 50 50 52 50 50 52 50 50 52 50 50 52 50 50 52 50 50 52 50 50 52 50 50 52 50 50 52 50 50 52 50 50 52 50 50 52 50 50 52 50 50 52 50 50 52 50 50 52 50 50 52 50 50 52 50 50 52 50 50 52 50 50 52 50 50 52 50 50 52 50 50 52 50 50 52 50 50 52 50 50 52 50 50 52 50 50 52 50 50 52 50 50 52 50 50 52 50 50 52 50 50 52 50 50 52 50 50 52 50 50 52 50 50 52 50 50 52 50 50 52 50 50 52 50 50 52 50 50 52 50 50 52 50 50 52 50 50 52 50 50 52 50 50 52 50 50 52 50 50 52 50 50 52 50 50 52 50 50 52 50 50 52 50 50 52 50 50 52 50 50 52 50 50 52 50 50 52 50 50 52 50 50 52 50 50
